(G-CODE GENERATED BY FLATCAM v8.994 - www.flatcam.org - Version Date: 2020/11/7)

(Name: cam.drl_cnc)
(Type: G-code from Geometry)
(Units: MM)

(Created on Thursday, 21 September 2023 at 22:02)

(This preprocessor is used with a motion controller loaded with GRBL firmware.)
(It is configured to be compatible with almost any version of GRBL firmware.)


(TOOLS DIAMETER: )
(Tool: 1 -> Dia: 1.0007599999999999)
(Tool: 2 -> Dia: 1.19888)
(Tool: 3 -> Dia: 1.30048)

(FEEDRATE Z: )
(Tool: 1 -> Feedrate: 60.0)
(Tool: 2 -> Feedrate: 60.0)
(Tool: 3 -> Feedrate: 60.0)

(FEEDRATE RAPIDS: )
(Tool: 1 -> Feedrate Rapids: 1500)
(Tool: 2 -> Feedrate Rapids: 1500)
(Tool: 3 -> Feedrate Rapids: 1500)

(Z_CUT: )
(Tool: 1 -> Z_Cut: -2.1)
(Tool: 2 -> Z_Cut: -2.1)
(Tool: 3 -> Z_Cut: -2.1)

(Tools Offset: )
(Tool: 1 -> Offset Z: 0.0)
(Tool: 2 -> Offset Z: 0.0)
(Tool: 3 -> Offset Z: 0.0)

(Z_MOVE: )
(Tool: 1 -> Z_Move: 3.0)
(Tool: 2 -> Z_Move: 3.0)
(Tool: 3 -> Z_Move: 3.0)

(Z Toolchange: 5.0 mm)
(X,Y Toolchange: 0.0000, 0.0000 mm)
(Z Start: None mm)
(Z End: 3.0 mm)
(X,Y End: 0.0000, 0.0000 mm)
(Steps per circle: 64)
(Steps per circle: 64)
(Preprocessor Excellon: grbl_11)

(X range:    5.0622 ...   78.5774  mm)
(Y range:    1.7856 ...   83.5812  mm)

(Spindle Speed: 1000000 RPM)
G21
G90
G17
G94


G01 F60.00

M5             
G00 Z5.0000
G00 X0.0000 Y0.0000                
T1
M6
(MSG, Change to Tool Dia = 1.0008 ||| Total drills for tool T1 = 170)
M0
G00 Z5.0000

G01 F60.00
M03 S1000000
G00 X68.5292 Y8.1280
G01 Z-2.1000
G01 Z0
G00 Z3.0000
G00 X64.6430 Y8.2804
G01 Z-2.1000
G01 Z0
G00 Z3.0000
G00 X67.0560 Y2.2860
G01 Z-2.1000
G01 Z0
G00 Z3.0000
G00 X62.1792 Y3.3274
G01 Z-2.1000
G01 Z0
G00 Z3.0000
G00 X54.0512 Y2.2860
G01 Z-2.1000
G01 Z0
G00 Z3.0000
G00 X52.1970 Y3.3274
G01 Z-2.1000
G01 Z0
G00 Z3.0000
G00 X54.0512 Y14.2240
G01 Z-2.1000
G01 Z0
G00 Z3.0000
G00 X52.1970 Y13.2080
G01 Z-2.1000
G01 Z0
G00 Z3.0000
G00 X46.2280 Y13.1826
G01 Z-2.1000
G01 Z0
G00 Z3.0000
G00 X46.2280 Y8.1788
G01 Z-2.1000
G01 Z0
G00 Z3.0000
G00 X46.2280 Y3.1750
G01 Z-2.1000
G01 Z0
G00 Z3.0000
G00 X35.1790 Y5.0038
G01 Z-2.1000
G01 Z0
G00 Z3.0000
G00 X35.1790 Y10.0838
G01 Z-2.1000
G01 Z0
G00 Z3.0000
G00 X32.2580 Y14.9098
G01 Z-2.1000
G01 Z0
G00 Z3.0000
G00 X37.3380 Y14.9098
G01 Z-2.1000
G01 Z0
G00 Z3.0000
G00 X35.1536 Y22.4028
G01 Z-2.1000
G01 Z0
G00 Z3.0000
G00 X35.1536 Y27.4828
G01 Z-2.1000
G01 Z0
G00 Z3.0000
G00 X37.3380 Y32.3088
G01 Z-2.1000
G01 Z0
G00 Z3.0000
G00 X32.2326 Y32.3088
G01 Z-2.1000
G01 Z0
G00 Z3.0000
G00 X26.3906 Y31.6738
G01 Z-2.1000
G01 Z0
G00 Z3.0000
G00 X26.4160 Y36.3728
G01 Z-2.1000
G01 Z0
G00 Z3.0000
G00 X21.5392 Y37.4142
G01 Z-2.1000
G01 Z0
G00 Z3.0000
G00 X21.5138 Y30.6578
G01 Z-2.1000
G01 Z0
G00 Z3.0000
G00 X23.9776 Y25.7048
G01 Z-2.1000
G01 Z0
G00 Z3.0000
G00 X27.8638 Y25.5778
G01 Z-2.1000
G01 Z0
G00 Z3.0000
G00 X21.5138 Y20.7772
G01 Z-2.1000
G01 Z0
G00 Z3.0000
G00 X26.3906 Y19.7358
G01 Z-2.1000
G01 Z0
G00 Z3.0000
G00 X26.4160 Y14.2748
G01 Z-2.1000
G01 Z0
G00 Z3.0000
G00 X21.5392 Y13.2588
G01 Z-2.1000
G01 Z0
G00 Z3.0000
G00 X24.0030 Y8.3058
G01 Z-2.1000
G01 Z0
G00 Z3.0000
G00 X27.8892 Y8.1788
G01 Z-2.1000
G01 Z0
G00 Z3.0000
G00 X26.4160 Y2.3368
G01 Z-2.1000
G01 Z0
G00 Z3.0000
G00 X21.5392 Y3.3782
G01 Z-2.1000
G01 Z0
G00 Z3.0000
G00 X13.4112 Y2.3368
G01 Z-2.1000
G01 Z0
G00 Z3.0000
G00 X11.5570 Y3.3782
G01 Z-2.1000
G01 Z0
G00 Z3.0000
G00 X5.5880 Y3.2258
G01 Z-2.1000
G01 Z0
G00 Z3.0000
G00 X5.5880 Y8.2296
G01 Z-2.1000
G01 Z0
G00 Z3.0000
G00 X5.5880 Y13.2334
G01 Z-2.1000
G01 Z0
G00 Z3.0000
G00 X11.5570 Y13.2588
G01 Z-2.1000
G01 Z0
G00 Z3.0000
G00 X13.4112 Y14.2748
G01 Z-2.1000
G01 Z0
G00 Z3.0000
G00 X13.3858 Y19.7358
G01 Z-2.1000
G01 Z0
G00 Z3.0000
G00 X11.5316 Y20.7772
G01 Z-2.1000
G01 Z0
G00 Z3.0000
G00 X5.5626 Y20.6248
G01 Z-2.1000
G01 Z0
G00 Z3.0000
G00 X5.5626 Y25.6286
G01 Z-2.1000
G01 Z0
G00 Z3.0000
G00 X5.5626 Y30.6324
G01 Z-2.1000
G01 Z0
G00 Z3.0000
G00 X11.5316 Y30.6578
G01 Z-2.1000
G01 Z0
G00 Z3.0000
G00 X13.3858 Y31.6738
G01 Z-2.1000
G01 Z0
G00 Z3.0000
G00 X13.4112 Y36.3728
G01 Z-2.1000
G01 Z0
G00 Z3.0000
G00 X11.5570 Y37.4142
G01 Z-2.1000
G01 Z0
G00 Z3.0000
G00 X5.5880 Y37.2618
G01 Z-2.1000
G01 Z0
G00 Z3.0000
G00 X5.5880 Y42.2656
G01 Z-2.1000
G01 Z0
G00 Z3.0000
G00 X5.5880 Y47.2694
G01 Z-2.1000
G01 Z0
G00 Z3.0000
G00 X11.5570 Y47.2948
G01 Z-2.1000
G01 Z0
G00 Z3.0000
G00 X13.4112 Y48.3108
G01 Z-2.1000
G01 Z0
G00 Z3.0000
G00 X13.3858 Y53.7718
G01 Z-2.1000
G01 Z0
G00 Z3.0000
G00 X11.5316 Y54.8132
G01 Z-2.1000
G01 Z0
G00 Z3.0000
G00 X5.5626 Y54.6608
G01 Z-2.1000
G01 Z0
G00 Z3.0000
G00 X5.5626 Y59.6646
G01 Z-2.1000
G01 Z0
G00 Z3.0000
G00 X5.5626 Y64.6684
G01 Z-2.1000
G01 Z0
G00 Z3.0000
G00 X11.5316 Y64.6938
G01 Z-2.1000
G01 Z0
G00 Z3.0000
G00 X13.3858 Y65.7098
G01 Z-2.1000
G01 Z0
G00 Z3.0000
G00 X13.4112 Y70.4088
G01 Z-2.1000
G01 Z0
G00 Z3.0000
G00 X11.5570 Y71.4502
G01 Z-2.1000
G01 Z0
G00 Z3.0000
G00 X5.5880 Y71.2978
G01 Z-2.1000
G01 Z0
G00 Z3.0000
G00 X5.5880 Y76.3016
G01 Z-2.1000
G01 Z0
G00 Z3.0000
G00 X5.5880 Y81.3054
G01 Z-2.1000
G01 Z0
G00 Z3.0000
G00 X11.5570 Y81.3308
G01 Z-2.1000
G01 Z0
G00 Z3.0000
G00 X13.4112 Y82.3468
G01 Z-2.1000
G01 Z0
G00 Z3.0000
G00 X21.5392 Y81.3308
G01 Z-2.1000
G01 Z0
G00 Z3.0000
G00 X26.4160 Y82.3468
G01 Z-2.1000
G01 Z0
G00 Z3.0000
G00 X27.8892 Y76.2508
G01 Z-2.1000
G01 Z0
G00 Z3.0000
G00 X24.0030 Y76.3778
G01 Z-2.1000
G01 Z0
G00 Z3.0000
G00 X26.4160 Y70.4088
G01 Z-2.1000
G01 Z0
G00 Z3.0000
G00 X21.5392 Y71.4502
G01 Z-2.1000
G01 Z0
G00 Z3.0000
G00 X21.5138 Y64.6938
G01 Z-2.1000
G01 Z0
G00 Z3.0000
G00 X26.3906 Y65.7098
G01 Z-2.1000
G01 Z0
G00 Z3.0000
G00 X27.8638 Y59.6138
G01 Z-2.1000
G01 Z0
G00 Z3.0000
G00 X23.9776 Y59.7408
G01 Z-2.1000
G01 Z0
G00 Z3.0000
G00 X21.5138 Y54.8132
G01 Z-2.1000
G01 Z0
G00 Z3.0000
G00 X26.3906 Y53.7718
G01 Z-2.1000
G01 Z0
G00 Z3.0000
G00 X26.4160 Y48.3108
G01 Z-2.1000
G01 Z0
G00 Z3.0000
G00 X21.5392 Y47.2948
G01 Z-2.1000
G01 Z0
G00 Z3.0000
G00 X24.0030 Y42.3418
G01 Z-2.1000
G01 Z0
G00 Z3.0000
G00 X27.8892 Y42.2148
G01 Z-2.1000
G01 Z0
G00 Z3.0000
G00 X35.1790 Y39.0398
G01 Z-2.1000
G01 Z0
G00 Z3.0000
G00 X35.1790 Y44.1198
G01 Z-2.1000
G01 Z0
G00 Z3.0000
G00 X32.2580 Y48.9458
G01 Z-2.1000
G01 Z0
G00 Z3.0000
G00 X37.3380 Y48.9458
G01 Z-2.1000
G01 Z0
G00 Z3.0000
G00 X35.1536 Y56.4388
G01 Z-2.1000
G01 Z0
G00 Z3.0000
G00 X35.1536 Y61.5188
G01 Z-2.1000
G01 Z0
G00 Z3.0000
G00 X37.3380 Y66.3448
G01 Z-2.1000
G01 Z0
G00 Z3.0000
G00 X32.2326 Y66.3448
G01 Z-2.1000
G01 Z0
G00 Z3.0000
G00 X35.1790 Y73.0758
G01 Z-2.1000
G01 Z0
G00 Z3.0000
G00 X35.1790 Y78.1558
G01 Z-2.1000
G01 Z0
G00 Z3.0000
G00 X32.2580 Y82.9818
G01 Z-2.1000
G01 Z0
G00 Z3.0000
G00 X37.3380 Y82.9818
G01 Z-2.1000
G01 Z0
G00 Z3.0000
G00 X46.2280 Y81.2546
G01 Z-2.1000
G01 Z0
G00 Z3.0000
G00 X52.1970 Y81.2800
G01 Z-2.1000
G01 Z0
G00 Z3.0000
G00 X54.0512 Y82.2960
G01 Z-2.1000
G01 Z0
G00 Z3.0000
G00 X62.1792 Y81.2800
G01 Z-2.1000
G01 Z0
G00 Z3.0000
G00 X67.0560 Y82.2960
G01 Z-2.1000
G01 Z0
G00 Z3.0000
G00 X72.8980 Y82.9310
G01 Z-2.1000
G01 Z0
G00 Z3.0000
G00 X77.9780 Y82.9310
G01 Z-2.1000
G01 Z0
G00 Z3.0000
G00 X75.8190 Y78.1050
G01 Z-2.1000
G01 Z0
G00 Z3.0000
G00 X75.8190 Y73.0250
G01 Z-2.1000
G01 Z0
G00 Z3.0000
G00 X72.8726 Y66.2940
G01 Z-2.1000
G01 Z0
G00 Z3.0000
G00 X77.9780 Y66.2940
G01 Z-2.1000
G01 Z0
G00 Z3.0000
G00 X75.7936 Y61.4680
G01 Z-2.1000
G01 Z0
G00 Z3.0000
G00 X75.7936 Y56.3880
G01 Z-2.1000
G01 Z0
G00 Z3.0000
G00 X77.9780 Y48.8950
G01 Z-2.1000
G01 Z0
G00 Z3.0000
G00 X72.8980 Y48.8950
G01 Z-2.1000
G01 Z0
G00 Z3.0000
G00 X75.8190 Y44.0690
G01 Z-2.1000
G01 Z0
G00 Z3.0000
G00 X75.8190 Y38.9890
G01 Z-2.1000
G01 Z0
G00 Z3.0000
G00 X68.5292 Y42.1640
G01 Z-2.1000
G01 Z0
G00 Z3.0000
G00 X67.0560 Y36.3220
G01 Z-2.1000
G01 Z0
G00 Z3.0000
G00 X62.1792 Y37.3634
G01 Z-2.1000
G01 Z0
G00 Z3.0000
G00 X64.6430 Y42.3164
G01 Z-2.1000
G01 Z0
G00 Z3.0000
G00 X62.1792 Y47.2440
G01 Z-2.1000
G01 Z0
G00 Z3.0000
G00 X67.0560 Y48.2600
G01 Z-2.1000
G01 Z0
G00 Z3.0000
G00 X67.0306 Y53.7210
G01 Z-2.1000
G01 Z0
G00 Z3.0000
G00 X62.1538 Y54.7624
G01 Z-2.1000
G01 Z0
G00 Z3.0000
G00 X64.6176 Y59.7154
G01 Z-2.1000
G01 Z0
G00 Z3.0000
G00 X68.5038 Y59.5630
G01 Z-2.1000
G01 Z0
G00 Z3.0000
G00 X67.0306 Y65.6590
G01 Z-2.1000
G01 Z0
G00 Z3.0000
G00 X62.1538 Y64.6430
G01 Z-2.1000
G01 Z0
G00 Z3.0000
G00 X62.1792 Y71.3994
G01 Z-2.1000
G01 Z0
G00 Z3.0000
G00 X67.0560 Y70.3580
G01 Z-2.1000
G01 Z0
G00 Z3.0000
G00 X68.5292 Y76.2000
G01 Z-2.1000
G01 Z0
G00 Z3.0000
G00 X64.6430 Y76.3524
G01 Z-2.1000
G01 Z0
G00 Z3.0000
G00 X46.2280 Y76.2508
G01 Z-2.1000
G01 Z0
G00 Z3.0000
G00 X46.2280 Y71.2470
G01 Z-2.1000
G01 Z0
G00 Z3.0000
G00 X52.1970 Y71.3994
G01 Z-2.1000
G01 Z0
G00 Z3.0000
G00 X54.0512 Y70.3580
G01 Z-2.1000
G01 Z0
G00 Z3.0000
G00 X54.0258 Y65.6590
G01 Z-2.1000
G01 Z0
G00 Z3.0000
G00 X52.1716 Y64.6430
G01 Z-2.1000
G01 Z0
G00 Z3.0000
G00 X46.2026 Y64.6176
G01 Z-2.1000
G01 Z0
G00 Z3.0000
G00 X46.2026 Y59.6138
G01 Z-2.1000
G01 Z0
G00 Z3.0000
G00 X46.2026 Y54.6100
G01 Z-2.1000
G01 Z0
G00 Z3.0000
G00 X52.1716 Y54.7624
G01 Z-2.1000
G01 Z0
G00 Z3.0000
G00 X54.0258 Y53.7210
G01 Z-2.1000
G01 Z0
G00 Z3.0000
G00 X54.0512 Y48.2600
G01 Z-2.1000
G01 Z0
G00 Z3.0000
G00 X52.1970 Y47.2440
G01 Z-2.1000
G01 Z0
G00 Z3.0000
G00 X46.2280 Y47.2186
G01 Z-2.1000
G01 Z0
G00 Z3.0000
G00 X46.2280 Y42.2148
G01 Z-2.1000
G01 Z0
G00 Z3.0000
G00 X46.2280 Y37.2110
G01 Z-2.1000
G01 Z0
G00 Z3.0000
G00 X52.1970 Y37.3634
G01 Z-2.1000
G01 Z0
G00 Z3.0000
G00 X54.0512 Y36.3220
G01 Z-2.1000
G01 Z0
G00 Z3.0000
G00 X54.0258 Y31.6230
G01 Z-2.1000
G01 Z0
G00 Z3.0000
G00 X52.1716 Y30.6070
G01 Z-2.1000
G01 Z0
G00 Z3.0000
G00 X46.2026 Y30.5816
G01 Z-2.1000
G01 Z0
G00 Z3.0000
G00 X46.2026 Y25.5778
G01 Z-2.1000
G01 Z0
G00 Z3.0000
G00 X46.2026 Y20.5740
G01 Z-2.1000
G01 Z0
G00 Z3.0000
G00 X52.1716 Y20.7264
G01 Z-2.1000
G01 Z0
G00 Z3.0000
G00 X54.0258 Y19.6850
G01 Z-2.1000
G01 Z0
G00 Z3.0000
G00 X62.1538 Y20.7264
G01 Z-2.1000
G01 Z0
G00 Z3.0000
G00 X62.1792 Y13.2080
G01 Z-2.1000
G01 Z0
G00 Z3.0000
G00 X67.0560 Y14.2240
G01 Z-2.1000
G01 Z0
G00 Z3.0000
G00 X67.0306 Y19.6850
G01 Z-2.1000
G01 Z0
G00 Z3.0000
G00 X68.5038 Y25.5270
G01 Z-2.1000
G01 Z0
G00 Z3.0000
G00 X64.6176 Y25.6794
G01 Z-2.1000
G01 Z0
G00 Z3.0000
G00 X62.1538 Y30.6070
G01 Z-2.1000
G01 Z0
G00 Z3.0000
G00 X67.0306 Y31.6230
G01 Z-2.1000
G01 Z0
G00 Z3.0000
G00 X72.8726 Y32.2580
G01 Z-2.1000
G01 Z0
G00 Z3.0000
G00 X77.9780 Y32.2580
G01 Z-2.1000
G01 Z0
G00 Z3.0000
G00 X75.7936 Y27.4320
G01 Z-2.1000
G01 Z0
G00 Z3.0000
G00 X75.7936 Y22.3520
G01 Z-2.1000
G01 Z0
G00 Z3.0000
G00 X77.9780 Y14.8590
G01 Z-2.1000
G01 Z0
G00 Z3.0000
G00 X72.8980 Y14.8590
G01 Z-2.1000
G01 Z0
G00 Z3.0000
G00 X75.8190 Y10.0330
G01 Z-2.1000
G01 Z0
G00 Z3.0000
G00 X75.8190 Y4.9530
G01 Z-2.1000
G01 Z0
G00 Z3.0000
M05
G00 Z3.00
G00 X0.0 Y0.0


