(G-CODE GENERATED BY FLATCAM v8.994 - www.flatcam.org - Version Date: 2020/11/7)

(Name: pcb2_x10.gbl_cutout_cnc)
(Type: G-code from Geometry)
(Units: MM)

(Created on Friday, 22 September 2023 at 04:00)

(This preprocessor is used with a motion controller loaded with GRBL firmware.)
(It is configured to be compatible with almost any version of GRBL firmware.)

(TOOL DIAMETER: 2.0 mm)
(Feedrate_XY: 60.0 mm/min)
(Feedrate_Z: 60.0 mm/min)
(Feedrate rapids 1500.0 mm/min)

(Z_Cut: -2.0 mm)
(DepthPerCut: 0.5 mm <=>4 passes)
(Z_Move: 3.0 mm)
(Z Start: None mm)
(Z End: 3.0 mm)
(X,Y End: 0.0000, 0.0000 mm)
(Steps per circle: 64)
(Steps per circle: 64)
(Preprocessor Geometry: grbl_11)

(X range:   -1.1001 ...   82.5071  mm)
(Y range:   -1.0493 ...   86.1139  mm)

(Spindle Speed: 1000000.0 RPM)
G21
G90
G17
G94


G01 F60.00

M5             
G00 Z5.0000
G00 X0.0000 Y0.0000                
T1
M6
(MSG, Change to Tool Dia = 2.0000)
M0
G00 Z5.0000

M03 S1000000.0
G01 F60.00
G00 X39.3035 Y-1.0493
G01 F60.00
G01 Z-0.5000
G01 F60.00
G01 X-0.0001 Y-1.0493 F60.00
G01 X-0.1079 Y-1.0440 F60.00
G01 X-0.2147 Y-1.0281 F60.00
G01 X-0.3194 Y-1.0019 F60.00
G01 X-0.4210 Y-0.9655 F60.00
G01 X-0.5186 Y-0.9194 F60.00
G01 X-0.6112 Y-0.8639 F60.00
G01 X-0.6979 Y-0.7996 F60.00
G01 X-0.7779 Y-0.7271 F60.00
G01 X-0.8504 Y-0.6471 F60.00
G01 X-0.9147 Y-0.5604 F60.00
G01 X-0.9702 Y-0.4678 F60.00
G01 X-1.0163 Y-0.3702 F60.00
G01 X-1.0527 Y-0.2686 F60.00
G01 X-1.0789 Y-0.1639 F60.00
G01 X-1.0948 Y-0.0571 F60.00
G01 X-1.1001 Y0.0507 F60.00
G01 X-1.1001 Y41.1323 F60.00
G00 X-1.1001 Y41.1323
G01 F60.00
G01 Z-1.0000
G01 F60.00
G01 X-1.1001 Y0.0507 F60.00
G01 X-1.0948 Y-0.0571 F60.00
G01 X-1.0789 Y-0.1639 F60.00
G01 X-1.0527 Y-0.2686 F60.00
G01 X-1.0163 Y-0.3702 F60.00
G01 X-0.9702 Y-0.4678 F60.00
G01 X-0.9147 Y-0.5604 F60.00
G01 X-0.8504 Y-0.6471 F60.00
G01 X-0.7779 Y-0.7271 F60.00
G01 X-0.6979 Y-0.7996 F60.00
G01 X-0.6112 Y-0.8639 F60.00
G01 X-0.5186 Y-0.9194 F60.00
G01 X-0.4210 Y-0.9655 F60.00
G01 X-0.3194 Y-1.0019 F60.00
G01 X-0.2147 Y-1.0281 F60.00
G01 X-0.1079 Y-1.0440 F60.00
G01 X-0.0001 Y-1.0493 F60.00
G01 X39.3035 Y-1.0493 F60.00
G00 X39.3035 Y-1.0493
G01 F60.00
G01 Z-1.5000
G01 F60.00
G01 X-0.0001 Y-1.0493 F60.00
G01 X-0.1079 Y-1.0440 F60.00
G01 X-0.2147 Y-1.0281 F60.00
G01 X-0.3194 Y-1.0019 F60.00
G01 X-0.4210 Y-0.9655 F60.00
G01 X-0.5186 Y-0.9194 F60.00
G01 X-0.6112 Y-0.8639 F60.00
G01 X-0.6979 Y-0.7996 F60.00
G01 X-0.7779 Y-0.7271 F60.00
G01 X-0.8504 Y-0.6471 F60.00
G01 X-0.9147 Y-0.5604 F60.00
G01 X-0.9702 Y-0.4678 F60.00
G01 X-1.0163 Y-0.3702 F60.00
G01 X-1.0527 Y-0.2686 F60.00
G01 X-1.0789 Y-0.1639 F60.00
G01 X-1.0948 Y-0.0571 F60.00
G01 X-1.1001 Y0.0507 F60.00
G01 X-1.1001 Y41.1323 F60.00
G00 X-1.1001 Y41.1323
G01 F60.00
G01 Z-2.0000
G01 F60.00
G01 X-1.1001 Y0.0507 F60.00
G01 X-1.0948 Y-0.0571 F60.00
G01 X-1.0789 Y-0.1639 F60.00
G01 X-1.0527 Y-0.2686 F60.00
G01 X-1.0163 Y-0.3702 F60.00
G01 X-0.9702 Y-0.4678 F60.00
G01 X-0.9147 Y-0.5604 F60.00
G01 X-0.8504 Y-0.6471 F60.00
G01 X-0.7779 Y-0.7271 F60.00
G01 X-0.6979 Y-0.7996 F60.00
G01 X-0.6112 Y-0.8639 F60.00
G01 X-0.5186 Y-0.9194 F60.00
G01 X-0.4210 Y-0.9655 F60.00
G01 X-0.3194 Y-1.0019 F60.00
G01 X-0.2147 Y-1.0281 F60.00
G01 X-0.1079 Y-1.0440 F60.00
G01 X-0.0001 Y-1.0493 F60.00
G01 X39.3035 Y-1.0493 F60.00
G00 Z3.0000
G00 X-1.1001 Y44.1323
G01 F60.00
G01 Z-0.5000
G01 F60.00
G01 X-1.1001 Y85.0139 F60.00
G01 X-1.0948 Y85.1217 F60.00
G01 X-1.0789 Y85.2285 F60.00
G01 X-1.0527 Y85.3332 F60.00
G01 X-1.0163 Y85.4348 F60.00
G01 X-0.9702 Y85.5324 F60.00
G01 X-0.9147 Y85.6250 F60.00
G01 X-0.8504 Y85.7117 F60.00
G01 X-0.7779 Y85.7917 F60.00
G01 X-0.6979 Y85.8642 F60.00
G01 X-0.6112 Y85.9285 F60.00
G01 X-0.5186 Y85.9840 F60.00
G01 X-0.4210 Y86.0301 F60.00
G01 X-0.3194 Y86.0665 F60.00
G01 X-0.2147 Y86.0927 F60.00
G01 X-0.1079 Y86.1086 F60.00
G01 X-0.0001 Y86.1139 F60.00
G01 X39.3035 Y86.1139 F60.00
G00 X39.3035 Y86.1139
G01 F60.00
G01 Z-1.0000
G01 F60.00
G01 X-0.0001 Y86.1139 F60.00
G01 X-0.1079 Y86.1086 F60.00
G01 X-0.2147 Y86.0927 F60.00
G01 X-0.3194 Y86.0665 F60.00
G01 X-0.4210 Y86.0301 F60.00
G01 X-0.5186 Y85.9840 F60.00
G01 X-0.6112 Y85.9285 F60.00
G01 X-0.6979 Y85.8642 F60.00
G01 X-0.7779 Y85.7917 F60.00
G01 X-0.8504 Y85.7117 F60.00
G01 X-0.9147 Y85.6250 F60.00
G01 X-0.9702 Y85.5324 F60.00
G01 X-1.0163 Y85.4348 F60.00
G01 X-1.0527 Y85.3332 F60.00
G01 X-1.0789 Y85.2285 F60.00
G01 X-1.0948 Y85.1217 F60.00
G01 X-1.1001 Y85.0139 F60.00
G01 X-1.1001 Y44.1323 F60.00
G00 X-1.1001 Y44.1323
G01 F60.00
G01 Z-1.5000
G01 F60.00
G01 X-1.1001 Y85.0139 F60.00
G01 X-1.0948 Y85.1217 F60.00
G01 X-1.0789 Y85.2285 F60.00
G01 X-1.0527 Y85.3332 F60.00
G01 X-1.0163 Y85.4348 F60.00
G01 X-0.9702 Y85.5324 F60.00
G01 X-0.9147 Y85.6250 F60.00
G01 X-0.8504 Y85.7117 F60.00
G01 X-0.7779 Y85.7917 F60.00
G01 X-0.6979 Y85.8642 F60.00
G01 X-0.6112 Y85.9285 F60.00
G01 X-0.5186 Y85.9840 F60.00
G01 X-0.4210 Y86.0301 F60.00
G01 X-0.3194 Y86.0665 F60.00
G01 X-0.2147 Y86.0927 F60.00
G01 X-0.1079 Y86.1086 F60.00
G01 X-0.0001 Y86.1139 F60.00
G01 X39.3035 Y86.1139 F60.00
G00 X39.3035 Y86.1139
G01 F60.00
G01 Z-2.0000
G01 F60.00
G01 X-0.0001 Y86.1139 F60.00
G01 X-0.1079 Y86.1086 F60.00
G01 X-0.2147 Y86.0927 F60.00
G01 X-0.3194 Y86.0665 F60.00
G01 X-0.4210 Y86.0301 F60.00
G01 X-0.5186 Y85.9840 F60.00
G01 X-0.6112 Y85.9285 F60.00
G01 X-0.6979 Y85.8642 F60.00
G01 X-0.7779 Y85.7917 F60.00
G01 X-0.8504 Y85.7117 F60.00
G01 X-0.9147 Y85.6250 F60.00
G01 X-0.9702 Y85.5324 F60.00
G01 X-1.0163 Y85.4348 F60.00
G01 X-1.0527 Y85.3332 F60.00
G01 X-1.0789 Y85.2285 F60.00
G01 X-1.0948 Y85.1217 F60.00
G01 X-1.1001 Y85.0139 F60.00
G01 X-1.1001 Y44.1323 F60.00
G00 Z3.0000
G00 X42.3035 Y86.1139
G01 F60.00
G01 Z-0.5000
G01 F60.00
G01 X81.4071 Y86.1139 F60.00
G01 X81.5149 Y86.1086 F60.00
G01 X81.6217 Y86.0927 F60.00
G01 X81.7264 Y86.0665 F60.00
G01 X81.8280 Y86.0301 F60.00
G01 X81.9256 Y85.9840 F60.00
G01 X82.0182 Y85.9285 F60.00
G01 X82.1049 Y85.8642 F60.00
G01 X82.1849 Y85.7917 F60.00
G01 X82.2574 Y85.7117 F60.00
G01 X82.3217 Y85.6250 F60.00
G01 X82.3772 Y85.5324 F60.00
G01 X82.4233 Y85.4348 F60.00
G01 X82.4597 Y85.3332 F60.00
G01 X82.4859 Y85.2285 F60.00
G01 X82.5018 Y85.1217 F60.00
G01 X82.5071 Y85.0139 F60.00
G01 X82.5071 Y44.1323 F60.00
G00 X82.5071 Y44.1323
G01 F60.00
G01 Z-1.0000
G01 F60.00
G01 X82.5071 Y85.0139 F60.00
G01 X82.5018 Y85.1217 F60.00
G01 X82.4859 Y85.2285 F60.00
G01 X82.4597 Y85.3332 F60.00
G01 X82.4233 Y85.4348 F60.00
G01 X82.3772 Y85.5324 F60.00
G01 X82.3217 Y85.6250 F60.00
G01 X82.2574 Y85.7117 F60.00
G01 X82.1849 Y85.7917 F60.00
G01 X82.1049 Y85.8642 F60.00
G01 X82.0182 Y85.9285 F60.00
G01 X81.9256 Y85.9840 F60.00
G01 X81.8280 Y86.0301 F60.00
G01 X81.7264 Y86.0665 F60.00
G01 X81.6217 Y86.0927 F60.00
G01 X81.5149 Y86.1086 F60.00
G01 X81.4071 Y86.1139 F60.00
G01 X42.3035 Y86.1139 F60.00
G00 X42.3035 Y86.1139
G01 F60.00
G01 Z-1.5000
G01 F60.00
G01 X81.4071 Y86.1139 F60.00
G01 X81.5149 Y86.1086 F60.00
G01 X81.6217 Y86.0927 F60.00
G01 X81.7264 Y86.0665 F60.00
G01 X81.8280 Y86.0301 F60.00
G01 X81.9256 Y85.9840 F60.00
G01 X82.0182 Y85.9285 F60.00
G01 X82.1049 Y85.8642 F60.00
G01 X82.1849 Y85.7917 F60.00
G01 X82.2574 Y85.7117 F60.00
G01 X82.3217 Y85.6250 F60.00
G01 X82.3772 Y85.5324 F60.00
G01 X82.4233 Y85.4348 F60.00
G01 X82.4597 Y85.3332 F60.00
G01 X82.4859 Y85.2285 F60.00
G01 X82.5018 Y85.1217 F60.00
G01 X82.5071 Y85.0139 F60.00
G01 X82.5071 Y44.1323 F60.00
G00 X82.5071 Y44.1323
G01 F60.00
G01 Z-2.0000
G01 F60.00
G01 X82.5071 Y85.0139 F60.00
G01 X82.5018 Y85.1217 F60.00
G01 X82.4859 Y85.2285 F60.00
G01 X82.4597 Y85.3332 F60.00
G01 X82.4233 Y85.4348 F60.00
G01 X82.3772 Y85.5324 F60.00
G01 X82.3217 Y85.6250 F60.00
G01 X82.2574 Y85.7117 F60.00
G01 X82.1849 Y85.7917 F60.00
G01 X82.1049 Y85.8642 F60.00
G01 X82.0182 Y85.9285 F60.00
G01 X81.9256 Y85.9840 F60.00
G01 X81.8280 Y86.0301 F60.00
G01 X81.7264 Y86.0665 F60.00
G01 X81.6217 Y86.0927 F60.00
G01 X81.5149 Y86.1086 F60.00
G01 X81.4071 Y86.1139 F60.00
G01 X42.3035 Y86.1139 F60.00
G00 Z3.0000
G00 X82.5071 Y41.1323
G01 F60.00
G01 Z-0.5000
G01 F60.00
G01 X82.5071 Y0.0507 F60.00
G01 X82.5018 Y-0.0571 F60.00
G01 X82.4859 Y-0.1639 F60.00
G01 X82.4597 Y-0.2686 F60.00
G01 X82.4233 Y-0.3702 F60.00
G01 X82.3772 Y-0.4678 F60.00
G01 X82.3217 Y-0.5604 F60.00
G01 X82.2574 Y-0.6471 F60.00
G01 X82.1849 Y-0.7271 F60.00
G01 X82.1049 Y-0.7996 F60.00
G01 X82.0182 Y-0.8639 F60.00
G01 X81.9256 Y-0.9194 F60.00
G01 X81.8280 Y-0.9655 F60.00
G01 X81.7264 Y-1.0019 F60.00
G01 X81.6217 Y-1.0281 F60.00
G01 X81.5149 Y-1.0440 F60.00
G01 X81.4071 Y-1.0493 F60.00
G01 X42.3035 Y-1.0493 F60.00
G00 X42.3035 Y-1.0493
G01 F60.00
G01 Z-1.0000
G01 F60.00
G01 X81.4071 Y-1.0493 F60.00
G01 X81.5149 Y-1.0440 F60.00
G01 X81.6217 Y-1.0281 F60.00
G01 X81.7264 Y-1.0019 F60.00
G01 X81.8280 Y-0.9655 F60.00
G01 X81.9256 Y-0.9194 F60.00
G01 X82.0182 Y-0.8639 F60.00
G01 X82.1049 Y-0.7996 F60.00
G01 X82.1849 Y-0.7271 F60.00
G01 X82.2574 Y-0.6471 F60.00
G01 X82.3217 Y-0.5604 F60.00
G01 X82.3772 Y-0.4678 F60.00
G01 X82.4233 Y-0.3702 F60.00
G01 X82.4597 Y-0.2686 F60.00
G01 X82.4859 Y-0.1639 F60.00
G01 X82.5018 Y-0.0571 F60.00
G01 X82.5071 Y0.0507 F60.00
G01 X82.5071 Y41.1323 F60.00
G00 X82.5071 Y41.1323
G01 F60.00
G01 Z-1.5000
G01 F60.00
G01 X82.5071 Y0.0507 F60.00
G01 X82.5018 Y-0.0571 F60.00
G01 X82.4859 Y-0.1639 F60.00
G01 X82.4597 Y-0.2686 F60.00
G01 X82.4233 Y-0.3702 F60.00
G01 X82.3772 Y-0.4678 F60.00
G01 X82.3217 Y-0.5604 F60.00
G01 X82.2574 Y-0.6471 F60.00
G01 X82.1849 Y-0.7271 F60.00
G01 X82.1049 Y-0.7996 F60.00
G01 X82.0182 Y-0.8639 F60.00
G01 X81.9256 Y-0.9194 F60.00
G01 X81.8280 Y-0.9655 F60.00
G01 X81.7264 Y-1.0019 F60.00
G01 X81.6217 Y-1.0281 F60.00
G01 X81.5149 Y-1.0440 F60.00
G01 X81.4071 Y-1.0493 F60.00
G01 X42.3035 Y-1.0493 F60.00
G00 X42.3035 Y-1.0493
G01 F60.00
G01 Z-2.0000
G01 F60.00
G01 X81.4071 Y-1.0493 F60.00
G01 X81.5149 Y-1.0440 F60.00
G01 X81.6217 Y-1.0281 F60.00
G01 X81.7264 Y-1.0019 F60.00
G01 X81.8280 Y-0.9655 F60.00
G01 X81.9256 Y-0.9194 F60.00
G01 X82.0182 Y-0.8639 F60.00
G01 X82.1049 Y-0.7996 F60.00
G01 X82.1849 Y-0.7271 F60.00
G01 X82.2574 Y-0.6471 F60.00
G01 X82.3217 Y-0.5604 F60.00
G01 X82.3772 Y-0.4678 F60.00
G01 X82.4233 Y-0.3702 F60.00
G01 X82.4597 Y-0.2686 F60.00
G01 X82.4859 Y-0.1639 F60.00
G01 X82.5018 Y-0.0571 F60.00
G01 X82.5071 Y0.0507 F60.00
G01 X82.5071 Y41.1323 F60.00
G00 Z3.0000
M05
G00 Z3.0000
G00 Z3.00
G00 X0.0 Y0.0


