(G-CODE GENERATED BY FLATCAM v8.994 - www.flatcam.org - Version Date: 2020/11/7)

(Name: pcb2_x10.gbl_iso_combined_cnc)
(Type: G-code from Geometry)
(Units: MM)

(Created on Thursday, 21 September 2023 at 21:57)

(This preprocessor is used with a motion controller loaded with GRBL firmware.)
(It is configured to be compatible with almost any version of GRBL firmware.)

(TOOL DIAMETER: 0.2132 mm)
(Feedrate_XY: 60.0 mm/min)
(Feedrate_Z: 60.0 mm/min)
(Feedrate rapids 1500.0 mm/min)

(Z_Cut: -0.098 mm)
(Z_Move: 3.0 mm)
(Z Start: None mm)
(Z End: 3.0 mm)
(X,Y End: 0.0000, 0.0000 mm)
(Steps per circle: 64)
(Steps per circle: 64)
(Preprocessor Geometry: grbl_11)

(X range:    0.3607 ...   81.0463  mm)
(Y range:    0.4115 ...   84.6531  mm)

(Spindle Speed: 1000000.0 RPM)
G21
G90
G17
G94


G01 F60.00

M5             
G00 Z5.0000
G00 X0.0000 Y0.0000                
T2
M6
(MSG, Change to Tool Dia = 0.2132)
M0
G00 Z5.0000

M03 S1000000.0
G01 F60.00
G00 X7.8721 Y5.2169
G01 F60.00
G01 Z-0.0980
G01 F60.00
G01 X5.5880 Y5.2169 F60.00
G01 X5.5639 Y5.2163 F60.00
G01 X5.4168 Y5.2091 F60.00
G01 X5.4048 Y5.2083 F60.00
G01 X5.3809 Y5.2060 F60.00
G01 X5.2233 Y5.1828 F60.00
G01 X5.1996 Y5.1786 F60.00
G01 X5.1761 Y5.1734 F60.00
G01 X5.0332 Y5.1376 F60.00
G01 X5.0100 Y5.1312 F60.00
G01 X4.9872 Y5.1236 F60.00
G01 X4.8485 Y5.0740 F60.00
G01 X4.8260 Y5.0653 F60.00
G01 X4.8040 Y5.0556 F60.00
G01 X4.6709 Y4.9926 F60.00
G01 X4.6494 Y4.9818 F60.00
G01 X4.6285 Y4.9699 F60.00
G01 X4.5021 Y4.8942 F60.00
G01 X4.4818 Y4.8813 F60.00
G01 X4.4621 Y4.8675 F60.00
G01 X4.3438 Y4.7798 F60.00
G01 X4.3249 Y4.7649 F60.00
G01 X4.3156 Y4.7572 F60.00
G01 X4.1975 Y4.6503 F60.00
G01 X4.1801 Y4.6337 F60.00
G01 X4.1635 Y4.6163 F60.00
G01 X4.0646 Y4.5072 F60.00
G01 X4.0489 Y4.4889 F60.00
G01 X4.0340 Y4.4700 F60.00
G01 X3.9463 Y4.3517 F60.00
G01 X3.9325 Y4.3320 F60.00
G01 X3.9196 Y4.3117 F60.00
G01 X3.8439 Y4.1853 F60.00
G01 X3.8320 Y4.1644 F60.00
G01 X3.8212 Y4.1429 F60.00
G01 X3.7582 Y4.0098 F60.00
G01 X3.7485 Y3.9878 F60.00
G01 X3.7398 Y3.9653 F60.00
G01 X3.6902 Y3.8266 F60.00
G01 X3.6826 Y3.8038 F60.00
G01 X3.6762 Y3.7806 F60.00
G01 X3.6404 Y3.6377 F60.00
G01 X3.6352 Y3.6142 F60.00
G01 X3.6310 Y3.5905 F60.00
G01 X3.6094 Y3.4448 F60.00
G01 X3.6065 Y3.4210 F60.00
G01 X3.6047 Y3.3970 F60.00
G01 X3.5975 Y3.2499 F60.00
G01 X3.5969 Y3.2258 F60.00
G01 X3.5975 Y3.2017 F60.00
G01 X3.6047 Y3.0546 F60.00
G01 X3.6065 Y3.0306 F60.00
G01 X3.6094 Y3.0068 F60.00
G01 X3.6310 Y2.8611 F60.00
G01 X3.6352 Y2.8374 F60.00
G01 X3.6404 Y2.8139 F60.00
G01 X3.6762 Y2.6710 F60.00
G01 X3.6826 Y2.6478 F60.00
G01 X3.6902 Y2.6250 F60.00
G01 X3.7398 Y2.4863 F60.00
G01 X3.7485 Y2.4638 F60.00
G01 X3.7582 Y2.4418 F60.00
G01 X3.8212 Y2.3087 F60.00
G01 X3.8320 Y2.2872 F60.00
G01 X3.8439 Y2.2663 F60.00
G01 X3.9196 Y2.1399 F60.00
G01 X3.9325 Y2.1196 F60.00
G01 X3.9463 Y2.0999 F60.00
G01 X4.0340 Y1.9816 F60.00
G01 X4.0489 Y1.9627 F60.00
G01 X4.0566 Y1.9534 F60.00
G01 X4.1635 Y1.8353 F60.00
G01 X4.1801 Y1.8179 F60.00
G01 X4.1975 Y1.8013 F60.00
G01 X4.3066 Y1.7024 F60.00
G01 X4.3249 Y1.6867 F60.00
G01 X4.3438 Y1.6718 F60.00
G01 X4.4621 Y1.5841 F60.00
G01 X4.4818 Y1.5703 F60.00
G01 X4.5021 Y1.5574 F60.00
G01 X4.6285 Y1.4817 F60.00
G01 X4.6494 Y1.4698 F60.00
G01 X4.6709 Y1.4590 F60.00
G01 X4.8040 Y1.3960 F60.00
G01 X4.8260 Y1.3863 F60.00
G01 X4.8485 Y1.3776 F60.00
G01 X4.9872 Y1.3280 F60.00
G01 X5.0100 Y1.3204 F60.00
G01 X5.0332 Y1.3140 F60.00
G01 X5.1761 Y1.2782 F60.00
G01 X5.1996 Y1.2730 F60.00
G01 X5.2233 Y1.2688 F60.00
G01 X5.3690 Y1.2472 F60.00
G01 X5.3928 Y1.2443 F60.00
G01 X5.4168 Y1.2425 F60.00
G01 X5.5639 Y1.2353 F60.00
G01 X5.5880 Y1.2347 F60.00
G01 X8.5210 Y1.2348 F60.00
G01 X8.6802 Y1.2425 F60.00
G01 X8.7042 Y1.2443 F60.00
G01 X8.7280 Y1.2472 F60.00
G01 X8.8737 Y1.2688 F60.00
G01 X8.8974 Y1.2730 F60.00
G01 X8.9209 Y1.2782 F60.00
G01 X9.0638 Y1.3140 F60.00
G01 X9.0870 Y1.3204 F60.00
G01 X9.1098 Y1.3280 F60.00
G01 X9.2485 Y1.3776 F60.00
G01 X9.2729 Y1.3871 F60.00
G01 X11.5451 Y1.3871 F60.00
G01 X12.0033 Y0.9289 F60.00
G01 X12.0207 Y0.9123 F60.00
G01 X12.1298 Y0.8134 F60.00
G01 X12.1511 Y0.7952 F60.00
G01 X0.7444 Y0.7952 F60.00
G01 X0.7444 Y16.1974 F60.00
G01 X12.0613 Y16.1974 F60.00
G01 X12.0066 Y16.1835 F60.00
G01 X11.9835 Y16.1765 F60.00
G01 X11.8222 Y16.1188 F60.00
G01 X11.8000 Y16.1096 F60.00
G01 X11.7890 Y16.1046 F60.00
G01 X11.6451 Y16.0363 F60.00
G01 X11.6344 Y16.0308 F60.00
G01 X11.6135 Y16.0189 F60.00
G01 X11.4871 Y15.9432 F60.00
G01 X11.4668 Y15.9303 F60.00
G01 X11.4471 Y15.9165 F60.00
G01 X11.3193 Y15.8215 F60.00
G01 X11.3006 Y15.8062 F60.00
G01 X11.2916 Y15.7982 F60.00
G01 X11.1825 Y15.6993 F60.00
G01 X11.1651 Y15.6827 F60.00
G01 X11.1485 Y15.6653 F60.00
G01 X11.0496 Y15.5562 F60.00
G01 X11.0339 Y15.5379 F60.00
G01 X11.0190 Y15.5190 F60.00
G01 X10.9313 Y15.4007 F60.00
G01 X10.9175 Y15.3810 F60.00
G01 X10.9046 Y15.3607 F60.00
G01 X10.8231 Y15.2245 F60.00
G01 X5.5760 Y15.2244 F60.00
G01 X5.4168 Y15.2167 F60.00
G01 X5.3928 Y15.2149 F60.00
G01 X5.3690 Y15.2120 F60.00
G01 X5.2233 Y15.1904 F60.00
G01 X5.1996 Y15.1862 F60.00
G01 X5.1761 Y15.1810 F60.00
G01 X5.0332 Y15.1452 F60.00
G01 X5.0100 Y15.1388 F60.00
G01 X4.9985 Y15.1351 F60.00
G01 X4.8485 Y15.0816 F60.00
G01 X4.8260 Y15.0729 F60.00
G01 X4.8040 Y15.0632 F60.00
G01 X4.6709 Y15.0002 F60.00
G01 X4.6494 Y14.9894 F60.00
G01 X4.6285 Y14.9775 F60.00
G01 X4.5021 Y14.9018 F60.00
G01 X4.4818 Y14.8889 F60.00
G01 X4.4621 Y14.8751 F60.00
G01 X4.3438 Y14.7874 F60.00
G01 X4.3249 Y14.7725 F60.00
G01 X4.3066 Y14.7568 F60.00
G01 X4.1975 Y14.6579 F60.00
G01 X4.1801 Y14.6413 F60.00
G01 X4.1635 Y14.6239 F60.00
G01 X4.0646 Y14.5148 F60.00
G01 X4.0489 Y14.4965 F60.00
G01 X4.0340 Y14.4776 F60.00
G01 X3.9463 Y14.3593 F60.00
G01 X3.9325 Y14.3396 F60.00
G01 X3.9196 Y14.3193 F60.00
G01 X3.8439 Y14.1929 F60.00
G01 X3.8320 Y14.1720 F60.00
G01 X3.8212 Y14.1505 F60.00
G01 X3.7582 Y14.0174 F60.00
G01 X3.7485 Y13.9954 F60.00
G01 X3.7398 Y13.9729 F60.00
G01 X3.6902 Y13.8342 F60.00
G01 X3.6826 Y13.8114 F60.00
G01 X3.6762 Y13.7882 F60.00
G01 X3.6404 Y13.6453 F60.00
G01 X3.6352 Y13.6218 F60.00
G01 X3.6310 Y13.5981 F60.00
G01 X3.6078 Y13.4405 F60.00
G01 X3.6065 Y13.4286 F60.00
G01 X3.6047 Y13.4046 F60.00
G01 X3.5975 Y13.2575 F60.00
G01 X3.5969 Y13.2334 F60.00
G01 X3.5975 Y13.2093 F60.00
G01 X3.6047 Y13.0622 F60.00
G01 X3.6065 Y13.0382 F60.00
G01 X3.6094 Y13.0144 F60.00
G01 X3.6310 Y12.8687 F60.00
G01 X3.6352 Y12.8450 F60.00
G01 X3.6404 Y12.8215 F60.00
G01 X3.6762 Y12.6786 F60.00
G01 X3.6826 Y12.6554 F60.00
G01 X3.6902 Y12.6326 F60.00
G01 X3.7398 Y12.4939 F60.00
G01 X3.7485 Y12.4714 F60.00
G01 X3.7582 Y12.4494 F60.00
G01 X3.8212 Y12.3163 F60.00
G01 X3.8320 Y12.2948 F60.00
G01 X3.8439 Y12.2739 F60.00
G01 X3.9196 Y12.1475 F60.00
G01 X3.9325 Y12.1272 F60.00
G01 X3.9463 Y12.1075 F60.00
G01 X4.0340 Y11.9892 F60.00
G01 X4.0489 Y11.9703 F60.00
G01 X4.0646 Y11.9520 F60.00
G01 X4.1635 Y11.8429 F60.00
G01 X4.1801 Y11.8255 F60.00
G01 X4.1975 Y11.8089 F60.00
G01 X4.3066 Y11.7100 F60.00
G01 X4.3249 Y11.6943 F60.00
G01 X4.3438 Y11.6794 F60.00
G01 X4.4621 Y11.5917 F60.00
G01 X4.4818 Y11.5779 F60.00
G01 X4.5021 Y11.5650 F60.00
G01 X4.6285 Y11.4893 F60.00
G01 X4.6494 Y11.4774 F60.00
G01 X4.6709 Y11.4666 F60.00
G01 X4.8040 Y11.4036 F60.00
G01 X4.8260 Y11.3939 F60.00
G01 X4.8485 Y11.3852 F60.00
G01 X4.9872 Y11.3356 F60.00
G01 X5.0100 Y11.3280 F60.00
G01 X5.0216 Y11.3247 F60.00
G01 X5.1761 Y11.2858 F60.00
G01 X5.1996 Y11.2806 F60.00
G01 X5.2233 Y11.2764 F60.00
G01 X5.3690 Y11.2548 F60.00
G01 X5.3928 Y11.2519 F60.00
G01 X5.4168 Y11.2501 F60.00
G01 X5.5760 Y11.2424 F60.00
G01 X11.5062 Y11.2423 F60.00
G01 X11.5303 Y11.2429 F60.00
G01 X11.6774 Y11.2501 F60.00
G01 X11.7014 Y11.2519 F60.00
G01 X11.7252 Y11.2548 F60.00
G01 X11.8709 Y11.2764 F60.00
G01 X11.8946 Y11.2806 F60.00
G01 X11.9181 Y11.2858 F60.00
G01 X12.0610 Y11.3216 F60.00
G01 X12.0842 Y11.3280 F60.00
G01 X12.1070 Y11.3356 F60.00
G01 X12.2457 Y11.3852 F60.00
G01 X12.2682 Y11.3939 F60.00
G01 X12.2902 Y11.4036 F60.00
G01 X12.4233 Y11.4666 F60.00
G01 X12.4448 Y11.4774 F60.00
G01 X12.4657 Y11.4893 F60.00
G01 X12.5921 Y11.5650 F60.00
G01 X12.6124 Y11.5779 F60.00
G01 X12.6321 Y11.5917 F60.00
G01 X12.7504 Y11.6794 F60.00
G01 X12.7693 Y11.6943 F60.00
G01 X12.7876 Y11.7100 F60.00
G01 X12.8967 Y11.8089 F60.00
G01 X12.9141 Y11.8255 F60.00
G01 X12.9307 Y11.8429 F60.00
G01 X13.0296 Y11.9520 F60.00
G01 X13.0453 Y11.9703 F60.00
G01 X13.0602 Y11.9892 F60.00
G01 X13.1479 Y12.1075 F60.00
G01 X13.1617 Y12.1272 F60.00
G01 X13.1746 Y12.1475 F60.00
G01 X13.2561 Y12.2837 F60.00
G01 X13.4232 Y12.2838 F60.00
G01 X13.5944 Y12.2923 F60.00
G01 X13.6064 Y12.2933 F60.00
G01 X13.6302 Y12.2962 F60.00
G01 X13.7759 Y12.3178 F60.00
G01 X13.7996 Y12.3220 F60.00
G01 X13.8114 Y12.3244 F60.00
G01 X13.9660 Y12.3630 F60.00
G01 X13.9892 Y12.3694 F60.00
G01 X14.0120 Y12.3770 F60.00
G01 X14.1507 Y12.4266 F60.00
G01 X14.1732 Y12.4353 F60.00
G01 X14.1952 Y12.4450 F60.00
G01 X14.3283 Y12.5080 F60.00
G01 X14.3391 Y12.5133 F60.00
G01 X14.3603 Y12.5246 F60.00
G01 X14.4971 Y12.6064 F60.00
G01 X14.5174 Y12.6193 F60.00
G01 X14.5371 Y12.6331 F60.00
G01 X14.6554 Y12.7208 F60.00
G01 X14.6743 Y12.7357 F60.00
G01 X14.6926 Y12.7514 F60.00
G01 X14.8017 Y12.8503 F60.00
G01 X14.8191 Y12.8669 F60.00
G01 X14.8357 Y12.8843 F60.00
G01 X14.9346 Y12.9934 F60.00
G01 X14.9503 Y13.0117 F60.00
G01 X14.9652 Y13.0306 F60.00
G01 X15.0529 Y13.1489 F60.00
G01 X15.0667 Y13.1686 F60.00
G01 X15.0796 Y13.1889 F60.00
G01 X15.1553 Y13.3153 F60.00
G01 X15.1672 Y13.3362 F60.00
G01 X15.1780 Y13.3577 F60.00
G01 X15.2410 Y13.4908 F60.00
G01 X15.2507 Y13.5128 F60.00
G01 X15.2594 Y13.5353 F60.00
G01 X15.3090 Y13.6740 F60.00
G01 X15.3166 Y13.6968 F60.00
G01 X15.3230 Y13.7200 F60.00
G01 X15.3588 Y13.8629 F60.00
G01 X15.3640 Y13.8864 F60.00
G01 X15.3682 Y13.9101 F60.00
G01 X15.3898 Y14.0558 F60.00
G01 X15.3927 Y14.0796 F60.00
G01 X15.3945 Y14.1036 F60.00
G01 X15.4017 Y14.2507 F60.00
G01 X15.4023 Y14.2748 F60.00
G01 X15.4017 Y14.2989 F60.00
G01 X15.3945 Y14.4460 F60.00
G01 X15.3927 Y14.4700 F60.00
G01 X15.3898 Y14.4938 F60.00
G01 X15.3682 Y14.6395 F60.00
G01 X15.3640 Y14.6632 F60.00
G01 X15.3588 Y14.6867 F60.00
G01 X15.3230 Y14.8296 F60.00
G01 X15.3166 Y14.8528 F60.00
G01 X15.3090 Y14.8756 F60.00
G01 X15.2594 Y15.0143 F60.00
G01 X15.2507 Y15.0368 F60.00
G01 X15.2460 Y15.0478 F60.00
G01 X15.1780 Y15.1919 F60.00
G01 X15.1672 Y15.2134 F60.00
G01 X15.1553 Y15.2343 F60.00
G01 X15.0796 Y15.3607 F60.00
G01 X15.0667 Y15.3810 F60.00
G01 X15.0529 Y15.4007 F60.00
G01 X14.9652 Y15.5190 F60.00
G01 X14.9503 Y15.5379 F60.00
G01 X14.9346 Y15.5562 F60.00
G01 X14.8357 Y15.6653 F60.00
G01 X14.8191 Y15.6827 F60.00
G01 X14.8017 Y15.6993 F60.00
G01 X14.6836 Y15.8062 F60.00
G01 X14.6649 Y15.8215 F60.00
G01 X14.6554 Y15.8288 F60.00
G01 X14.5371 Y15.9165 F60.00
G01 X14.5174 Y15.9303 F60.00
G01 X14.4971 Y15.9432 F60.00
G01 X14.3707 Y16.0189 F60.00
G01 X14.3603 Y16.0250 F60.00
G01 X14.3391 Y16.0363 F60.00
G01 X14.1952 Y16.1046 F60.00
G01 X14.1842 Y16.1096 F60.00
G01 X14.1620 Y16.1188 F60.00
G01 X14.0007 Y16.1765 F60.00
G01 X13.9776 Y16.1835 F60.00
G01 X13.9229 Y16.1974 F60.00
G01 X25.9043 Y16.1974 F60.00
G01 X25.8496 Y16.1835 F60.00
G01 X25.8265 Y16.1765 F60.00
G01 X25.6765 Y16.1230 F60.00
G01 X25.6540 Y16.1143 F60.00
G01 X25.6430 Y16.1096 F60.00
G01 X25.4989 Y16.0416 F60.00
G01 X25.4774 Y16.0308 F60.00
G01 X25.4565 Y16.0189 F60.00
G01 X25.3301 Y15.9432 F60.00
G01 X25.3199 Y15.9369 F60.00
G01 X25.2999 Y15.9235 F60.00
G01 X25.1718 Y15.8288 F60.00
G01 X25.1529 Y15.8139 F60.00
G01 X25.1346 Y15.7982 F60.00
G01 X25.0167 Y15.6911 F60.00
G01 X24.5753 Y15.2499 F60.00
G01 X21.5392 Y15.2499 F60.00
G01 X21.5151 Y15.2493 F60.00
G01 X21.3560 Y15.2413 F60.00
G01 X21.3440 Y15.2403 F60.00
G01 X21.3202 Y15.2374 F60.00
G01 X21.1745 Y15.2158 F60.00
G01 X21.1508 Y15.2116 F60.00
G01 X21.1273 Y15.2064 F60.00
G01 X20.9844 Y15.1706 F60.00
G01 X20.9612 Y15.1642 F60.00
G01 X20.9384 Y15.1566 F60.00
G01 X20.7997 Y15.1070 F60.00
G01 X20.7772 Y15.0983 F60.00
G01 X20.7552 Y15.0886 F60.00
G01 X20.6221 Y15.0256 F60.00
G01 X20.6006 Y15.0148 F60.00
G01 X20.5797 Y15.0029 F60.00
G01 X20.4533 Y14.9272 F60.00
G01 X20.4330 Y14.9143 F60.00
G01 X20.4133 Y14.9005 F60.00
G01 X20.2950 Y14.8128 F60.00
G01 X20.2761 Y14.7979 F60.00
G01 X20.2578 Y14.7822 F60.00
G01 X20.1487 Y14.6833 F60.00
G01 X20.1313 Y14.6667 F60.00
G01 X20.1147 Y14.6493 F60.00
G01 X20.0158 Y14.5402 F60.00
G01 X20.0001 Y14.5219 F60.00
G01 X19.9852 Y14.5030 F60.00
G01 X19.8975 Y14.3847 F60.00
G01 X19.8837 Y14.3650 F60.00
G01 X19.8708 Y14.3447 F60.00
G01 X19.7951 Y14.2183 F60.00
G01 X19.7832 Y14.1974 F60.00
G01 X19.7724 Y14.1759 F60.00
G01 X19.7094 Y14.0428 F60.00
G01 X19.6997 Y14.0208 F60.00
G01 X19.6910 Y13.9983 F60.00
G01 X19.6414 Y13.8596 F60.00
G01 X19.6338 Y13.8368 F60.00
G01 X19.6274 Y13.8136 F60.00
G01 X19.5916 Y13.6707 F60.00
G01 X19.5864 Y13.6472 F60.00
G01 X19.5822 Y13.6235 F60.00
G01 X19.5606 Y13.4778 F60.00
G01 X19.5577 Y13.4540 F60.00
G01 X19.5559 Y13.4300 F60.00
G01 X19.5487 Y13.2829 F60.00
G01 X19.5481 Y13.2588 F60.00
G01 X19.5487 Y13.2347 F60.00
G01 X19.5559 Y13.0876 F60.00
G01 X19.5577 Y13.0636 F60.00
G01 X19.5606 Y13.0398 F60.00
G01 X19.5822 Y12.8941 F60.00
G01 X19.5864 Y12.8704 F60.00
G01 X19.5916 Y12.8469 F60.00
G01 X19.6274 Y12.7040 F60.00
G01 X19.6338 Y12.6808 F60.00
G01 X19.6414 Y12.6580 F60.00
G01 X19.6910 Y12.5193 F60.00
G01 X19.6997 Y12.4968 F60.00
G01 X19.7094 Y12.4748 F60.00
G01 X19.7724 Y12.3417 F60.00
G01 X19.7832 Y12.3202 F60.00
G01 X19.7951 Y12.2993 F60.00
G01 X19.8708 Y12.1729 F60.00
G01 X19.8837 Y12.1526 F60.00
G01 X19.8975 Y12.1329 F60.00
G01 X19.9852 Y12.0146 F60.00
G01 X20.0001 Y11.9957 F60.00
G01 X20.0158 Y11.9774 F60.00
G01 X20.1147 Y11.8683 F60.00
G01 X20.1313 Y11.8509 F60.00
G01 X20.1487 Y11.8343 F60.00
G01 X20.2578 Y11.7354 F60.00
G01 X20.2761 Y11.7197 F60.00
G01 X20.2950 Y11.7048 F60.00
G01 X20.4133 Y11.6171 F60.00
G01 X20.4330 Y11.6033 F60.00
G01 X20.4533 Y11.5904 F60.00
G01 X20.5797 Y11.5147 F60.00
G01 X20.6006 Y11.5028 F60.00
G01 X20.6221 Y11.4920 F60.00
G01 X20.7552 Y11.4290 F60.00
G01 X20.7772 Y11.4193 F60.00
G01 X20.7997 Y11.4106 F60.00
G01 X20.9384 Y11.3610 F60.00
G01 X20.9612 Y11.3534 F60.00
G01 X20.9844 Y11.3470 F60.00
G01 X21.1273 Y11.3112 F60.00
G01 X21.1508 Y11.3060 F60.00
G01 X21.1745 Y11.3018 F60.00
G01 X21.3202 Y11.2802 F60.00
G01 X21.3440 Y11.2773 F60.00
G01 X21.3680 Y11.2755 F60.00
G01 X21.5151 Y11.2683 F60.00
G01 X21.5392 Y11.2677 F60.00
G01 X25.4000 Y11.2677 F60.00
G01 X25.4241 Y11.2683 F60.00
G01 X25.5712 Y11.2755 F60.00
G01 X25.5952 Y11.2773 F60.00
G01 X25.6190 Y11.2802 F60.00
G01 X25.7647 Y11.3018 F60.00
G01 X25.7884 Y11.3060 F60.00
G01 X25.8119 Y11.3112 F60.00
G01 X25.9548 Y11.3470 F60.00
G01 X25.9780 Y11.3534 F60.00
G01 X26.0008 Y11.3610 F60.00
G01 X26.1395 Y11.4106 F60.00
G01 X26.1620 Y11.4193 F60.00
G01 X26.1840 Y11.4290 F60.00
G01 X26.3171 Y11.4920 F60.00
G01 X26.3386 Y11.5028 F60.00
G01 X26.3595 Y11.5147 F60.00
G01 X26.4859 Y11.5904 F60.00
G01 X26.5062 Y11.6033 F60.00
G01 X26.5259 Y11.6171 F60.00
G01 X26.6442 Y11.7048 F60.00
G01 X26.6631 Y11.7197 F60.00
G01 X26.6814 Y11.7354 F60.00
G01 X26.7905 Y11.8343 F60.00
G01 X26.8079 Y11.8509 F60.00
G01 X27.2407 Y12.2837 F60.00
G01 X29.0188 Y12.2838 F60.00
G01 X29.1780 Y12.2915 F60.00
G01 X29.2020 Y12.2933 F60.00
G01 X29.2258 Y12.2962 F60.00
G01 X29.3715 Y12.3178 F60.00
G01 X29.3952 Y12.3220 F60.00
G01 X29.4187 Y12.3272 F60.00
G01 X29.5616 Y12.3630 F60.00
G01 X29.5848 Y12.3694 F60.00
G01 X29.6076 Y12.3770 F60.00
G01 X29.7463 Y12.4266 F60.00
G01 X29.7688 Y12.4353 F60.00
G01 X29.7908 Y12.4450 F60.00
G01 X29.9239 Y12.5080 F60.00
G01 X29.9454 Y12.5188 F60.00
G01 X29.9663 Y12.5307 F60.00
G01 X30.0927 Y12.6064 F60.00
G01 X30.1130 Y12.6193 F60.00
G01 X30.1327 Y12.6331 F60.00
G01 X30.2510 Y12.7208 F60.00
G01 X30.2699 Y12.7357 F60.00
G01 X30.2850 Y12.7485 F60.00
G01 X30.3010 Y12.6401 F60.00
G01 X30.3052 Y12.6164 F60.00
G01 X30.3104 Y12.5929 F60.00
G01 X30.3493 Y12.4384 F60.00
G01 X30.3526 Y12.4268 F60.00
G01 X30.3602 Y12.4040 F60.00
G01 X30.4098 Y12.2653 F60.00
G01 X30.4185 Y12.2428 F60.00
G01 X30.4232 Y12.2318 F60.00
G01 X30.4912 Y12.0877 F60.00
G01 X30.5020 Y12.0662 F60.00
G01 X30.5139 Y12.0453 F60.00
G01 X30.5896 Y11.9189 F60.00
G01 X30.6025 Y11.8986 F60.00
G01 X30.6163 Y11.8789 F60.00
G01 X30.7040 Y11.7606 F60.00
G01 X30.7113 Y11.7511 F60.00
G01 X30.7266 Y11.7324 F60.00
G01 X30.8335 Y11.6143 F60.00
G01 X30.8501 Y11.5969 F60.00
G01 X33.7711 Y8.6759 F60.00
G01 X33.7885 Y8.6593 F60.00
G01 X33.8976 Y8.5604 F60.00
G01 X33.9159 Y8.5447 F60.00
G01 X33.9348 Y8.5298 F60.00
G01 X34.0531 Y8.4421 F60.00
G01 X34.0728 Y8.4283 F60.00
G01 X34.0931 Y8.4154 F60.00
G01 X34.2195 Y8.3397 F60.00
G01 X34.2404 Y8.3278 F60.00
G01 X34.2619 Y8.3170 F60.00
G01 X34.3950 Y8.2540 F60.00
G01 X34.4170 Y8.2443 F60.00
G01 X34.4395 Y8.2356 F60.00
G01 X34.5782 Y8.1860 F60.00
G01 X34.5895 Y8.1821 F60.00
G01 X34.6126 Y8.1751 F60.00
G01 X34.7671 Y8.1362 F60.00
G01 X34.7906 Y8.1310 F60.00
G01 X34.8143 Y8.1268 F60.00
G01 X34.9600 Y8.1052 F60.00
G01 X34.9838 Y8.1023 F60.00
G01 X34.9958 Y8.1013 F60.00
G01 X35.1549 Y8.0933 F60.00
G01 X35.1670 Y8.0928 F60.00
G01 X35.1910 Y8.0928 F60.00
G01 X35.3622 Y8.1013 F60.00
G01 X35.3742 Y8.1023 F60.00
G01 X35.3980 Y8.1052 F60.00
G01 X35.4762 Y8.1168 F60.00
G01 X34.2294 Y6.8700 F60.00
G01 X34.2100 Y6.8517 F60.00
G01 X31.6872 Y4.3279 F60.00
G01 X27.2407 Y4.3279 F60.00
G01 X26.7825 Y4.7861 F60.00
G01 X26.7651 Y4.8027 F60.00
G01 X26.6470 Y4.9096 F60.00
G01 X26.6377 Y4.9173 F60.00
G01 X26.6188 Y4.9322 F60.00
G01 X26.5005 Y5.0199 F60.00
G01 X26.4808 Y5.0337 F60.00
G01 X26.4605 Y5.0466 F60.00
G01 X26.3237 Y5.1284 F60.00
G01 X26.3132 Y5.1342 F60.00
G01 X26.2917 Y5.1450 F60.00
G01 X26.1586 Y5.2080 F60.00
G01 X26.1366 Y5.2177 F60.00
G01 X26.1141 Y5.2264 F60.00
G01 X25.9754 Y5.2760 F60.00
G01 X25.9526 Y5.2836 F60.00
G01 X25.9294 Y5.2900 F60.00
G01 X25.7865 Y5.3258 F60.00
G01 X25.7630 Y5.3310 F60.00
G01 X25.7393 Y5.3352 F60.00
G01 X25.5936 Y5.3568 F60.00
G01 X25.5698 Y5.3597 F60.00
G01 X25.5458 Y5.3615 F60.00
G01 X25.3866 Y5.3692 F60.00
G01 X21.5392 Y5.3693 F60.00
G01 X21.5151 Y5.3687 F60.00
G01 X21.3680 Y5.3615 F60.00
G01 X21.3440 Y5.3597 F60.00
G01 X21.3202 Y5.3568 F60.00
G01 X21.1745 Y5.3352 F60.00
G01 X21.1508 Y5.3310 F60.00
G01 X21.1273 Y5.3258 F60.00
G01 X20.9844 Y5.2900 F60.00
G01 X20.9612 Y5.2836 F60.00
G01 X20.9384 Y5.2760 F60.00
G01 X20.7997 Y5.2264 F60.00
G01 X20.7772 Y5.2177 F60.00
G01 X20.7552 Y5.2080 F60.00
G01 X20.6221 Y5.1450 F60.00
G01 X20.6006 Y5.1342 F60.00
G01 X20.5797 Y5.1223 F60.00
G01 X20.4533 Y5.0466 F60.00
G01 X20.4330 Y5.0337 F60.00
G01 X20.4133 Y5.0199 F60.00
G01 X20.2950 Y4.9322 F60.00
G01 X20.2761 Y4.9173 F60.00
G01 X20.2578 Y4.9016 F60.00
G01 X20.1487 Y4.8027 F60.00
G01 X20.1313 Y4.7861 F60.00
G01 X20.1147 Y4.7687 F60.00
G01 X20.0158 Y4.6596 F60.00
G01 X20.0001 Y4.6413 F60.00
G01 X19.9852 Y4.6224 F60.00
G01 X19.8905 Y4.4943 F60.00
G01 X19.8771 Y4.4743 F60.00
G01 X19.8708 Y4.4641 F60.00
G01 X19.7951 Y4.3377 F60.00
G01 X19.7832 Y4.3168 F60.00
G01 X19.7724 Y4.2953 F60.00
G01 X19.7094 Y4.1622 F60.00
G01 X19.6997 Y4.1402 F60.00
G01 X19.6910 Y4.1177 F60.00
G01 X19.6414 Y3.9790 F60.00
G01 X19.6338 Y3.9562 F60.00
G01 X19.6274 Y3.9330 F60.00
G01 X19.5916 Y3.7901 F60.00
G01 X19.5864 Y3.7666 F60.00
G01 X19.5822 Y3.7429 F60.00
G01 X19.5606 Y3.5972 F60.00
G01 X19.5577 Y3.5734 F60.00
G01 X19.5559 Y3.5494 F60.00
G01 X19.5487 Y3.4023 F60.00
G01 X19.5481 Y3.3782 F60.00
G01 X19.5487 Y3.3541 F60.00
G01 X19.5559 Y3.2070 F60.00
G01 X19.5577 Y3.1830 F60.00
G01 X19.5606 Y3.1592 F60.00
G01 X19.5822 Y3.0135 F60.00
G01 X19.5864 Y2.9898 F60.00
G01 X19.5916 Y2.9663 F60.00
G01 X19.6274 Y2.8234 F60.00
G01 X19.6338 Y2.8002 F60.00
G01 X19.6414 Y2.7774 F60.00
G01 X19.6910 Y2.6387 F60.00
G01 X19.6997 Y2.6162 F60.00
G01 X19.7094 Y2.5942 F60.00
G01 X19.7724 Y2.4611 F60.00
G01 X19.7832 Y2.4396 F60.00
G01 X19.7951 Y2.4187 F60.00
G01 X19.8708 Y2.2923 F60.00
G01 X19.8837 Y2.2720 F60.00
G01 X19.8975 Y2.2523 F60.00
G01 X19.9852 Y2.1340 F60.00
G01 X20.0001 Y2.1151 F60.00
G01 X20.0158 Y2.0968 F60.00
G01 X20.1147 Y1.9877 F60.00
G01 X20.1313 Y1.9703 F60.00
G01 X20.1487 Y1.9537 F60.00
G01 X20.2578 Y1.8548 F60.00
G01 X20.2761 Y1.8391 F60.00
G01 X20.2950 Y1.8242 F60.00
G01 X20.4231 Y1.7295 F60.00
G01 X20.4330 Y1.7227 F60.00
G01 X20.4533 Y1.7098 F60.00
G01 X20.5797 Y1.6341 F60.00
G01 X20.6006 Y1.6222 F60.00
G01 X20.6221 Y1.6114 F60.00
G01 X20.7552 Y1.5484 F60.00
G01 X20.7772 Y1.5387 F60.00
G01 X20.7997 Y1.5300 F60.00
G01 X20.9384 Y1.4804 F60.00
G01 X20.9612 Y1.4728 F60.00
G01 X20.9844 Y1.4664 F60.00
G01 X21.1273 Y1.4306 F60.00
G01 X21.1508 Y1.4254 F60.00
G01 X21.1745 Y1.4212 F60.00
G01 X21.3202 Y1.3996 F60.00
G01 X21.3321 Y1.3980 F60.00
G01 X21.3560 Y1.3957 F60.00
G01 X21.5151 Y1.3877 F60.00
G01 X21.5392 Y1.3871 F60.00
G01 X24.5499 Y1.3871 F60.00
G01 X25.0081 Y0.9289 F60.00
G01 X25.0255 Y0.9123 F60.00
G01 X25.1346 Y0.8134 F60.00
G01 X25.1559 Y0.7952 F60.00
G01 X14.6713 Y0.7952 F60.00
G01 X14.6926 Y0.8134 F60.00
G01 X14.8017 Y0.9123 F60.00
G01 X14.8191 Y0.9289 F60.00
G01 X14.8357 Y0.9463 F60.00
G01 X14.9346 Y1.0554 F60.00
G01 X14.9503 Y1.0737 F60.00
G01 X14.9652 Y1.0926 F60.00
G01 X15.0529 Y1.2109 F60.00
G01 X15.0667 Y1.2306 F60.00
G01 X15.0796 Y1.2509 F60.00
G01 X15.1553 Y1.3773 F60.00
G01 X15.1672 Y1.3982 F60.00
G01 X15.1780 Y1.4197 F60.00
G01 X15.2410 Y1.5528 F60.00
G01 X15.2507 Y1.5748 F60.00
G01 X15.2594 Y1.5973 F60.00
G01 X15.3090 Y1.7360 F60.00
G01 X15.3166 Y1.7588 F60.00
G01 X15.3230 Y1.7820 F60.00
G01 X15.3588 Y1.9249 F60.00
G01 X15.3640 Y1.9484 F60.00
G01 X15.3682 Y1.9721 F60.00
G01 X15.3898 Y2.1178 F60.00
G01 X15.3927 Y2.1416 F60.00
G01 X15.3945 Y2.1656 F60.00
G01 X15.4017 Y2.3127 F60.00
G01 X15.4023 Y2.3368 F60.00
G01 X15.4017 Y2.3609 F60.00
G01 X15.3945 Y2.5080 F60.00
G01 X15.3927 Y2.5320 F60.00
G01 X15.3898 Y2.5558 F60.00
G01 X15.3682 Y2.7015 F60.00
G01 X15.3640 Y2.7252 F60.00
G01 X15.3588 Y2.7487 F60.00
G01 X15.3199 Y2.9032 F60.00
G01 X15.3166 Y2.9148 F60.00
G01 X15.3090 Y2.9376 F60.00
G01 X15.2594 Y3.0763 F60.00
G01 X15.2507 Y3.0988 F60.00
G01 X15.2410 Y3.1208 F60.00
G01 X15.1780 Y3.2539 F60.00
G01 X15.1672 Y3.2754 F60.00
G01 X15.1553 Y3.2963 F60.00
G01 X15.0796 Y3.4227 F60.00
G01 X15.0667 Y3.4430 F60.00
G01 X15.0529 Y3.4627 F60.00
G01 X14.9652 Y3.5810 F60.00
G01 X14.9579 Y3.5905 F60.00
G01 X14.9426 Y3.6092 F60.00
G01 X14.8357 Y3.7273 F60.00
G01 X14.8191 Y3.7447 F60.00
G01 X13.7691 Y4.7945 F60.00
G01 X13.6512 Y4.9016 F60.00
G01 X13.6329 Y4.9173 F60.00
G01 X13.6140 Y4.9322 F60.00
G01 X13.4957 Y5.0199 F60.00
G01 X13.4859 Y5.0269 F60.00
G01 X13.4659 Y5.0403 F60.00
G01 X13.3293 Y5.1223 F60.00
G01 X13.3084 Y5.1342 F60.00
G01 X13.2869 Y5.1450 F60.00
G01 X13.1538 Y5.2080 F60.00
G01 X13.1318 Y5.2177 F60.00
G01 X13.1093 Y5.2264 F60.00
G01 X12.9706 Y5.2760 F60.00
G01 X12.9478 Y5.2836 F60.00
G01 X12.9246 Y5.2900 F60.00
G01 X12.7817 Y5.3258 F60.00
G01 X12.7582 Y5.3310 F60.00
G01 X12.7345 Y5.3352 F60.00
G01 X12.5888 Y5.3568 F60.00
G01 X12.5650 Y5.3597 F60.00
G01 X12.5410 Y5.3615 F60.00
G01 X12.3818 Y5.3692 F60.00
G01 X12.3578 Y5.3692 F60.00
G01 X12.3457 Y5.3687 F60.00
G01 X12.1986 Y5.3615 F60.00
G01 X12.1746 Y5.3597 F60.00
G01 X12.1508 Y5.3568 F60.00
G01 X12.0051 Y5.3352 F60.00
G01 X11.9814 Y5.3310 F60.00
G01 X11.9634 Y5.3271 F60.00
G01 X11.9454 Y5.3310 F60.00
G01 X11.9217 Y5.3352 F60.00
G01 X11.7760 Y5.3568 F60.00
G01 X11.7522 Y5.3597 F60.00
G01 X11.7282 Y5.3615 F60.00
G01 X11.5690 Y5.3692 F60.00
G01 X8.6240 Y5.3692 F60.00
G01 X8.4648 Y5.3615 F60.00
G01 X8.4408 Y5.3597 F60.00
G01 X8.4170 Y5.3568 F60.00
G01 X8.2713 Y5.3352 F60.00
G01 X8.2476 Y5.3310 F60.00
G01 X8.2241 Y5.3258 F60.00
G01 X8.0812 Y5.2900 F60.00
G01 X8.0580 Y5.2836 F60.00
G01 X8.0352 Y5.2760 F60.00
G01 X7.8965 Y5.2264 F60.00
G01 X7.8721 Y5.2169 F60.00
G00 Z3.0000
G00 X7.8367 Y5.4088
G01 F60.00
G01 Z-0.0980
G01 F60.00
G01 X5.5713 Y5.4086 F60.00
G01 X5.4074 Y5.4007 F60.00
G01 X5.3740 Y5.3983 F60.00
G01 X5.3408 Y5.3942 F60.00
G01 X5.1786 Y5.3699 F60.00
G01 X5.1621 Y5.3668 F60.00
G01 X5.1294 Y5.3595 F60.00
G01 X4.9866 Y5.3237 F60.00
G01 X4.9543 Y5.3148 F60.00
G01 X4.9225 Y5.3043 F60.00
G01 X4.7839 Y5.2547 F60.00
G01 X4.7526 Y5.2426 F60.00
G01 X4.7220 Y5.2290 F60.00
G01 X4.5889 Y5.1661 F60.00
G01 X4.5589 Y5.1510 F60.00
G01 X4.5298 Y5.1345 F60.00
G01 X4.4035 Y5.0588 F60.00
G01 X4.3752 Y5.0409 F60.00
G01 X4.3478 Y5.0216 F60.00
G01 X4.2295 Y4.9339 F60.00
G01 X4.2031 Y4.9133 F60.00
G01 X4.1778 Y4.8914 F60.00
G01 X4.0686 Y4.7925 F60.00
G01 X4.0564 Y4.7811 F60.00
G01 X4.0327 Y4.7574 F60.00
G01 X3.9113 Y4.6235 F60.00
G01 X3.8901 Y4.5976 F60.00
G01 X3.8799 Y4.5843 F60.00
G01 X3.7824 Y4.4524 F60.00
G01 X3.7729 Y4.4386 F60.00
G01 X3.7550 Y4.4103 F60.00
G01 X3.6793 Y4.2840 F60.00
G01 X3.6628 Y4.2549 F60.00
G01 X3.6477 Y4.2249 F60.00
G01 X3.5848 Y4.0918 F60.00
G01 X3.5778 Y4.0766 F60.00
G01 X3.5650 Y4.0456 F60.00
G01 X3.5095 Y3.8913 F60.00
G01 X3.4990 Y3.8595 F60.00
G01 X3.4901 Y3.8272 F60.00
G01 X3.4543 Y3.6844 F60.00
G01 X3.4470 Y3.6517 F60.00
G01 X3.4439 Y3.6352 F60.00
G01 X3.4174 Y3.4564 F60.00
G01 X3.4141 Y3.4231 F60.00
G01 X3.4131 Y3.4064 F60.00
G01 X3.4058 Y3.2593 F60.00
G01 X3.4050 Y3.2258 F60.00
G01 X3.4058 Y3.1923 F60.00
G01 X3.4131 Y3.0452 F60.00
G01 X3.4155 Y3.0118 F60.00
G01 X3.4196 Y2.9786 F60.00
G01 X3.4412 Y2.8329 F60.00
G01 X3.4470 Y2.7999 F60.00
G01 X3.4543 Y2.7672 F60.00
G01 X3.4901 Y2.6244 F60.00
G01 X3.4990 Y2.5921 F60.00
G01 X3.5095 Y2.5603 F60.00
G01 X3.5591 Y2.4217 F60.00
G01 X3.5712 Y2.3904 F60.00
G01 X3.5848 Y2.3598 F60.00
G01 X3.6477 Y2.2267 F60.00
G01 X3.6628 Y2.1967 F60.00
G01 X3.6793 Y2.1676 F60.00
G01 X3.7550 Y2.0413 F60.00
G01 X3.7729 Y2.0130 F60.00
G01 X3.7922 Y1.9856 F60.00
G01 X3.8799 Y1.8673 F60.00
G01 X3.9005 Y1.8409 F60.00
G01 X3.9113 Y1.8281 F60.00
G01 X4.0213 Y1.7064 F60.00
G01 X4.0444 Y1.6822 F60.00
G01 X4.0686 Y1.6591 F60.00
G01 X4.1778 Y1.5602 F60.00
G01 X4.2031 Y1.5383 F60.00
G01 X4.2295 Y1.5177 F60.00
G01 X4.3478 Y1.4300 F60.00
G01 X4.3752 Y1.4107 F60.00
G01 X4.4035 Y1.3928 F60.00
G01 X4.5298 Y1.3171 F60.00
G01 X4.5589 Y1.3006 F60.00
G01 X4.5889 Y1.2855 F60.00
G01 X4.7220 Y1.2226 F60.00
G01 X4.7526 Y1.2090 F60.00
G01 X4.7839 Y1.1969 F60.00
G01 X4.9225 Y1.1473 F60.00
G01 X4.9543 Y1.1368 F60.00
G01 X4.9866 Y1.1279 F60.00
G01 X5.1294 Y1.0921 F60.00
G01 X5.1621 Y1.0848 F60.00
G01 X5.1951 Y1.0790 F60.00
G01 X5.3408 Y1.0574 F60.00
G01 X5.3740 Y1.0533 F60.00
G01 X5.4074 Y1.0509 F60.00
G01 X5.5545 Y1.0436 F60.00
G01 X5.5880 Y1.0428 F60.00
G01 X8.5257 Y1.0430 F60.00
G01 X8.6896 Y1.0509 F60.00
G01 X8.7230 Y1.0533 F60.00
G01 X8.7562 Y1.0574 F60.00
G01 X8.9019 Y1.0790 F60.00
G01 X8.9349 Y1.0848 F60.00
G01 X8.9676 Y1.0921 F60.00
G01 X9.1104 Y1.1279 F60.00
G01 X9.1427 Y1.1368 F60.00
G01 X9.1745 Y1.1473 F60.00
G01 X9.3083 Y1.1952 F60.00
G01 X11.4656 Y1.1952 F60.00
G01 X11.6737 Y0.9871 F60.00
G01 X0.9363 Y0.9871 F60.00
G01 X0.9363 Y16.0055 F60.00
G01 X11.2450 Y16.0055 F60.00
G01 X11.2012 Y15.9727 F60.00
G01 X11.1753 Y15.9515 F60.00
G01 X11.0414 Y15.8301 F60.00
G01 X11.0294 Y15.8184 F60.00
G01 X11.0063 Y15.7942 F60.00
G01 X10.9074 Y15.6850 F60.00
G01 X10.8963 Y15.6725 F60.00
G01 X10.8751 Y15.6466 F60.00
G01 X10.7674 Y15.5014 F60.00
G01 X10.7488 Y15.4736 F60.00
G01 X10.7143 Y15.4164 F60.00
G01 X5.5713 Y15.4162 F60.00
G01 X5.4074 Y15.4083 F60.00
G01 X5.3740 Y15.4059 F60.00
G01 X5.3408 Y15.4018 F60.00
G01 X5.1951 Y15.3802 F60.00
G01 X5.1621 Y15.3744 F60.00
G01 X5.1294 Y15.3671 F60.00
G01 X4.9866 Y15.3313 F60.00
G01 X4.9543 Y15.3224 F60.00
G01 X4.9225 Y15.3119 F60.00
G01 X4.7682 Y15.2564 F60.00
G01 X4.7372 Y15.2436 F60.00
G01 X4.7220 Y15.2366 F60.00
G01 X4.5889 Y15.1737 F60.00
G01 X4.5589 Y15.1586 F60.00
G01 X4.5298 Y15.1421 F60.00
G01 X4.4035 Y15.0664 F60.00
G01 X4.3752 Y15.0485 F60.00
G01 X4.3478 Y15.0292 F60.00
G01 X4.2295 Y14.9415 F60.00
G01 X4.2031 Y14.9209 F60.00
G01 X4.1778 Y14.8990 F60.00
G01 X4.0686 Y14.8001 F60.00
G01 X4.0444 Y14.7770 F60.00
G01 X4.0213 Y14.7528 F60.00
G01 X3.9224 Y14.6436 F60.00
G01 X3.9113 Y14.6311 F60.00
G01 X3.8901 Y14.6052 F60.00
G01 X3.7922 Y14.4736 F60.00
G01 X3.7729 Y14.4462 F60.00
G01 X3.7550 Y14.4179 F60.00
G01 X3.6793 Y14.2916 F60.00
G01 X3.6628 Y14.2625 F60.00
G01 X3.6477 Y14.2325 F60.00
G01 X3.5778 Y14.0842 F60.00
G01 X3.5650 Y14.0532 F60.00
G01 X3.5591 Y14.0375 F60.00
G01 X3.5095 Y13.8989 F60.00
G01 X3.4990 Y13.8671 F60.00
G01 X3.4901 Y13.8348 F60.00
G01 X3.4543 Y13.6920 F60.00
G01 X3.4470 Y13.6593 F60.00
G01 X3.4412 Y13.6263 F60.00
G01 X3.4196 Y13.4806 F60.00
G01 X3.4155 Y13.4474 F60.00
G01 X3.4131 Y13.4140 F60.00
G01 X3.4058 Y13.2669 F60.00
G01 X3.4050 Y13.2334 F60.00
G01 X3.4058 Y13.1999 F60.00
G01 X3.4131 Y13.0528 F60.00
G01 X3.4155 Y13.0194 F60.00
G01 X3.4174 Y13.0028 F60.00
G01 X3.4412 Y12.8405 F60.00
G01 X3.4470 Y12.8075 F60.00
G01 X3.4543 Y12.7748 F60.00
G01 X3.4901 Y12.6320 F60.00
G01 X3.4990 Y12.5997 F60.00
G01 X3.5095 Y12.5679 F60.00
G01 X3.5591 Y12.4293 F60.00
G01 X3.5712 Y12.3980 F60.00
G01 X3.5848 Y12.3674 F60.00
G01 X3.6477 Y12.2343 F60.00
G01 X3.6628 Y12.2043 F60.00
G01 X3.6793 Y12.1752 F60.00
G01 X3.7550 Y12.0489 F60.00
G01 X3.7729 Y12.0206 F60.00
G01 X3.7922 Y11.9932 F60.00
G01 X3.8799 Y11.8749 F60.00
G01 X3.9005 Y11.8485 F60.00
G01 X3.9113 Y11.8357 F60.00
G01 X4.0213 Y11.7140 F60.00
G01 X4.0444 Y11.6898 F60.00
G01 X4.0686 Y11.6667 F60.00
G01 X4.1778 Y11.5678 F60.00
G01 X4.1903 Y11.5567 F60.00
G01 X4.2162 Y11.5355 F60.00
G01 X4.3478 Y11.4376 F60.00
G01 X4.3752 Y11.4183 F60.00
G01 X4.4035 Y11.4004 F60.00
G01 X4.5298 Y11.3247 F60.00
G01 X4.5589 Y11.3082 F60.00
G01 X4.5889 Y11.2931 F60.00
G01 X4.7220 Y11.2302 F60.00
G01 X4.7526 Y11.2166 F60.00
G01 X4.7839 Y11.2045 F60.00
G01 X4.9225 Y11.1549 F60.00
G01 X4.9543 Y11.1444 F60.00
G01 X4.9866 Y11.1355 F60.00
G01 X5.1294 Y11.0997 F60.00
G01 X5.1621 Y11.0924 F60.00
G01 X5.1951 Y11.0866 F60.00
G01 X5.3408 Y11.0650 F60.00
G01 X5.3740 Y11.0609 F60.00
G01 X5.4074 Y11.0585 F60.00
G01 X5.5545 Y11.0512 F60.00
G01 X5.5880 Y11.0504 F60.00
G01 X11.5062 Y11.0504 F60.00
G01 X11.5397 Y11.0512 F60.00
G01 X11.6868 Y11.0585 F60.00
G01 X11.7202 Y11.0609 F60.00
G01 X11.7534 Y11.0650 F60.00
G01 X11.8991 Y11.0866 F60.00
G01 X11.9321 Y11.0924 F60.00
G01 X11.9648 Y11.0997 F60.00
G01 X12.1076 Y11.1355 F60.00
G01 X12.1399 Y11.1444 F60.00
G01 X12.1717 Y11.1549 F60.00
G01 X12.3103 Y11.2045 F60.00
G01 X12.3416 Y11.2166 F60.00
G01 X12.3722 Y11.2302 F60.00
G01 X12.5053 Y11.2931 F60.00
G01 X12.5353 Y11.3082 F60.00
G01 X12.5644 Y11.3247 F60.00
G01 X12.6907 Y11.4004 F60.00
G01 X12.7190 Y11.4183 F60.00
G01 X12.7464 Y11.4376 F60.00
G01 X12.8647 Y11.5253 F60.00
G01 X12.8911 Y11.5459 F60.00
G01 X12.9164 Y11.5678 F60.00
G01 X13.0378 Y11.6781 F60.00
G01 X13.0615 Y11.7018 F60.00
G01 X13.0729 Y11.7140 F60.00
G01 X13.1718 Y11.8232 F60.00
G01 X13.1937 Y11.8485 F60.00
G01 X13.2041 Y11.8616 F60.00
G01 X13.3118 Y12.0068 F60.00
G01 X13.3304 Y12.0346 F60.00
G01 X13.3649 Y12.0918 F60.00
G01 X13.4112 Y12.0918 F60.00
G01 X13.4447 Y12.0926 F60.00
G01 X13.5918 Y12.0999 F60.00
G01 X13.6252 Y12.1023 F60.00
G01 X13.6584 Y12.1064 F60.00
G01 X13.8041 Y12.1280 F60.00
G01 X13.8371 Y12.1338 F60.00
G01 X13.8698 Y12.1411 F60.00
G01 X14.0126 Y12.1769 F60.00
G01 X14.0449 Y12.1858 F60.00
G01 X14.0767 Y12.1963 F60.00
G01 X14.2153 Y12.2459 F60.00
G01 X14.2466 Y12.2580 F60.00
G01 X14.2772 Y12.2716 F60.00
G01 X14.4103 Y12.3345 F60.00
G01 X14.4403 Y12.3496 F60.00
G01 X14.4694 Y12.3661 F60.00
G01 X14.5957 Y12.4418 F60.00
G01 X14.6240 Y12.4597 F60.00
G01 X14.6514 Y12.4790 F60.00
G01 X14.7697 Y12.5667 F60.00
G01 X14.7961 Y12.5873 F60.00
G01 X14.8214 Y12.6092 F60.00
G01 X14.9306 Y12.7081 F60.00
G01 X14.9548 Y12.7312 F60.00
G01 X14.9779 Y12.7554 F60.00
G01 X15.0768 Y12.8646 F60.00
G01 X15.0987 Y12.8899 F60.00
G01 X15.1193 Y12.9163 F60.00
G01 X15.2070 Y13.0346 F60.00
G01 X15.2263 Y13.0620 F60.00
G01 X15.2442 Y13.0903 F60.00
G01 X15.3199 Y13.2166 F60.00
G01 X15.3364 Y13.2457 F60.00
G01 X15.3515 Y13.2757 F60.00
G01 X15.4144 Y13.4088 F60.00
G01 X15.4280 Y13.4394 F60.00
G01 X15.4401 Y13.4707 F60.00
G01 X15.4897 Y13.6093 F60.00
G01 X15.5002 Y13.6411 F60.00
G01 X15.5091 Y13.6734 F60.00
G01 X15.5449 Y13.8162 F60.00
G01 X15.5522 Y13.8489 F60.00
G01 X15.5580 Y13.8819 F60.00
G01 X15.5796 Y14.0276 F60.00
G01 X15.5837 Y14.0608 F60.00
G01 X15.5861 Y14.0942 F60.00
G01 X15.5934 Y14.2413 F60.00
G01 X15.5942 Y14.2748 F60.00
G01 X15.5934 Y14.3083 F60.00
G01 X15.5861 Y14.4554 F60.00
G01 X15.5837 Y14.4888 F60.00
G01 X15.5796 Y14.5220 F60.00
G01 X15.5553 Y14.6842 F60.00
G01 X15.5488 Y14.7171 F60.00
G01 X15.5449 Y14.7334 F60.00
G01 X15.5091 Y14.8762 F60.00
G01 X15.5002 Y14.9085 F60.00
G01 X15.4897 Y14.9403 F60.00
G01 X15.4401 Y15.0789 F60.00
G01 X15.4280 Y15.1102 F60.00
G01 X15.4144 Y15.1408 F60.00
G01 X15.3515 Y15.2739 F60.00
G01 X15.3364 Y15.3039 F60.00
G01 X15.3199 Y15.3330 F60.00
G01 X15.2354 Y15.4736 F60.00
G01 X15.2263 Y15.4876 F60.00
G01 X15.2070 Y15.5150 F60.00
G01 X15.1193 Y15.6333 F60.00
G01 X15.0987 Y15.6597 F60.00
G01 X15.0768 Y15.6850 F60.00
G01 X14.9665 Y15.8064 F60.00
G01 X14.9428 Y15.8301 F60.00
G01 X14.9306 Y15.8415 F60.00
G01 X14.8089 Y15.9515 F60.00
G01 X14.7830 Y15.9727 F60.00
G01 X14.7392 Y16.0055 F60.00
G01 X25.0880 Y16.0055 F60.00
G01 X25.0442 Y15.9727 F60.00
G01 X25.0183 Y15.9515 F60.00
G01 X24.8844 Y15.8301 F60.00
G01 X24.4958 Y15.4418 F60.00
G01 X21.5392 Y15.4418 F60.00
G01 X21.5057 Y15.4410 F60.00
G01 X21.3586 Y15.4337 F60.00
G01 X21.3252 Y15.4313 F60.00
G01 X21.3086 Y15.4294 F60.00
G01 X21.1463 Y15.4056 F60.00
G01 X21.1133 Y15.3998 F60.00
G01 X21.0806 Y15.3925 F60.00
G01 X20.9378 Y15.3567 F60.00
G01 X20.9055 Y15.3478 F60.00
G01 X20.8737 Y15.3373 F60.00
G01 X20.7351 Y15.2877 F60.00
G01 X20.7038 Y15.2756 F60.00
G01 X20.6732 Y15.2620 F60.00
G01 X20.5401 Y15.1991 F60.00
G01 X20.5101 Y15.1840 F60.00
G01 X20.4810 Y15.1675 F60.00
G01 X20.3547 Y15.0918 F60.00
G01 X20.3264 Y15.0739 F60.00
G01 X20.2990 Y15.0546 F60.00
G01 X20.1674 Y14.9567 F60.00
G01 X20.1543 Y14.9463 F60.00
G01 X20.1290 Y14.9244 F60.00
G01 X20.0198 Y14.8255 F60.00
G01 X19.9956 Y14.8024 F60.00
G01 X19.9725 Y14.7782 F60.00
G01 X19.8736 Y14.6690 F60.00
G01 X19.8517 Y14.6437 F60.00
G01 X19.8311 Y14.6173 F60.00
G01 X19.7434 Y14.4990 F60.00
G01 X19.7241 Y14.4716 F60.00
G01 X19.7062 Y14.4433 F60.00
G01 X19.6305 Y14.3170 F60.00
G01 X19.6140 Y14.2879 F60.00
G01 X19.5989 Y14.2579 F60.00
G01 X19.5360 Y14.1248 F60.00
G01 X19.5224 Y14.0942 F60.00
G01 X19.5103 Y14.0629 F60.00
G01 X19.4607 Y13.9243 F60.00
G01 X19.4502 Y13.8925 F60.00
G01 X19.4413 Y13.8602 F60.00
G01 X19.4055 Y13.7174 F60.00
G01 X19.3982 Y13.6847 F60.00
G01 X19.3924 Y13.6517 F60.00
G01 X19.3708 Y13.5060 F60.00
G01 X19.3667 Y13.4728 F60.00
G01 X19.3643 Y13.4394 F60.00
G01 X19.3570 Y13.2923 F60.00
G01 X19.3562 Y13.2588 F60.00
G01 X19.3570 Y13.2253 F60.00
G01 X19.3643 Y13.0782 F60.00
G01 X19.3667 Y13.0448 F60.00
G01 X19.3708 Y13.0116 F60.00
G01 X19.3924 Y12.8659 F60.00
G01 X19.3982 Y12.8329 F60.00
G01 X19.4055 Y12.8002 F60.00
G01 X19.4413 Y12.6574 F60.00
G01 X19.4502 Y12.6251 F60.00
G01 X19.4607 Y12.5933 F60.00
G01 X19.5103 Y12.4547 F60.00
G01 X19.5224 Y12.4234 F60.00
G01 X19.5360 Y12.3928 F60.00
G01 X19.5989 Y12.2597 F60.00
G01 X19.6140 Y12.2297 F60.00
G01 X19.6305 Y12.2006 F60.00
G01 X19.7062 Y12.0743 F60.00
G01 X19.7241 Y12.0460 F60.00
G01 X19.7434 Y12.0186 F60.00
G01 X19.8413 Y11.8870 F60.00
G01 X19.8625 Y11.8611 F60.00
G01 X19.8736 Y11.8486 F60.00
G01 X19.9725 Y11.7394 F60.00
G01 X19.9956 Y11.7152 F60.00
G01 X20.0198 Y11.6921 F60.00
G01 X20.1290 Y11.5932 F60.00
G01 X20.1543 Y11.5713 F60.00
G01 X20.1807 Y11.5507 F60.00
G01 X20.2990 Y11.4630 F60.00
G01 X20.3264 Y11.4437 F60.00
G01 X20.3547 Y11.4258 F60.00
G01 X20.4810 Y11.3501 F60.00
G01 X20.5101 Y11.3336 F60.00
G01 X20.5401 Y11.3185 F60.00
G01 X20.6732 Y11.2556 F60.00
G01 X20.7038 Y11.2420 F60.00
G01 X20.7351 Y11.2299 F60.00
G01 X20.8737 Y11.1803 F60.00
G01 X20.9055 Y11.1698 F60.00
G01 X20.9378 Y11.1609 F60.00
G01 X21.0806 Y11.1251 F60.00
G01 X21.1133 Y11.1178 F60.00
G01 X21.1463 Y11.1120 F60.00
G01 X21.2920 Y11.0904 F60.00
G01 X21.3252 Y11.0863 F60.00
G01 X21.3586 Y11.0839 F60.00
G01 X21.5057 Y11.0766 F60.00
G01 X21.5392 Y11.0758 F60.00
G01 X25.4000 Y11.0758 F60.00
G01 X25.4335 Y11.0766 F60.00
G01 X25.5806 Y11.0839 F60.00
G01 X25.6140 Y11.0863 F60.00
G01 X25.6472 Y11.0904 F60.00
G01 X25.7929 Y11.1120 F60.00
G01 X25.8259 Y11.1178 F60.00
G01 X25.8586 Y11.1251 F60.00
G01 X26.0014 Y11.1609 F60.00
G01 X26.0337 Y11.1698 F60.00
G01 X26.0655 Y11.1803 F60.00
G01 X26.2041 Y11.2299 F60.00
G01 X26.2354 Y11.2420 F60.00
G01 X26.2660 Y11.2556 F60.00
G01 X26.3991 Y11.3185 F60.00
G01 X26.4291 Y11.3336 F60.00
G01 X26.4437 Y11.3417 F60.00
G01 X26.5845 Y11.4258 F60.00
G01 X26.6128 Y11.4437 F60.00
G01 X26.6402 Y11.4630 F60.00
G01 X26.7585 Y11.5507 F60.00
G01 X26.7718 Y11.5609 F60.00
G01 X26.7977 Y11.5821 F60.00
G01 X26.9316 Y11.7035 F60.00
G01 X27.3202 Y12.0918 F60.00
G01 X29.0068 Y12.0918 F60.00
G01 X29.0403 Y12.0926 F60.00
G01 X29.1874 Y12.0999 F60.00
G01 X29.2208 Y12.1023 F60.00
G01 X29.2374 Y12.1042 F60.00
G01 X29.3997 Y12.1280 F60.00
G01 X29.4162 Y12.1307 F60.00
G01 X29.4491 Y12.1372 F60.00
G01 X29.6244 Y12.1812 F60.00
G01 X29.6405 Y12.1858 F60.00
G01 X29.6723 Y12.1963 F60.00
G01 X29.8266 Y12.2518 F60.00
G01 X29.8422 Y12.2580 F60.00
G01 X29.8728 Y12.2716 F60.00
G01 X30.0059 Y12.3345 F60.00
G01 X30.0359 Y12.3496 F60.00
G01 X30.0650 Y12.3661 F60.00
G01 X30.1558 Y12.4205 F60.00
G01 X30.1644 Y12.3872 F60.00
G01 X30.1741 Y12.3552 F60.00
G01 X30.2350 Y12.1850 F60.00
G01 X30.2412 Y12.1694 F60.00
G01 X30.2548 Y12.1388 F60.00
G01 X30.3177 Y12.0057 F60.00
G01 X30.3328 Y11.9757 F60.00
G01 X30.3493 Y11.9466 F60.00
G01 X30.4250 Y11.8203 F60.00
G01 X30.4429 Y11.7920 F60.00
G01 X30.4622 Y11.7646 F60.00
G01 X30.5499 Y11.6463 F60.00
G01 X30.5705 Y11.6199 F60.00
G01 X30.5924 Y11.5946 F60.00
G01 X30.6913 Y11.4854 F60.00
G01 X30.7144 Y11.4612 F60.00
G01 X33.6474 Y8.5285 F60.00
G01 X33.7688 Y8.4182 F60.00
G01 X33.7941 Y8.3963 F60.00
G01 X33.8205 Y8.3757 F60.00
G01 X33.9388 Y8.2880 F60.00
G01 X33.9662 Y8.2687 F60.00
G01 X33.9945 Y8.2508 F60.00
G01 X34.1208 Y8.1751 F60.00
G01 X34.1499 Y8.1586 F60.00
G01 X34.1799 Y8.1435 F60.00
G01 X34.3130 Y8.0806 F60.00
G01 X34.3436 Y8.0670 F60.00
G01 X34.3592 Y8.0608 F60.00
G01 X34.5135 Y8.0053 F60.00
G01 X34.5453 Y7.9948 F60.00
G01 X34.5776 Y7.9859 F60.00
G01 X34.7204 Y7.9501 F60.00
G01 X34.7531 Y7.9428 F60.00
G01 X34.7696 Y7.9397 F60.00
G01 X34.9484 Y7.9132 F60.00
G01 X34.9650 Y7.9113 F60.00
G01 X34.9969 Y7.9090 F60.00
G01 X34.0971 Y7.0091 F60.00
G01 X34.0743 Y6.9874 F60.00
G01 X31.6077 Y4.5198 F60.00
G01 X27.3202 Y4.5198 F60.00
G01 X26.9182 Y4.9218 F60.00
G01 X26.8940 Y4.9449 F60.00
G01 X26.7723 Y5.0549 F60.00
G01 X26.7595 Y5.0657 F60.00
G01 X26.7331 Y5.0863 F60.00
G01 X26.6148 Y5.1740 F60.00
G01 X26.5874 Y5.1933 F60.00
G01 X26.5591 Y5.2112 F60.00
G01 X26.4328 Y5.2869 F60.00
G01 X26.4037 Y5.3034 F60.00
G01 X26.3737 Y5.3185 F60.00
G01 X26.2406 Y5.3814 F60.00
G01 X26.2100 Y5.3950 F60.00
G01 X26.1787 Y5.4071 F60.00
G01 X26.0401 Y5.4567 F60.00
G01 X26.0083 Y5.4672 F60.00
G01 X25.9760 Y5.4761 F60.00
G01 X25.8332 Y5.5119 F60.00
G01 X25.8005 Y5.5192 F60.00
G01 X25.7675 Y5.5250 F60.00
G01 X25.6218 Y5.5466 F60.00
G01 X25.6052 Y5.5488 F60.00
G01 X25.5719 Y5.5521 F60.00
G01 X25.3913 Y5.5610 F60.00
G01 X21.5392 Y5.5612 F60.00
G01 X21.5057 Y5.5604 F60.00
G01 X21.3586 Y5.5531 F60.00
G01 X21.3252 Y5.5507 F60.00
G01 X21.2920 Y5.5466 F60.00
G01 X21.1463 Y5.5250 F60.00
G01 X21.1133 Y5.5192 F60.00
G01 X21.0806 Y5.5119 F60.00
G01 X20.9378 Y5.4761 F60.00
G01 X20.9055 Y5.4672 F60.00
G01 X20.8737 Y5.4567 F60.00
G01 X20.7351 Y5.4071 F60.00
G01 X20.7038 Y5.3950 F60.00
G01 X20.6732 Y5.3814 F60.00
G01 X20.5401 Y5.3185 F60.00
G01 X20.5101 Y5.3034 F60.00
G01 X20.4810 Y5.2869 F60.00
G01 X20.3547 Y5.2112 F60.00
G01 X20.3264 Y5.1933 F60.00
G01 X20.2990 Y5.1740 F60.00
G01 X20.1807 Y5.0863 F60.00
G01 X20.1543 Y5.0657 F60.00
G01 X20.1290 Y5.0438 F60.00
G01 X20.0198 Y4.9449 F60.00
G01 X19.9956 Y4.9218 F60.00
G01 X19.9725 Y4.8976 F60.00
G01 X19.8736 Y4.7884 F60.00
G01 X19.8517 Y4.7631 F60.00
G01 X19.8413 Y4.7500 F60.00
G01 X19.7434 Y4.6184 F60.00
G01 X19.7241 Y4.5910 F60.00
G01 X19.7062 Y4.5627 F60.00
G01 X19.6305 Y4.4364 F60.00
G01 X19.6140 Y4.4073 F60.00
G01 X19.5989 Y4.3773 F60.00
G01 X19.5360 Y4.2442 F60.00
G01 X19.5224 Y4.2136 F60.00
G01 X19.5103 Y4.1823 F60.00
G01 X19.4607 Y4.0437 F60.00
G01 X19.4502 Y4.0119 F60.00
G01 X19.4413 Y3.9796 F60.00
G01 X19.4055 Y3.8368 F60.00
G01 X19.3982 Y3.8041 F60.00
G01 X19.3924 Y3.7711 F60.00
G01 X19.3708 Y3.6254 F60.00
G01 X19.3667 Y3.5922 F60.00
G01 X19.3643 Y3.5588 F60.00
G01 X19.3570 Y3.4117 F60.00
G01 X19.3562 Y3.3782 F60.00
G01 X19.3570 Y3.3447 F60.00
G01 X19.3643 Y3.1976 F60.00
G01 X19.3667 Y3.1642 F60.00
G01 X19.3708 Y3.1310 F60.00
G01 X19.3924 Y2.9853 F60.00
G01 X19.3982 Y2.9523 F60.00
G01 X19.4055 Y2.9196 F60.00
G01 X19.4413 Y2.7768 F60.00
G01 X19.4502 Y2.7445 F60.00
G01 X19.4607 Y2.7127 F60.00
G01 X19.5103 Y2.5741 F60.00
G01 X19.5224 Y2.5428 F60.00
G01 X19.5360 Y2.5122 F60.00
G01 X19.5989 Y2.3791 F60.00
G01 X19.6140 Y2.3491 F60.00
G01 X19.6305 Y2.3200 F60.00
G01 X19.7062 Y2.1937 F60.00
G01 X19.7241 Y2.1654 F60.00
G01 X19.7434 Y2.1380 F60.00
G01 X19.8311 Y2.0197 F60.00
G01 X19.8517 Y1.9933 F60.00
G01 X19.8736 Y1.9680 F60.00
G01 X19.9725 Y1.8588 F60.00
G01 X19.9956 Y1.8346 F60.00
G01 X20.0198 Y1.8115 F60.00
G01 X20.1290 Y1.7126 F60.00
G01 X20.1543 Y1.6907 F60.00
G01 X20.1674 Y1.6803 F60.00
G01 X20.3126 Y1.5726 F60.00
G01 X20.3264 Y1.5631 F60.00
G01 X20.3547 Y1.5452 F60.00
G01 X20.4810 Y1.4695 F60.00
G01 X20.5101 Y1.4530 F60.00
G01 X20.5401 Y1.4379 F60.00
G01 X20.6732 Y1.3750 F60.00
G01 X20.7038 Y1.3614 F60.00
G01 X20.7351 Y1.3493 F60.00
G01 X20.8737 Y1.2997 F60.00
G01 X20.9055 Y1.2892 F60.00
G01 X20.9378 Y1.2803 F60.00
G01 X21.0806 Y1.2445 F60.00
G01 X21.1133 Y1.2372 F60.00
G01 X21.1463 Y1.2314 F60.00
G01 X21.2920 Y1.2098 F60.00
G01 X21.3252 Y1.2057 F60.00
G01 X21.3586 Y1.2033 F60.00
G01 X21.5057 Y1.1960 F60.00
G01 X21.5392 Y1.1952 F60.00
G01 X24.4704 Y1.1952 F60.00
G01 X24.6785 Y0.9871 F60.00
G01 X15.1258 Y0.9871 F60.00
G01 X15.2070 Y1.0966 F60.00
G01 X15.2263 Y1.1240 F60.00
G01 X15.2442 Y1.1523 F60.00
G01 X15.3199 Y1.2786 F60.00
G01 X15.3364 Y1.3077 F60.00
G01 X15.3515 Y1.3377 F60.00
G01 X15.4144 Y1.4708 F60.00
G01 X15.4280 Y1.5014 F60.00
G01 X15.4401 Y1.5327 F60.00
G01 X15.4897 Y1.6713 F60.00
G01 X15.5002 Y1.7031 F60.00
G01 X15.5091 Y1.7354 F60.00
G01 X15.5449 Y1.8782 F60.00
G01 X15.5522 Y1.9109 F60.00
G01 X15.5580 Y1.9439 F60.00
G01 X15.5796 Y2.0896 F60.00
G01 X15.5837 Y2.1228 F60.00
G01 X15.5861 Y2.1562 F60.00
G01 X15.5934 Y2.3033 F60.00
G01 X15.5942 Y2.3368 F60.00
G01 X15.5934 Y2.3703 F60.00
G01 X15.5861 Y2.5174 F60.00
G01 X15.5837 Y2.5508 F60.00
G01 X15.5796 Y2.5840 F60.00
G01 X15.5580 Y2.7297 F60.00
G01 X15.5522 Y2.7627 F60.00
G01 X15.5449 Y2.7954 F60.00
G01 X15.5091 Y2.9382 F60.00
G01 X15.5048 Y2.9544 F60.00
G01 X15.4951 Y2.9864 F60.00
G01 X15.4342 Y3.1566 F60.00
G01 X15.4280 Y3.1722 F60.00
G01 X15.4144 Y3.2028 F60.00
G01 X15.3515 Y3.3359 F60.00
G01 X15.3364 Y3.3659 F60.00
G01 X15.3199 Y3.3950 F60.00
G01 X15.2442 Y3.5213 F60.00
G01 X15.2263 Y3.5496 F60.00
G01 X15.2070 Y3.5770 F60.00
G01 X15.1193 Y3.6953 F60.00
G01 X15.0987 Y3.7217 F60.00
G01 X15.0768 Y3.7470 F60.00
G01 X14.9779 Y3.8562 F60.00
G01 X14.9548 Y3.8804 F60.00
G01 X13.9014 Y4.9335 F60.00
G01 X13.7800 Y5.0438 F60.00
G01 X13.7675 Y5.0549 F60.00
G01 X13.7416 Y5.0761 F60.00
G01 X13.5964 Y5.1838 F60.00
G01 X13.5826 Y5.1933 F60.00
G01 X13.5543 Y5.2112 F60.00
G01 X13.4280 Y5.2869 F60.00
G01 X13.3989 Y5.3034 F60.00
G01 X13.3689 Y5.3185 F60.00
G01 X13.2358 Y5.3814 F60.00
G01 X13.2052 Y5.3950 F60.00
G01 X13.1739 Y5.4071 F60.00
G01 X13.0353 Y5.4567 F60.00
G01 X13.0035 Y5.4672 F60.00
G01 X12.9712 Y5.4761 F60.00
G01 X12.8284 Y5.5119 F60.00
G01 X12.7957 Y5.5192 F60.00
G01 X12.7627 Y5.5250 F60.00
G01 X12.6170 Y5.5466 F60.00
G01 X12.5838 Y5.5507 F60.00
G01 X12.5504 Y5.5531 F60.00
G01 X12.3865 Y5.5610 F60.00
G01 X12.3531 Y5.5610 F60.00
G01 X12.3363 Y5.5604 F60.00
G01 X12.1892 Y5.5531 F60.00
G01 X12.1558 Y5.5507 F60.00
G01 X12.1226 Y5.5466 F60.00
G01 X11.9634 Y5.5228 F60.00
G01 X11.8042 Y5.5466 F60.00
G01 X11.7710 Y5.5507 F60.00
G01 X11.7376 Y5.5531 F60.00
G01 X11.5905 Y5.5604 F60.00
G01 X11.5570 Y5.5612 F60.00
G01 X8.6193 Y5.5610 F60.00
G01 X8.4554 Y5.5531 F60.00
G01 X8.4220 Y5.5507 F60.00
G01 X8.3888 Y5.5466 F60.00
G01 X8.2431 Y5.5250 F60.00
G01 X8.2101 Y5.5192 F60.00
G01 X8.1774 Y5.5119 F60.00
G01 X8.0346 Y5.4761 F60.00
G01 X8.0023 Y5.4672 F60.00
G01 X7.9705 Y5.4567 F60.00
G01 X7.8367 Y5.4088 F60.00
G00 Z3.0000
G00 X7.8034 Y5.6007
G01 F60.00
G01 Z-0.0980
G01 F60.00
G01 X5.5880 Y5.6007 F60.00
G01 X5.5665 Y5.6004 F60.00
G01 X5.3980 Y5.5924 F60.00
G01 X5.3766 Y5.5911 F60.00
G01 X5.3552 Y5.5892 F60.00
G01 X5.3339 Y5.5869 F60.00
G01 X5.3126 Y5.5840 F60.00
G01 X5.1670 Y5.5624 F60.00
G01 X5.1458 Y5.5590 F60.00
G01 X5.1247 Y5.5550 F60.00
G01 X5.1037 Y5.5506 F60.00
G01 X4.9400 Y5.5098 F60.00
G01 X4.9192 Y5.5044 F60.00
G01 X4.8986 Y5.4984 F60.00
G01 X4.8782 Y5.4919 F60.00
G01 X4.8579 Y5.4849 F60.00
G01 X4.7192 Y5.4353 F60.00
G01 X4.6991 Y5.4279 F60.00
G01 X4.6792 Y5.4199 F60.00
G01 X4.6595 Y5.4114 F60.00
G01 X4.6400 Y5.4025 F60.00
G01 X4.5068 Y5.3395 F60.00
G01 X4.4875 Y5.3301 F60.00
G01 X4.4685 Y5.3202 F60.00
G01 X4.4497 Y5.3099 F60.00
G01 X4.4312 Y5.2991 F60.00
G01 X4.3048 Y5.2234 F60.00
G01 X4.2866 Y5.2121 F60.00
G01 X4.2686 Y5.2004 F60.00
G01 X4.2509 Y5.1883 F60.00
G01 X4.2335 Y5.1757 F60.00
G01 X4.0982 Y5.0750 F60.00
G01 X4.0814 Y5.0616 F60.00
G01 X4.0650 Y5.0478 F60.00
G01 X4.0489 Y5.0336 F60.00
G01 X3.9398 Y4.9347 F60.00
G01 X3.9241 Y4.9201 F60.00
G01 X3.9087 Y4.9051 F60.00
G01 X3.8937 Y4.8897 F60.00
G01 X3.7802 Y4.7649 F60.00
G01 X3.7660 Y4.7488 F60.00
G01 X3.7522 Y4.7324 F60.00
G01 X3.7388 Y4.7156 F60.00
G01 X3.6381 Y4.5803 F60.00
G01 X3.6255 Y4.5629 F60.00
G01 X3.6134 Y4.5452 F60.00
G01 X3.6017 Y4.5272 F60.00
G01 X3.5904 Y4.5090 F60.00
G01 X3.5147 Y4.3826 F60.00
G01 X3.5039 Y4.3641 F60.00
G01 X3.4936 Y4.3453 F60.00
G01 X3.4837 Y4.3263 F60.00
G01 X3.4113 Y4.1738 F60.00
G01 X3.4024 Y4.1543 F60.00
G01 X3.3939 Y4.1346 F60.00
G01 X3.3859 Y4.1147 F60.00
G01 X3.3289 Y3.9559 F60.00
G01 X3.3219 Y3.9356 F60.00
G01 X3.3154 Y3.9152 F60.00
G01 X3.3094 Y3.8946 F60.00
G01 X3.3040 Y3.8738 F60.00
G01 X3.2632 Y3.7101 F60.00
G01 X3.2588 Y3.6891 F60.00
G01 X3.2548 Y3.6680 F60.00
G01 X3.2514 Y3.6468 F60.00
G01 X3.2298 Y3.5012 F60.00
G01 X3.2269 Y3.4799 F60.00
G01 X3.2246 Y3.4586 F60.00
G01 X3.2227 Y3.4372 F60.00
G01 X3.2214 Y3.4158 F60.00
G01 X3.2142 Y3.2687 F60.00
G01 X3.2134 Y3.2473 F60.00
G01 X3.2131 Y3.2258 F60.00
G01 X3.2134 Y3.2043 F60.00
G01 X3.2142 Y3.1829 F60.00
G01 X3.2227 Y3.0144 F60.00
G01 X3.2246 Y2.9930 F60.00
G01 X3.2269 Y2.9717 F60.00
G01 X3.2298 Y2.9504 F60.00
G01 X3.2548 Y2.7836 F60.00
G01 X3.2588 Y2.7625 F60.00
G01 X3.2632 Y2.7415 F60.00
G01 X3.2682 Y2.7206 F60.00
G01 X3.3040 Y2.5778 F60.00
G01 X3.3094 Y2.5570 F60.00
G01 X3.3154 Y2.5364 F60.00
G01 X3.3219 Y2.5160 F60.00
G01 X3.3289 Y2.4957 F60.00
G01 X3.3785 Y2.3570 F60.00
G01 X3.3859 Y2.3369 F60.00
G01 X3.3939 Y2.3170 F60.00
G01 X3.4024 Y2.2973 F60.00
G01 X3.4113 Y2.2778 F60.00
G01 X3.4743 Y2.1446 F60.00
G01 X3.4837 Y2.1253 F60.00
G01 X3.4936 Y2.1063 F60.00
G01 X3.5039 Y2.0875 F60.00
G01 X3.5147 Y2.0690 F60.00
G01 X3.5904 Y1.9426 F60.00
G01 X3.6017 Y1.9244 F60.00
G01 X3.6134 Y1.9064 F60.00
G01 X3.6255 Y1.8887 F60.00
G01 X3.7258 Y1.7530 F60.00
G01 X3.7388 Y1.7360 F60.00
G01 X3.7522 Y1.7192 F60.00
G01 X3.7660 Y1.7028 F60.00
G01 X3.7802 Y1.6867 F60.00
G01 X3.8791 Y1.5776 F60.00
G01 X3.8937 Y1.5619 F60.00
G01 X3.9087 Y1.5465 F60.00
G01 X3.9241 Y1.5315 F60.00
G01 X4.0489 Y1.4180 F60.00
G01 X4.0650 Y1.4038 F60.00
G01 X4.0814 Y1.3900 F60.00
G01 X4.0982 Y1.3766 F60.00
G01 X4.2335 Y1.2759 F60.00
G01 X4.2509 Y1.2633 F60.00
G01 X4.2686 Y1.2512 F60.00
G01 X4.2866 Y1.2395 F60.00
G01 X4.3048 Y1.2282 F60.00
G01 X4.3870 Y1.1790 F60.00
G01 X1.1282 Y1.1790 F60.00
G01 X1.1282 Y15.8136 F60.00
G01 X10.7650 Y15.8136 F60.00
G01 X10.7510 Y15.7978 F60.00
G01 X10.7372 Y15.7814 F60.00
G01 X10.7238 Y15.7646 F60.00
G01 X10.6231 Y15.6293 F60.00
G01 X10.6080 Y15.6083 F60.00
G01 X5.5880 Y15.6083 F60.00
G01 X5.5665 Y15.6080 F60.00
G01 X5.3980 Y15.6000 F60.00
G01 X5.3766 Y15.5987 F60.00
G01 X5.3552 Y15.5968 F60.00
G01 X5.3339 Y15.5945 F60.00
G01 X5.3126 Y15.5916 F60.00
G01 X5.1670 Y15.5700 F60.00
G01 X5.1458 Y15.5666 F60.00
G01 X5.1247 Y15.5626 F60.00
G01 X5.1037 Y15.5582 F60.00
G01 X5.0828 Y15.5532 F60.00
G01 X4.9400 Y15.5174 F60.00
G01 X4.9192 Y15.5120 F60.00
G01 X4.8986 Y15.5060 F60.00
G01 X4.8782 Y15.4995 F60.00
G01 X4.8579 Y15.4925 F60.00
G01 X4.6991 Y15.4355 F60.00
G01 X4.6792 Y15.4275 F60.00
G01 X4.6595 Y15.4190 F60.00
G01 X4.6400 Y15.4101 F60.00
G01 X4.4875 Y15.3377 F60.00
G01 X4.4685 Y15.3278 F60.00
G01 X4.4497 Y15.3175 F60.00
G01 X4.4312 Y15.3067 F60.00
G01 X4.3048 Y15.2310 F60.00
G01 X4.2866 Y15.2197 F60.00
G01 X4.2686 Y15.2080 F60.00
G01 X4.2509 Y15.1959 F60.00
G01 X4.2335 Y15.1833 F60.00
G01 X4.0982 Y15.0826 F60.00
G01 X4.0814 Y15.0692 F60.00
G01 X4.0650 Y15.0554 F60.00
G01 X4.0489 Y15.0412 F60.00
G01 X3.9398 Y14.9423 F60.00
G01 X3.9241 Y14.9277 F60.00
G01 X3.9087 Y14.9127 F60.00
G01 X3.8937 Y14.8973 F60.00
G01 X3.8791 Y14.8816 F60.00
G01 X3.7802 Y14.7725 F60.00
G01 X3.7660 Y14.7564 F60.00
G01 X3.7522 Y14.7400 F60.00
G01 X3.7388 Y14.7232 F60.00
G01 X3.7258 Y14.7062 F60.00
G01 X3.6381 Y14.5879 F60.00
G01 X3.6255 Y14.5705 F60.00
G01 X3.6134 Y14.5528 F60.00
G01 X3.6017 Y14.5348 F60.00
G01 X3.5904 Y14.5166 F60.00
G01 X3.5039 Y14.3717 F60.00
G01 X3.4936 Y14.3529 F60.00
G01 X3.4837 Y14.3339 F60.00
G01 X3.4743 Y14.3146 F60.00
G01 X3.4024 Y14.1619 F60.00
G01 X3.3939 Y14.1422 F60.00
G01 X3.3859 Y14.1223 F60.00
G01 X3.3785 Y14.1022 F60.00
G01 X3.3289 Y13.9635 F60.00
G01 X3.3219 Y13.9432 F60.00
G01 X3.3154 Y13.9228 F60.00
G01 X3.3094 Y13.9022 F60.00
G01 X3.3040 Y13.8814 F60.00
G01 X3.2682 Y13.7386 F60.00
G01 X3.2632 Y13.7177 F60.00
G01 X3.2588 Y13.6967 F60.00
G01 X3.2548 Y13.6756 F60.00
G01 X3.2298 Y13.5088 F60.00
G01 X3.2269 Y13.4875 F60.00
G01 X3.2246 Y13.4662 F60.00
G01 X3.2227 Y13.4448 F60.00
G01 X3.2214 Y13.4234 F60.00
G01 X3.2142 Y13.2763 F60.00
G01 X3.2134 Y13.2549 F60.00
G01 X3.2131 Y13.2334 F60.00
G01 X3.2134 Y13.2119 F60.00
G01 X3.2142 Y13.1905 F60.00
G01 X3.2214 Y13.0434 F60.00
G01 X3.2227 Y13.0220 F60.00
G01 X3.2246 Y13.0006 F60.00
G01 X3.2269 Y12.9793 F60.00
G01 X3.2298 Y12.9580 F60.00
G01 X3.2514 Y12.8124 F60.00
G01 X3.2548 Y12.7912 F60.00
G01 X3.2588 Y12.7701 F60.00
G01 X3.2632 Y12.7491 F60.00
G01 X3.2682 Y12.7282 F60.00
G01 X3.3040 Y12.5854 F60.00
G01 X3.3094 Y12.5646 F60.00
G01 X3.3154 Y12.5440 F60.00
G01 X3.3219 Y12.5236 F60.00
G01 X3.3785 Y12.3646 F60.00
G01 X3.3859 Y12.3445 F60.00
G01 X3.3939 Y12.3246 F60.00
G01 X3.4024 Y12.3049 F60.00
G01 X3.4113 Y12.2854 F60.00
G01 X3.4837 Y12.1329 F60.00
G01 X3.4936 Y12.1139 F60.00
G01 X3.5039 Y12.0951 F60.00
G01 X3.5147 Y12.0766 F60.00
G01 X3.5904 Y11.9502 F60.00
G01 X3.6017 Y11.9320 F60.00
G01 X3.6134 Y11.9140 F60.00
G01 X3.6255 Y11.8963 F60.00
G01 X3.6381 Y11.8789 F60.00
G01 X3.7258 Y11.7606 F60.00
G01 X3.7388 Y11.7436 F60.00
G01 X3.7522 Y11.7268 F60.00
G01 X3.7660 Y11.7104 F60.00
G01 X3.7802 Y11.6943 F60.00
G01 X3.8937 Y11.5695 F60.00
G01 X3.9087 Y11.5541 F60.00
G01 X3.9241 Y11.5391 F60.00
G01 X3.9398 Y11.5245 F60.00
G01 X4.0489 Y11.4256 F60.00
G01 X4.0650 Y11.4114 F60.00
G01 X4.0814 Y11.3976 F60.00
G01 X4.0982 Y11.3842 F60.00
G01 X4.1152 Y11.3712 F60.00
G01 X4.2335 Y11.2835 F60.00
G01 X4.2509 Y11.2709 F60.00
G01 X4.2686 Y11.2588 F60.00
G01 X4.2866 Y11.2471 F60.00
G01 X4.3048 Y11.2358 F60.00
G01 X4.4312 Y11.1601 F60.00
G01 X4.4497 Y11.1493 F60.00
G01 X4.4685 Y11.1390 F60.00
G01 X4.4875 Y11.1291 F60.00
G01 X4.5068 Y11.1197 F60.00
G01 X4.6400 Y11.0567 F60.00
G01 X4.6595 Y11.0478 F60.00
G01 X4.6792 Y11.0393 F60.00
G01 X4.6991 Y11.0313 F60.00
G01 X4.7192 Y11.0239 F60.00
G01 X4.8579 Y10.9743 F60.00
G01 X4.8782 Y10.9673 F60.00
G01 X4.8986 Y10.9608 F60.00
G01 X4.9192 Y10.9548 F60.00
G01 X4.9400 Y10.9494 F60.00
G01 X5.1037 Y10.9086 F60.00
G01 X5.1247 Y10.9042 F60.00
G01 X5.1458 Y10.9002 F60.00
G01 X5.1670 Y10.8968 F60.00
G01 X5.3126 Y10.8752 F60.00
G01 X5.3339 Y10.8723 F60.00
G01 X5.3552 Y10.8700 F60.00
G01 X5.3766 Y10.8681 F60.00
G01 X5.3980 Y10.8668 F60.00
G01 X5.5451 Y10.8596 F60.00
G01 X5.5665 Y10.8588 F60.00
G01 X5.5880 Y10.8585 F60.00
G01 X11.5062 Y10.8585 F60.00
G01 X11.5277 Y10.8588 F60.00
G01 X11.5491 Y10.8596 F60.00
G01 X11.6962 Y10.8668 F60.00
G01 X11.7176 Y10.8681 F60.00
G01 X11.7390 Y10.8700 F60.00
G01 X11.7603 Y10.8723 F60.00
G01 X11.7816 Y10.8752 F60.00
G01 X11.9272 Y10.8968 F60.00
G01 X11.9484 Y10.9002 F60.00
G01 X11.9695 Y10.9042 F60.00
G01 X11.9905 Y10.9086 F60.00
G01 X12.0114 Y10.9136 F60.00
G01 X12.1542 Y10.9494 F60.00
G01 X12.1750 Y10.9548 F60.00
G01 X12.1956 Y10.9608 F60.00
G01 X12.2160 Y10.9673 F60.00
G01 X12.2363 Y10.9743 F60.00
G01 X12.3750 Y11.0239 F60.00
G01 X12.3951 Y11.0313 F60.00
G01 X12.4150 Y11.0393 F60.00
G01 X12.4347 Y11.0478 F60.00
G01 X12.4542 Y11.0567 F60.00
G01 X12.6067 Y11.1291 F60.00
G01 X12.6257 Y11.1390 F60.00
G01 X12.6445 Y11.1493 F60.00
G01 X12.6630 Y11.1601 F60.00
G01 X12.7894 Y11.2358 F60.00
G01 X12.8076 Y11.2471 F60.00
G01 X12.8256 Y11.2588 F60.00
G01 X12.8433 Y11.2709 F60.00
G01 X12.8607 Y11.2835 F60.00
G01 X12.9790 Y11.3712 F60.00
G01 X12.9960 Y11.3842 F60.00
G01 X13.0128 Y11.3976 F60.00
G01 X13.0292 Y11.4114 F60.00
G01 X13.0453 Y11.4256 F60.00
G01 X13.1544 Y11.5245 F60.00
G01 X13.1701 Y11.5391 F60.00
G01 X13.1855 Y11.5541 F60.00
G01 X13.2005 Y11.5695 F60.00
G01 X13.2151 Y11.5852 F60.00
G01 X13.3140 Y11.6943 F60.00
G01 X13.3282 Y11.7104 F60.00
G01 X13.3420 Y11.7268 F60.00
G01 X13.3554 Y11.7436 F60.00
G01 X13.4561 Y11.8789 F60.00
G01 X13.4725 Y11.9019 F60.00
G01 X13.6012 Y11.9082 F60.00
G01 X13.6226 Y11.9095 F60.00
G01 X13.6440 Y11.9114 F60.00
G01 X13.6653 Y11.9137 F60.00
G01 X13.6866 Y11.9166 F60.00
G01 X13.8322 Y11.9382 F60.00
G01 X13.8534 Y11.9416 F60.00
G01 X13.8745 Y11.9456 F60.00
G01 X13.8955 Y11.9500 F60.00
G01 X14.0592 Y11.9908 F60.00
G01 X14.0800 Y11.9962 F60.00
G01 X14.1006 Y12.0022 F60.00
G01 X14.1210 Y12.0087 F60.00
G01 X14.2800 Y12.0653 F60.00
G01 X14.3001 Y12.0727 F60.00
G01 X14.3200 Y12.0807 F60.00
G01 X14.3397 Y12.0892 F60.00
G01 X14.3592 Y12.0981 F60.00
G01 X14.5117 Y12.1705 F60.00
G01 X14.5307 Y12.1804 F60.00
G01 X14.5495 Y12.1907 F60.00
G01 X14.5680 Y12.2015 F60.00
G01 X14.6944 Y12.2772 F60.00
G01 X14.7126 Y12.2885 F60.00
G01 X14.7306 Y12.3002 F60.00
G01 X14.7483 Y12.3123 F60.00
G01 X14.7657 Y12.3249 F60.00
G01 X14.8840 Y12.4126 F60.00
G01 X14.9010 Y12.4256 F60.00
G01 X14.9178 Y12.4390 F60.00
G01 X14.9342 Y12.4528 F60.00
G01 X14.9503 Y12.4670 F60.00
G01 X15.0594 Y12.5659 F60.00
G01 X15.0751 Y12.5805 F60.00
G01 X15.0905 Y12.5955 F60.00
G01 X15.1055 Y12.6109 F60.00
G01 X15.1201 Y12.6266 F60.00
G01 X15.2190 Y12.7357 F60.00
G01 X15.2332 Y12.7518 F60.00
G01 X15.2470 Y12.7682 F60.00
G01 X15.2604 Y12.7850 F60.00
G01 X15.2734 Y12.8020 F60.00
G01 X15.3611 Y12.9203 F60.00
G01 X15.3737 Y12.9377 F60.00
G01 X15.3858 Y12.9554 F60.00
G01 X15.3975 Y12.9734 F60.00
G01 X15.4088 Y12.9916 F60.00
G01 X15.4845 Y13.1180 F60.00
G01 X15.4953 Y13.1365 F60.00
G01 X15.5056 Y13.1553 F60.00
G01 X15.5155 Y13.1743 F60.00
G01 X15.5249 Y13.1936 F60.00
G01 X15.5879 Y13.3268 F60.00
G01 X15.5968 Y13.3463 F60.00
G01 X15.6053 Y13.3660 F60.00
G01 X15.6133 Y13.3859 F60.00
G01 X15.6207 Y13.4060 F60.00
G01 X15.6773 Y13.5650 F60.00
G01 X15.6838 Y13.5854 F60.00
G01 X15.6898 Y13.6060 F60.00
G01 X15.6952 Y13.6268 F60.00
G01 X15.7310 Y13.7696 F60.00
G01 X15.7360 Y13.7905 F60.00
G01 X15.7404 Y13.8115 F60.00
G01 X15.7444 Y13.8326 F60.00
G01 X15.7478 Y13.8538 F60.00
G01 X15.7694 Y13.9994 F60.00
G01 X15.7723 Y14.0207 F60.00
G01 X15.7746 Y14.0420 F60.00
G01 X15.7765 Y14.0634 F60.00
G01 X15.7850 Y14.2319 F60.00
G01 X15.7858 Y14.2533 F60.00
G01 X15.7861 Y14.2748 F60.00
G01 X15.7858 Y14.2963 F60.00
G01 X15.7778 Y14.4648 F60.00
G01 X15.7765 Y14.4862 F60.00
G01 X15.7746 Y14.5076 F60.00
G01 X15.7723 Y14.5289 F60.00
G01 X15.7694 Y14.5502 F60.00
G01 X15.7478 Y14.6958 F60.00
G01 X15.7444 Y14.7170 F60.00
G01 X15.7404 Y14.7381 F60.00
G01 X15.7360 Y14.7591 F60.00
G01 X15.7310 Y14.7800 F60.00
G01 X15.6952 Y14.9228 F60.00
G01 X15.6898 Y14.9436 F60.00
G01 X15.6838 Y14.9642 F60.00
G01 X15.6773 Y14.9846 F60.00
G01 X15.6703 Y15.0049 F60.00
G01 X15.6133 Y15.1637 F60.00
G01 X15.6053 Y15.1836 F60.00
G01 X15.5968 Y15.2033 F60.00
G01 X15.5879 Y15.2228 F60.00
G01 X15.5155 Y15.3753 F60.00
G01 X15.5056 Y15.3943 F60.00
G01 X15.4953 Y15.4131 F60.00
G01 X15.4845 Y15.4316 F60.00
G01 X15.4088 Y15.5580 F60.00
G01 X15.3975 Y15.5762 F60.00
G01 X15.3858 Y15.5942 F60.00
G01 X15.3737 Y15.6119 F60.00
G01 X15.3611 Y15.6293 F60.00
G01 X15.2604 Y15.7646 F60.00
G01 X15.2470 Y15.7814 F60.00
G01 X15.2332 Y15.7978 F60.00
G01 X15.2192 Y15.8136 F60.00
G01 X24.5963 Y15.8136 F60.00
G01 X24.4163 Y15.6337 F60.00
G01 X21.5392 Y15.6337 F60.00
G01 X21.5177 Y15.6334 F60.00
G01 X21.4963 Y15.6326 F60.00
G01 X21.3492 Y15.6254 F60.00
G01 X21.3278 Y15.6241 F60.00
G01 X21.3064 Y15.6222 F60.00
G01 X21.2851 Y15.6199 F60.00
G01 X21.2638 Y15.6170 F60.00
G01 X21.1182 Y15.5954 F60.00
G01 X21.0970 Y15.5920 F60.00
G01 X21.0759 Y15.5880 F60.00
G01 X21.0549 Y15.5836 F60.00
G01 X21.0340 Y15.5786 F60.00
G01 X20.8912 Y15.5428 F60.00
G01 X20.8704 Y15.5374 F60.00
G01 X20.8498 Y15.5314 F60.00
G01 X20.8294 Y15.5249 F60.00
G01 X20.8091 Y15.5179 F60.00
G01 X20.6704 Y15.4683 F60.00
G01 X20.6503 Y15.4609 F60.00
G01 X20.6304 Y15.4529 F60.00
G01 X20.6107 Y15.4444 F60.00
G01 X20.5912 Y15.4355 F60.00
G01 X20.4580 Y15.3725 F60.00
G01 X20.4387 Y15.3631 F60.00
G01 X20.4197 Y15.3532 F60.00
G01 X20.4009 Y15.3429 F60.00
G01 X20.3824 Y15.3321 F60.00
G01 X20.2560 Y15.2564 F60.00
G01 X20.2378 Y15.2451 F60.00
G01 X20.2198 Y15.2334 F60.00
G01 X20.2021 Y15.2213 F60.00
G01 X20.1847 Y15.2087 F60.00
G01 X20.0664 Y15.1210 F60.00
G01 X20.0494 Y15.1080 F60.00
G01 X20.0326 Y15.0946 F60.00
G01 X20.0162 Y15.0808 F60.00
G01 X20.0001 Y15.0666 F60.00
G01 X19.8910 Y14.9677 F60.00
G01 X19.8753 Y14.9531 F60.00
G01 X19.8599 Y14.9381 F60.00
G01 X19.8449 Y14.9227 F60.00
G01 X19.8303 Y14.9070 F60.00
G01 X19.7314 Y14.7979 F60.00
G01 X19.7172 Y14.7818 F60.00
G01 X19.7034 Y14.7654 F60.00
G01 X19.6900 Y14.7486 F60.00
G01 X19.6770 Y14.7316 F60.00
G01 X19.5893 Y14.6133 F60.00
G01 X19.5767 Y14.5959 F60.00
G01 X19.5646 Y14.5782 F60.00
G01 X19.5529 Y14.5602 F60.00
G01 X19.5416 Y14.5420 F60.00
G01 X19.4659 Y14.4156 F60.00
G01 X19.4551 Y14.3971 F60.00
G01 X19.4448 Y14.3783 F60.00
G01 X19.4349 Y14.3593 F60.00
G01 X19.4255 Y14.3400 F60.00
G01 X19.3625 Y14.2068 F60.00
G01 X19.3536 Y14.1873 F60.00
G01 X19.3451 Y14.1676 F60.00
G01 X19.3371 Y14.1477 F60.00
G01 X19.3297 Y14.1276 F60.00
G01 X19.2801 Y13.9889 F60.00
G01 X19.2731 Y13.9686 F60.00
G01 X19.2666 Y13.9482 F60.00
G01 X19.2606 Y13.9276 F60.00
G01 X19.2552 Y13.9068 F60.00
G01 X19.2194 Y13.7640 F60.00
G01 X19.2144 Y13.7431 F60.00
G01 X19.2100 Y13.7221 F60.00
G01 X19.2060 Y13.7010 F60.00
G01 X19.2026 Y13.6798 F60.00
G01 X19.1810 Y13.5342 F60.00
G01 X19.1781 Y13.5129 F60.00
G01 X19.1758 Y13.4916 F60.00
G01 X19.1739 Y13.4702 F60.00
G01 X19.1726 Y13.4488 F60.00
G01 X19.1654 Y13.3017 F60.00
G01 X19.1646 Y13.2803 F60.00
G01 X19.1643 Y13.2588 F60.00
G01 X19.1646 Y13.2373 F60.00
G01 X19.1654 Y13.2159 F60.00
G01 X19.1726 Y13.0688 F60.00
G01 X19.1739 Y13.0474 F60.00
G01 X19.1758 Y13.0260 F60.00
G01 X19.1781 Y13.0047 F60.00
G01 X19.1810 Y12.9834 F60.00
G01 X19.2026 Y12.8378 F60.00
G01 X19.2060 Y12.8166 F60.00
G01 X19.2100 Y12.7955 F60.00
G01 X19.2144 Y12.7745 F60.00
G01 X19.2194 Y12.7536 F60.00
G01 X19.2552 Y12.6108 F60.00
G01 X19.2606 Y12.5900 F60.00
G01 X19.2666 Y12.5694 F60.00
G01 X19.2731 Y12.5490 F60.00
G01 X19.2801 Y12.5287 F60.00
G01 X19.3297 Y12.3900 F60.00
G01 X19.3371 Y12.3699 F60.00
G01 X19.3451 Y12.3500 F60.00
G01 X19.3536 Y12.3303 F60.00
G01 X19.3625 Y12.3108 F60.00
G01 X19.4255 Y12.1776 F60.00
G01 X19.4349 Y12.1583 F60.00
G01 X19.4448 Y12.1393 F60.00
G01 X19.4551 Y12.1205 F60.00
G01 X19.4659 Y12.1020 F60.00
G01 X19.5416 Y11.9756 F60.00
G01 X19.5529 Y11.9574 F60.00
G01 X19.5646 Y11.9394 F60.00
G01 X19.5767 Y11.9217 F60.00
G01 X19.5893 Y11.9043 F60.00
G01 X19.6770 Y11.7860 F60.00
G01 X19.6900 Y11.7690 F60.00
G01 X19.7034 Y11.7522 F60.00
G01 X19.7172 Y11.7358 F60.00
G01 X19.7314 Y11.7197 F60.00
G01 X19.8303 Y11.6106 F60.00
G01 X19.8449 Y11.5949 F60.00
G01 X19.8599 Y11.5795 F60.00
G01 X19.8753 Y11.5645 F60.00
G01 X19.8910 Y11.5499 F60.00
G01 X20.0001 Y11.4510 F60.00
G01 X20.0162 Y11.4368 F60.00
G01 X20.0326 Y11.4230 F60.00
G01 X20.0494 Y11.4096 F60.00
G01 X20.0664 Y11.3966 F60.00
G01 X20.1847 Y11.3089 F60.00
G01 X20.2021 Y11.2963 F60.00
G01 X20.2198 Y11.2842 F60.00
G01 X20.2378 Y11.2725 F60.00
G01 X20.2560 Y11.2612 F60.00
G01 X20.3824 Y11.1855 F60.00
G01 X20.4009 Y11.1747 F60.00
G01 X20.4197 Y11.1644 F60.00
G01 X20.4387 Y11.1545 F60.00
G01 X20.5912 Y11.0821 F60.00
G01 X20.6107 Y11.0732 F60.00
G01 X20.6304 Y11.0647 F60.00
G01 X20.6503 Y11.0567 F60.00
G01 X20.6704 Y11.0493 F60.00
G01 X20.8091 Y10.9997 F60.00
G01 X20.8294 Y10.9927 F60.00
G01 X20.8498 Y10.9862 F60.00
G01 X20.8704 Y10.9802 F60.00
G01 X20.8912 Y10.9748 F60.00
G01 X21.0549 Y10.9340 F60.00
G01 X21.0759 Y10.9296 F60.00
G01 X21.0970 Y10.9256 F60.00
G01 X21.1182 Y10.9222 F60.00
G01 X21.2638 Y10.9006 F60.00
G01 X21.2851 Y10.8977 F60.00
G01 X21.3064 Y10.8954 F60.00
G01 X21.3278 Y10.8935 F60.00
G01 X21.3492 Y10.8922 F60.00
G01 X21.4963 Y10.8850 F60.00
G01 X21.5177 Y10.8842 F60.00
G01 X21.5392 Y10.8839 F60.00
G01 X25.4000 Y10.8839 F60.00
G01 X25.4215 Y10.8842 F60.00
G01 X25.4429 Y10.8850 F60.00
G01 X25.6114 Y10.8935 F60.00
G01 X25.6328 Y10.8954 F60.00
G01 X25.6541 Y10.8977 F60.00
G01 X25.6754 Y10.9006 F60.00
G01 X25.8210 Y10.9222 F60.00
G01 X25.8422 Y10.9256 F60.00
G01 X25.8633 Y10.9296 F60.00
G01 X25.8843 Y10.9340 F60.00
G01 X25.9052 Y10.9390 F60.00
G01 X26.0480 Y10.9748 F60.00
G01 X26.0688 Y10.9802 F60.00
G01 X26.0894 Y10.9862 F60.00
G01 X26.1098 Y10.9927 F60.00
G01 X26.2688 Y11.0493 F60.00
G01 X26.2889 Y11.0567 F60.00
G01 X26.3088 Y11.0647 F60.00
G01 X26.3285 Y11.0732 F60.00
G01 X26.3480 Y11.0821 F60.00
G01 X26.5005 Y11.1545 F60.00
G01 X26.5195 Y11.1644 F60.00
G01 X26.5383 Y11.1747 F60.00
G01 X26.5568 Y11.1855 F60.00
G01 X26.6832 Y11.2612 F60.00
G01 X26.7014 Y11.2725 F60.00
G01 X26.7194 Y11.2842 F60.00
G01 X26.7371 Y11.2963 F60.00
G01 X26.7545 Y11.3089 F60.00
G01 X26.8728 Y11.3966 F60.00
G01 X26.8898 Y11.4096 F60.00
G01 X26.9066 Y11.4230 F60.00
G01 X26.9230 Y11.4368 F60.00
G01 X26.9391 Y11.4510 F60.00
G01 X27.0639 Y11.5645 F60.00
G01 X27.0793 Y11.5795 F60.00
G01 X27.3997 Y11.8999 F60.00
G01 X29.0068 Y11.8999 F60.00
G01 X29.0283 Y11.9002 F60.00
G01 X29.0497 Y11.9010 F60.00
G01 X29.1968 Y11.9082 F60.00
G01 X29.2182 Y11.9095 F60.00
G01 X29.2396 Y11.9114 F60.00
G01 X29.2609 Y11.9137 F60.00
G01 X29.2822 Y11.9166 F60.00
G01 X29.4278 Y11.9382 F60.00
G01 X29.4490 Y11.9416 F60.00
G01 X29.4701 Y11.9456 F60.00
G01 X29.4911 Y11.9500 F60.00
G01 X29.5120 Y11.9550 F60.00
G01 X29.6756 Y11.9962 F60.00
G01 X29.6962 Y12.0022 F60.00
G01 X29.7166 Y12.0087 F60.00
G01 X29.7369 Y12.0157 F60.00
G01 X29.8957 Y12.0727 F60.00
G01 X29.9156 Y12.0807 F60.00
G01 X29.9353 Y12.0892 F60.00
G01 X30.0465 Y12.1415 F60.00
G01 X30.0559 Y12.1159 F60.00
G01 X30.0639 Y12.0960 F60.00
G01 X30.0724 Y12.0763 F60.00
G01 X30.0813 Y12.0568 F60.00
G01 X30.1537 Y11.9043 F60.00
G01 X30.1636 Y11.8853 F60.00
G01 X30.1739 Y11.8665 F60.00
G01 X30.1847 Y11.8480 F60.00
G01 X30.2717 Y11.7034 F60.00
G01 X30.2834 Y11.6854 F60.00
G01 X30.2955 Y11.6677 F60.00
G01 X30.3081 Y11.6503 F60.00
G01 X30.4088 Y11.5150 F60.00
G01 X30.4222 Y11.4982 F60.00
G01 X30.4360 Y11.4818 F60.00
G01 X30.4502 Y11.4657 F60.00
G01 X30.5491 Y11.3566 F60.00
G01 X30.5637 Y11.3409 F60.00
G01 X30.5787 Y11.3255 F60.00
G01 X33.4997 Y8.4045 F60.00
G01 X33.5151 Y8.3895 F60.00
G01 X33.6399 Y8.2760 F60.00
G01 X33.6560 Y8.2618 F60.00
G01 X33.6724 Y8.2480 F60.00
G01 X33.6892 Y8.2346 F60.00
G01 X33.7062 Y8.2216 F60.00
G01 X33.8245 Y8.1339 F60.00
G01 X33.8419 Y8.1213 F60.00
G01 X33.8596 Y8.1092 F60.00
G01 X33.8776 Y8.0975 F60.00
G01 X33.8958 Y8.0862 F60.00
G01 X34.0407 Y7.9997 F60.00
G01 X34.0595 Y7.9894 F60.00
G01 X34.0785 Y7.9795 F60.00
G01 X34.0978 Y7.9701 F60.00
G01 X34.2310 Y7.9071 F60.00
G01 X34.2505 Y7.8982 F60.00
G01 X34.2702 Y7.8897 F60.00
G01 X34.2901 Y7.8817 F60.00
G01 X34.4489 Y7.8247 F60.00
G01 X34.4692 Y7.8177 F60.00
G01 X34.4896 Y7.8112 F60.00
G01 X34.5102 Y7.8052 F60.00
G01 X34.5993 Y7.7826 F60.00
G01 X33.9637 Y7.1470 F60.00
G01 X33.9386 Y7.1230 F60.00
G01 X31.5281 Y4.7117 F60.00
G01 X27.3997 Y4.7117 F60.00
G01 X27.0539 Y5.0575 F60.00
G01 X27.0385 Y5.0725 F60.00
G01 X26.9137 Y5.1860 F60.00
G01 X26.8976 Y5.2002 F60.00
G01 X26.8812 Y5.2140 F60.00
G01 X26.8644 Y5.2274 F60.00
G01 X26.8474 Y5.2404 F60.00
G01 X26.7291 Y5.3281 F60.00
G01 X26.7117 Y5.3407 F60.00
G01 X26.6940 Y5.3528 F60.00
G01 X26.6760 Y5.3645 F60.00
G01 X26.6578 Y5.3758 F60.00
G01 X26.5129 Y5.4623 F60.00
G01 X26.4941 Y5.4726 F60.00
G01 X26.4751 Y5.4825 F60.00
G01 X26.4558 Y5.4919 F60.00
G01 X26.3226 Y5.5549 F60.00
G01 X26.3031 Y5.5638 F60.00
G01 X26.2834 Y5.5723 F60.00
G01 X26.2635 Y5.5803 F60.00
G01 X26.2434 Y5.5877 F60.00
G01 X26.1047 Y5.6373 F60.00
G01 X26.0844 Y5.6443 F60.00
G01 X26.0640 Y5.6508 F60.00
G01 X26.0434 Y5.6568 F60.00
G01 X26.0226 Y5.6622 F60.00
G01 X25.8798 Y5.6980 F60.00
G01 X25.8589 Y5.7030 F60.00
G01 X25.8379 Y5.7074 F60.00
G01 X25.8168 Y5.7114 F60.00
G01 X25.7956 Y5.7148 F60.00
G01 X25.6500 Y5.7364 F60.00
G01 X25.6287 Y5.7393 F60.00
G01 X25.6074 Y5.7416 F60.00
G01 X25.5860 Y5.7435 F60.00
G01 X25.4175 Y5.7520 F60.00
G01 X25.3961 Y5.7528 F60.00
G01 X25.3746 Y5.7531 F60.00
G01 X21.5392 Y5.7531 F60.00
G01 X21.5177 Y5.7528 F60.00
G01 X21.4963 Y5.7520 F60.00
G01 X21.3492 Y5.7448 F60.00
G01 X21.3278 Y5.7435 F60.00
G01 X21.3064 Y5.7416 F60.00
G01 X21.2851 Y5.7393 F60.00
G01 X21.1182 Y5.7148 F60.00
G01 X21.0970 Y5.7114 F60.00
G01 X21.0759 Y5.7074 F60.00
G01 X21.0549 Y5.7030 F60.00
G01 X21.0340 Y5.6980 F60.00
G01 X20.8912 Y5.6622 F60.00
G01 X20.8704 Y5.6568 F60.00
G01 X20.8498 Y5.6508 F60.00
G01 X20.8294 Y5.6443 F60.00
G01 X20.8091 Y5.6373 F60.00
G01 X20.6704 Y5.5877 F60.00
G01 X20.6503 Y5.5803 F60.00
G01 X20.6304 Y5.5723 F60.00
G01 X20.6107 Y5.5638 F60.00
G01 X20.4580 Y5.4919 F60.00
G01 X20.4387 Y5.4825 F60.00
G01 X20.4197 Y5.4726 F60.00
G01 X20.4009 Y5.4623 F60.00
G01 X20.3824 Y5.4515 F60.00
G01 X20.2560 Y5.3758 F60.00
G01 X20.2378 Y5.3645 F60.00
G01 X20.2198 Y5.3528 F60.00
G01 X20.2021 Y5.3407 F60.00
G01 X20.0664 Y5.2404 F60.00
G01 X20.0494 Y5.2274 F60.00
G01 X20.0326 Y5.2140 F60.00
G01 X20.0162 Y5.2002 F60.00
G01 X20.0001 Y5.1860 F60.00
G01 X19.8910 Y5.0871 F60.00
G01 X19.8753 Y5.0725 F60.00
G01 X19.8599 Y5.0575 F60.00
G01 X19.8449 Y5.0421 F60.00
G01 X19.8303 Y5.0264 F60.00
G01 X19.7314 Y4.9173 F60.00
G01 X19.7172 Y4.9012 F60.00
G01 X19.7034 Y4.8848 F60.00
G01 X19.6900 Y4.8680 F60.00
G01 X19.6770 Y4.8510 F60.00
G01 X19.5893 Y4.7327 F60.00
G01 X19.5767 Y4.7153 F60.00
G01 X19.5646 Y4.6976 F60.00
G01 X19.5529 Y4.6796 F60.00
G01 X19.5416 Y4.6614 F60.00
G01 X19.4659 Y4.5350 F60.00
G01 X19.4551 Y4.5165 F60.00
G01 X19.4448 Y4.4977 F60.00
G01 X19.4349 Y4.4787 F60.00
G01 X19.4255 Y4.4594 F60.00
G01 X19.3536 Y4.3067 F60.00
G01 X19.3451 Y4.2870 F60.00
G01 X19.3371 Y4.2671 F60.00
G01 X19.3297 Y4.2470 F60.00
G01 X19.2801 Y4.1083 F60.00
G01 X19.2731 Y4.0880 F60.00
G01 X19.2666 Y4.0676 F60.00
G01 X19.2606 Y4.0470 F60.00
G01 X19.2194 Y3.8834 F60.00
G01 X19.2144 Y3.8625 F60.00
G01 X19.2100 Y3.8415 F60.00
G01 X19.2060 Y3.8204 F60.00
G01 X19.2026 Y3.7992 F60.00
G01 X19.1781 Y3.6323 F60.00
G01 X19.1758 Y3.6110 F60.00
G01 X19.1739 Y3.5896 F60.00
G01 X19.1726 Y3.5682 F60.00
G01 X19.1654 Y3.4211 F60.00
G01 X19.1646 Y3.3997 F60.00
G01 X19.1643 Y3.3782 F60.00
G01 X19.1646 Y3.3567 F60.00
G01 X19.1654 Y3.3353 F60.00
G01 X19.1726 Y3.1882 F60.00
G01 X19.1739 Y3.1668 F60.00
G01 X19.1758 Y3.1454 F60.00
G01 X19.1781 Y3.1241 F60.00
G01 X19.1810 Y3.1028 F60.00
G01 X19.2026 Y2.9572 F60.00
G01 X19.2060 Y2.9360 F60.00
G01 X19.2100 Y2.9149 F60.00
G01 X19.2144 Y2.8939 F60.00
G01 X19.2194 Y2.8730 F60.00
G01 X19.2552 Y2.7302 F60.00
G01 X19.2606 Y2.7094 F60.00
G01 X19.2666 Y2.6888 F60.00
G01 X19.2731 Y2.6684 F60.00
G01 X19.2801 Y2.6481 F60.00
G01 X19.3297 Y2.5094 F60.00
G01 X19.3371 Y2.4893 F60.00
G01 X19.3451 Y2.4694 F60.00
G01 X19.3536 Y2.4497 F60.00
G01 X19.3625 Y2.4302 F60.00
G01 X19.4255 Y2.2970 F60.00
G01 X19.4349 Y2.2777 F60.00
G01 X19.4448 Y2.2587 F60.00
G01 X19.4551 Y2.2399 F60.00
G01 X19.4659 Y2.2214 F60.00
G01 X19.5416 Y2.0950 F60.00
G01 X19.5529 Y2.0768 F60.00
G01 X19.5646 Y2.0588 F60.00
G01 X19.5767 Y2.0411 F60.00
G01 X19.5893 Y2.0237 F60.00
G01 X19.6770 Y1.9054 F60.00
G01 X19.6900 Y1.8884 F60.00
G01 X19.7034 Y1.8716 F60.00
G01 X19.7172 Y1.8552 F60.00
G01 X19.7314 Y1.8391 F60.00
G01 X19.8303 Y1.7300 F60.00
G01 X19.8449 Y1.7143 F60.00
G01 X19.8599 Y1.6989 F60.00
G01 X19.8753 Y1.6839 F60.00
G01 X19.8910 Y1.6693 F60.00
G01 X20.0001 Y1.5704 F60.00
G01 X20.0162 Y1.5562 F60.00
G01 X20.0326 Y1.5424 F60.00
G01 X20.0494 Y1.5290 F60.00
G01 X20.0664 Y1.5160 F60.00
G01 X20.1847 Y1.4283 F60.00
G01 X20.2021 Y1.4157 F60.00
G01 X20.2198 Y1.4036 F60.00
G01 X20.2378 Y1.3919 F60.00
G01 X20.2560 Y1.3806 F60.00
G01 X20.3824 Y1.3049 F60.00
G01 X20.4009 Y1.2941 F60.00
G01 X20.4197 Y1.2838 F60.00
G01 X20.4387 Y1.2739 F60.00
G01 X20.4580 Y1.2645 F60.00
G01 X20.5912 Y1.2015 F60.00
G01 X20.6107 Y1.1926 F60.00
G01 X20.6432 Y1.1790 F60.00
G01 X15.4839 Y1.1790 F60.00
G01 X15.4953 Y1.1985 F60.00
G01 X15.5056 Y1.2173 F60.00
G01 X15.5155 Y1.2363 F60.00
G01 X15.5249 Y1.2556 F60.00
G01 X15.5879 Y1.3888 F60.00
G01 X15.5968 Y1.4083 F60.00
G01 X15.6053 Y1.4280 F60.00
G01 X15.6133 Y1.4479 F60.00
G01 X15.6207 Y1.4680 F60.00
G01 X15.6703 Y1.6067 F60.00
G01 X15.6773 Y1.6270 F60.00
G01 X15.6838 Y1.6474 F60.00
G01 X15.6898 Y1.6680 F60.00
G01 X15.6952 Y1.6888 F60.00
G01 X15.7310 Y1.8316 F60.00
G01 X15.7360 Y1.8525 F60.00
G01 X15.7404 Y1.8735 F60.00
G01 X15.7444 Y1.8946 F60.00
G01 X15.7478 Y1.9158 F60.00
G01 X15.7694 Y2.0614 F60.00
G01 X15.7723 Y2.0827 F60.00
G01 X15.7746 Y2.1040 F60.00
G01 X15.7765 Y2.1254 F60.00
G01 X15.7778 Y2.1468 F60.00
G01 X15.7850 Y2.2939 F60.00
G01 X15.7858 Y2.3153 F60.00
G01 X15.7861 Y2.3368 F60.00
G01 X15.7858 Y2.3583 F60.00
G01 X15.7850 Y2.3797 F60.00
G01 X15.7778 Y2.5268 F60.00
G01 X15.7765 Y2.5482 F60.00
G01 X15.7746 Y2.5696 F60.00
G01 X15.7723 Y2.5909 F60.00
G01 X15.7694 Y2.6122 F60.00
G01 X15.7478 Y2.7578 F60.00
G01 X15.7444 Y2.7790 F60.00
G01 X15.7404 Y2.8001 F60.00
G01 X15.7360 Y2.8211 F60.00
G01 X15.7310 Y2.8420 F60.00
G01 X15.6952 Y2.9848 F60.00
G01 X15.6898 Y3.0056 F60.00
G01 X15.6838 Y3.0262 F60.00
G01 X15.6773 Y3.0466 F60.00
G01 X15.6703 Y3.0669 F60.00
G01 X15.6207 Y3.2056 F60.00
G01 X15.6133 Y3.2257 F60.00
G01 X15.6053 Y3.2456 F60.00
G01 X15.5968 Y3.2653 F60.00
G01 X15.5879 Y3.2848 F60.00
G01 X15.5249 Y3.4180 F60.00
G01 X15.5155 Y3.4373 F60.00
G01 X15.5056 Y3.4563 F60.00
G01 X15.4953 Y3.4751 F60.00
G01 X15.4845 Y3.4936 F60.00
G01 X15.4088 Y3.6200 F60.00
G01 X15.3975 Y3.6382 F60.00
G01 X15.3858 Y3.6562 F60.00
G01 X15.3737 Y3.6739 F60.00
G01 X15.3611 Y3.6913 F60.00
G01 X15.2734 Y3.8096 F60.00
G01 X15.2604 Y3.8266 F60.00
G01 X15.2470 Y3.8434 F60.00
G01 X15.2332 Y3.8598 F60.00
G01 X15.2190 Y3.8759 F60.00
G01 X15.1201 Y3.9850 F60.00
G01 X15.1055 Y4.0007 F60.00
G01 X15.0905 Y4.0161 F60.00
G01 X14.0491 Y5.0575 F60.00
G01 X14.0337 Y5.0725 F60.00
G01 X14.0180 Y5.0871 F60.00
G01 X13.9089 Y5.1860 F60.00
G01 X13.8928 Y5.2002 F60.00
G01 X13.8764 Y5.2140 F60.00
G01 X13.8596 Y5.2274 F60.00
G01 X13.7243 Y5.3281 F60.00
G01 X13.7069 Y5.3407 F60.00
G01 X13.6892 Y5.3528 F60.00
G01 X13.6712 Y5.3645 F60.00
G01 X13.6530 Y5.3758 F60.00
G01 X13.5266 Y5.4515 F60.00
G01 X13.5081 Y5.4623 F60.00
G01 X13.4893 Y5.4726 F60.00
G01 X13.4703 Y5.4825 F60.00
G01 X13.4510 Y5.4919 F60.00
G01 X13.3178 Y5.5549 F60.00
G01 X13.2983 Y5.5638 F60.00
G01 X13.2786 Y5.5723 F60.00
G01 X13.2587 Y5.5803 F60.00
G01 X13.0999 Y5.6373 F60.00
G01 X13.0796 Y5.6443 F60.00
G01 X13.0592 Y5.6508 F60.00
G01 X13.0386 Y5.6568 F60.00
G01 X13.0178 Y5.6622 F60.00
G01 X12.8750 Y5.6980 F60.00
G01 X12.8541 Y5.7030 F60.00
G01 X12.8331 Y5.7074 F60.00
G01 X12.8120 Y5.7114 F60.00
G01 X12.6452 Y5.7364 F60.00
G01 X12.6239 Y5.7393 F60.00
G01 X12.6026 Y5.7416 F60.00
G01 X12.5812 Y5.7435 F60.00
G01 X12.5598 Y5.7448 F60.00
G01 X12.3913 Y5.7528 F60.00
G01 X12.3698 Y5.7531 F60.00
G01 X12.3483 Y5.7528 F60.00
G01 X12.3269 Y5.7520 F60.00
G01 X12.1584 Y5.7435 F60.00
G01 X12.1370 Y5.7416 F60.00
G01 X12.1157 Y5.7393 F60.00
G01 X12.0944 Y5.7364 F60.00
G01 X11.9634 Y5.7169 F60.00
G01 X11.8324 Y5.7364 F60.00
G01 X11.8111 Y5.7393 F60.00
G01 X11.7898 Y5.7416 F60.00
G01 X11.7684 Y5.7435 F60.00
G01 X11.7470 Y5.7448 F60.00
G01 X11.5999 Y5.7520 F60.00
G01 X11.5785 Y5.7528 F60.00
G01 X11.5570 Y5.7531 F60.00
G01 X8.6360 Y5.7531 F60.00
G01 X8.6145 Y5.7528 F60.00
G01 X8.5931 Y5.7520 F60.00
G01 X8.4460 Y5.7448 F60.00
G01 X8.4246 Y5.7435 F60.00
G01 X8.4032 Y5.7416 F60.00
G01 X8.3819 Y5.7393 F60.00
G01 X8.3606 Y5.7364 F60.00
G01 X8.1938 Y5.7114 F60.00
G01 X8.1727 Y5.7074 F60.00
G01 X8.1517 Y5.7030 F60.00
G01 X8.1308 Y5.6980 F60.00
G01 X7.9672 Y5.6568 F60.00
G01 X7.9466 Y5.6508 F60.00
G01 X7.9262 Y5.6443 F60.00
G01 X7.8034 Y5.6007 F60.00
G00 Z3.0000
G00 X11.6973 Y1.7776
G01 F60.00
G01 Z-0.0980
G01 F60.00
G01 X12.2746 Y1.2002 F60.00
G01 X12.3895 Y1.0960 F60.00
G01 X12.3956 Y1.0911 F60.00
G01 X12.5139 Y1.0034 F60.00
G01 X12.5226 Y0.9975 F60.00
G01 X12.6535 Y0.9192 F60.00
G01 X12.7937 Y0.8528 F60.00
G01 X12.8010 Y0.8499 F60.00
G01 X12.9446 Y0.7987 F60.00
G01 X13.0925 Y0.7615 F60.00
G01 X13.1028 Y0.7594 F60.00
G01 X13.2485 Y0.7378 F60.00
G01 X13.2589 Y0.7368 F60.00
G01 X13.4112 Y0.7295 F60.00
G01 X13.5687 Y0.7372 F60.00
G01 X13.7248 Y0.7603 F60.00
G01 X13.8778 Y0.7987 F60.00
G01 X14.0263 Y0.8518 F60.00
G01 X14.1689 Y0.9192 F60.00
G01 X14.3042 Y1.0003 F60.00
G01 X14.4309 Y1.0943 F60.00
G01 X14.5478 Y1.2002 F60.00
G01 X14.6537 Y1.3171 F60.00
G01 X14.7477 Y1.4438 F60.00
G01 X14.8288 Y1.5791 F60.00
G01 X14.8962 Y1.7217 F60.00
G01 X14.9493 Y1.8702 F60.00
G01 X14.9877 Y2.0232 F60.00
G01 X15.0108 Y2.1793 F60.00
G01 X15.0185 Y2.3368 F60.00
G01 X15.0108 Y2.4943 F60.00
G01 X14.9877 Y2.6504 F60.00
G01 X14.9493 Y2.8034 F60.00
G01 X14.8962 Y2.9519 F60.00
G01 X14.8288 Y3.0945 F60.00
G01 X14.7477 Y3.2298 F60.00
G01 X14.6569 Y3.3524 F60.00
G01 X14.6520 Y3.3585 F60.00
G01 X14.5478 Y3.4734 F60.00
G01 X13.5064 Y4.5148 F60.00
G01 X13.3935 Y4.6173 F60.00
G01 X13.3854 Y4.6239 F60.00
G01 X13.2671 Y4.7116 F60.00
G01 X13.2584 Y4.7175 F60.00
G01 X13.1275 Y4.7958 F60.00
G01 X12.9849 Y4.8632 F60.00
G01 X12.8364 Y4.9163 F60.00
G01 X12.6885 Y4.9535 F60.00
G01 X12.6782 Y4.9556 F60.00
G01 X12.5325 Y4.9772 F60.00
G01 X12.5247 Y4.9780 F60.00
G01 X12.3698 Y4.9855 F60.00
G01 X12.2149 Y4.9780 F60.00
G01 X12.2071 Y4.9772 F60.00
G01 X12.0588 Y4.9551 F60.00
G01 X12.0511 Y4.9535 F60.00
G01 X11.9634 Y4.9315 F60.00
G01 X11.8706 Y4.9547 F60.00
G01 X11.7171 Y4.9775 F60.00
G01 X11.7093 Y4.9782 F60.00
G01 X11.5596 Y4.9855 F60.00
G01 X8.6334 Y4.9855 F60.00
G01 X8.4785 Y4.9778 F60.00
G01 X8.3276 Y4.9556 F60.00
G01 X8.3199 Y4.9541 F60.00
G01 X8.1745 Y4.9177 F60.00
G01 X8.1669 Y4.9155 F60.00
G01 X8.0233 Y4.8642 F60.00
G01 X8.0161 Y4.8611 F60.00
G01 X7.9571 Y4.8331 F60.00
G01 X5.5880 Y4.8331 F60.00
G01 X5.4305 Y4.8254 F60.00
G01 X5.2770 Y4.8027 F60.00
G01 X5.2693 Y4.8011 F60.00
G01 X5.1265 Y4.7653 F60.00
G01 X5.1164 Y4.7623 F60.00
G01 X4.9729 Y4.7108 F60.00
G01 X4.8303 Y4.6434 F60.00
G01 X4.6994 Y4.5651 F60.00
G01 X4.6907 Y4.5592 F60.00
G01 X4.5683 Y4.4683 F60.00
G01 X4.4514 Y4.3624 F60.00
G01 X4.3455 Y4.2455 F60.00
G01 X4.2546 Y4.1231 F60.00
G01 X4.2487 Y4.1144 F60.00
G01 X4.1704 Y3.9835 F60.00
G01 X4.1051 Y3.8457 F60.00
G01 X4.1011 Y3.8360 F60.00
G01 X4.0499 Y3.6924 F60.00
G01 X4.0121 Y3.5419 F60.00
G01 X4.0106 Y3.5342 F60.00
G01 X3.9884 Y3.3833 F60.00
G01 X3.9807 Y3.2258 F60.00
G01 X3.9884 Y3.0683 F60.00
G01 X4.0115 Y2.9122 F60.00
G01 X4.0499 Y2.7592 F60.00
G01 X4.1030 Y2.6107 F60.00
G01 X4.1704 Y2.4681 F60.00
G01 X4.2515 Y2.3328 F60.00
G01 X4.3455 Y2.2061 F60.00
G01 X4.4514 Y2.0892 F60.00
G01 X4.5683 Y1.9833 F60.00
G01 X4.6950 Y1.8893 F60.00
G01 X4.8303 Y1.8082 F60.00
G01 X4.9729 Y1.7408 F60.00
G01 X5.1214 Y1.6877 F60.00
G01 X5.2719 Y1.6499 F60.00
G01 X5.2796 Y1.6484 F60.00
G01 X5.4305 Y1.6262 F60.00
G01 X5.5880 Y1.6185 F60.00
G01 X8.5116 Y1.6185 F60.00
G01 X8.6665 Y1.6262 F60.00
G01 X8.8174 Y1.6484 F60.00
G01 X8.8251 Y1.6499 F60.00
G01 X8.9705 Y1.6863 F60.00
G01 X8.9781 Y1.6885 F60.00
G01 X9.1217 Y1.7398 F60.00
G01 X9.1289 Y1.7429 F60.00
G01 X9.1879 Y1.7709 F60.00
G01 X11.5570 Y1.7709 F60.00
G01 X11.6973 Y1.7776 F60.00
G00 Z3.0000
G00 X11.6217 Y1.5818
G01 F60.00
G01 Z-0.0980
G01 F60.00
G01 X12.1390 Y1.0646 F60.00
G01 X12.1496 Y1.0545 F60.00
G01 X12.2587 Y0.9555 F60.00
G01 X12.2698 Y0.9460 F60.00
G01 X12.2813 Y0.9370 F60.00
G01 X12.3996 Y0.8492 F60.00
G01 X12.4116 Y0.8408 F60.00
G01 X12.4240 Y0.8330 F60.00
G01 X12.5503 Y0.7572 F60.00
G01 X12.5696 Y0.7467 F60.00
G01 X12.7093 Y0.6805 F60.00
G01 X12.7295 Y0.6718 F60.00
G01 X12.8819 Y0.6173 F60.00
G01 X12.8959 Y0.6130 F60.00
G01 X12.9342 Y0.6033 F60.00
G01 X0.5525 Y0.6033 F60.00
G01 X0.5525 Y16.3893 F60.00
G01 X28.6193 Y16.3893 F60.00
G01 X28.5119 Y16.3096 F60.00
G01 X28.5004 Y16.3006 F60.00
G01 X28.4893 Y16.2911 F60.00
G01 X28.3802 Y16.1921 F60.00
G01 X28.3696 Y16.1820 F60.00
G01 X28.3595 Y16.1714 F60.00
G01 X28.2712 Y16.0740 F60.00
G01 X26.4087 Y16.0739 F60.00
G01 X26.2543 Y16.0664 F60.00
G01 X26.2396 Y16.0654 F60.00
G01 X26.2251 Y16.0636 F60.00
G01 X26.0794 Y16.0420 F60.00
G01 X26.0650 Y16.0395 F60.00
G01 X26.0507 Y16.0362 F60.00
G01 X25.9078 Y16.0005 F60.00
G01 X25.8867 Y15.9943 F60.00
G01 X25.7411 Y15.9423 F60.00
G01 X25.7275 Y15.9371 F60.00
G01 X25.7141 Y15.9311 F60.00
G01 X25.5809 Y15.8682 F60.00
G01 X25.5679 Y15.8616 F60.00
G01 X25.5551 Y15.8544 F60.00
G01 X25.4288 Y15.7786 F60.00
G01 X25.4164 Y15.7708 F60.00
G01 X25.4044 Y15.7624 F60.00
G01 X25.2861 Y15.6746 F60.00
G01 X25.2746 Y15.6656 F60.00
G01 X25.2635 Y15.6561 F60.00
G01 X25.1544 Y15.5571 F60.00
G01 X25.1438 Y15.5470 F60.00
G01 X24.6547 Y15.0580 F60.00
G01 X21.5319 Y15.0579 F60.00
G01 X21.3775 Y15.0504 F60.00
G01 X21.3628 Y15.0494 F60.00
G01 X21.3483 Y15.0476 F60.00
G01 X21.2026 Y15.0260 F60.00
G01 X21.1882 Y15.0235 F60.00
G01 X21.1739 Y15.0202 F60.00
G01 X21.0310 Y14.9845 F60.00
G01 X21.0169 Y14.9806 F60.00
G01 X21.0030 Y14.9760 F60.00
G01 X20.8643 Y14.9263 F60.00
G01 X20.8439 Y14.9182 F60.00
G01 X20.7041 Y14.8522 F60.00
G01 X20.6911 Y14.8456 F60.00
G01 X20.6783 Y14.8384 F60.00
G01 X20.5520 Y14.7626 F60.00
G01 X20.5396 Y14.7548 F60.00
G01 X20.5276 Y14.7464 F60.00
G01 X20.4093 Y14.6586 F60.00
G01 X20.3978 Y14.6496 F60.00
G01 X20.3867 Y14.6401 F60.00
G01 X20.2776 Y14.5411 F60.00
G01 X20.2670 Y14.5310 F60.00
G01 X20.2569 Y14.5204 F60.00
G01 X20.1579 Y14.4113 F60.00
G01 X20.1484 Y14.4002 F60.00
G01 X20.1394 Y14.3887 F60.00
G01 X20.0516 Y14.2704 F60.00
G01 X20.0432 Y14.2584 F60.00
G01 X20.0354 Y14.2460 F60.00
G01 X19.9596 Y14.1197 F60.00
G01 X19.9524 Y14.1069 F60.00
G01 X19.9458 Y14.0939 F60.00
G01 X19.8829 Y13.9607 F60.00
G01 X19.8769 Y13.9473 F60.00
G01 X19.8717 Y13.9337 F60.00
G01 X19.8220 Y13.7950 F60.00
G01 X19.8174 Y13.7811 F60.00
G01 X19.8135 Y13.7670 F60.00
G01 X19.7778 Y13.6241 F60.00
G01 X19.7745 Y13.6098 F60.00
G01 X19.7720 Y13.5954 F60.00
G01 X19.7504 Y13.4497 F60.00
G01 X19.7486 Y13.4352 F60.00
G01 X19.7476 Y13.4205 F60.00
G01 X19.7403 Y13.2734 F60.00
G01 X19.7400 Y13.2588 F60.00
G01 X19.7403 Y13.2442 F60.00
G01 X19.7476 Y13.0971 F60.00
G01 X19.7486 Y13.0824 F60.00
G01 X19.7504 Y13.0679 F60.00
G01 X19.7720 Y12.9222 F60.00
G01 X19.7745 Y12.9078 F60.00
G01 X19.7778 Y12.8935 F60.00
G01 X19.8135 Y12.7506 F60.00
G01 X19.8174 Y12.7365 F60.00
G01 X19.8220 Y12.7226 F60.00
G01 X19.8717 Y12.5839 F60.00
G01 X19.8798 Y12.5635 F60.00
G01 X19.9458 Y12.4237 F60.00
G01 X19.9524 Y12.4107 F60.00
G01 X19.9596 Y12.3979 F60.00
G01 X20.0354 Y12.2716 F60.00
G01 X20.0432 Y12.2592 F60.00
G01 X20.0516 Y12.2472 F60.00
G01 X20.1394 Y12.1289 F60.00
G01 X20.1484 Y12.1174 F60.00
G01 X20.1579 Y12.1063 F60.00
G01 X20.2569 Y11.9972 F60.00
G01 X20.2670 Y11.9866 F60.00
G01 X20.2776 Y11.9765 F60.00
G01 X20.3867 Y11.8775 F60.00
G01 X20.3978 Y11.8680 F60.00
G01 X20.4093 Y11.8590 F60.00
G01 X20.5276 Y11.7712 F60.00
G01 X20.5396 Y11.7628 F60.00
G01 X20.5520 Y11.7550 F60.00
G01 X20.6783 Y11.6792 F60.00
G01 X20.6911 Y11.6720 F60.00
G01 X20.7041 Y11.6654 F60.00
G01 X20.8373 Y11.6025 F60.00
G01 X20.8507 Y11.5965 F60.00
G01 X20.8643 Y11.5913 F60.00
G01 X21.0030 Y11.5416 F60.00
G01 X21.0169 Y11.5370 F60.00
G01 X21.0310 Y11.5331 F60.00
G01 X21.1739 Y11.4974 F60.00
G01 X21.1882 Y11.4941 F60.00
G01 X21.2026 Y11.4916 F60.00
G01 X21.3483 Y11.4700 F60.00
G01 X21.3628 Y11.4682 F60.00
G01 X21.3775 Y11.4672 F60.00
G01 X21.5246 Y11.4599 F60.00
G01 X21.5392 Y11.4596 F60.00
G01 X25.4000 Y11.4596 F60.00
G01 X25.4146 Y11.4599 F60.00
G01 X25.5617 Y11.4672 F60.00
G01 X25.5764 Y11.4682 F60.00
G01 X25.5909 Y11.4700 F60.00
G01 X25.7366 Y11.4916 F60.00
G01 X25.7510 Y11.4941 F60.00
G01 X25.7653 Y11.4974 F60.00
G01 X25.9082 Y11.5331 F60.00
G01 X25.9223 Y11.5370 F60.00
G01 X25.9362 Y11.5416 F60.00
G01 X26.0749 Y11.5913 F60.00
G01 X26.0885 Y11.5965 F60.00
G01 X26.1019 Y11.6025 F60.00
G01 X26.2351 Y11.6654 F60.00
G01 X26.2481 Y11.6720 F60.00
G01 X26.2609 Y11.6792 F60.00
G01 X26.3935 Y11.7588 F60.00
G01 X26.4116 Y11.7712 F60.00
G01 X26.5299 Y11.8590 F60.00
G01 X26.5414 Y11.8680 F60.00
G01 X26.5525 Y11.8775 F60.00
G01 X26.6670 Y11.9814 F60.00
G01 X27.1613 Y12.4756 F60.00
G01 X29.0141 Y12.4757 F60.00
G01 X29.1685 Y12.4832 F60.00
G01 X29.1832 Y12.4842 F60.00
G01 X29.1977 Y12.4860 F60.00
G01 X29.3434 Y12.5076 F60.00
G01 X29.3578 Y12.5101 F60.00
G01 X29.3721 Y12.5134 F60.00
G01 X29.5150 Y12.5491 F60.00
G01 X29.5291 Y12.5530 F60.00
G01 X29.5430 Y12.5576 F60.00
G01 X29.6817 Y12.6073 F60.00
G01 X29.6953 Y12.6125 F60.00
G01 X29.7087 Y12.6185 F60.00
G01 X29.8419 Y12.6814 F60.00
G01 X29.8549 Y12.6880 F60.00
G01 X29.8677 Y12.6952 F60.00
G01 X29.9940 Y12.7710 F60.00
G01 X30.0064 Y12.7788 F60.00
G01 X30.0184 Y12.7872 F60.00
G01 X30.1367 Y12.8750 F60.00
G01 X30.1482 Y12.8840 F60.00
G01 X30.1593 Y12.8935 F60.00
G01 X30.2684 Y12.9925 F60.00
G01 X30.2790 Y13.0026 F60.00
G01 X30.2891 Y13.0132 F60.00
G01 X30.3774 Y13.1106 F60.00
G01 X30.4588 Y13.1106 F60.00
G01 X30.4589 Y12.9975 F60.00
G01 X30.4664 Y12.8431 F60.00
G01 X30.4682 Y12.8212 F60.00
G01 X30.4908 Y12.6682 F60.00
G01 X30.4933 Y12.6538 F60.00
G01 X30.4966 Y12.6395 F60.00
G01 X30.5323 Y12.4966 F60.00
G01 X30.5385 Y12.4755 F60.00
G01 X30.5905 Y12.3299 F60.00
G01 X30.5957 Y12.3163 F60.00
G01 X30.6017 Y12.3029 F60.00
G01 X30.6646 Y12.1697 F60.00
G01 X30.6712 Y12.1567 F60.00
G01 X30.6784 Y12.1439 F60.00
G01 X30.7542 Y12.0176 F60.00
G01 X30.7620 Y12.0052 F60.00
G01 X30.7704 Y11.9932 F60.00
G01 X30.8582 Y11.8749 F60.00
G01 X30.8672 Y11.8634 F60.00
G01 X30.8767 Y11.8523 F60.00
G01 X30.9757 Y11.7432 F60.00
G01 X30.9858 Y11.7326 F60.00
G01 X33.9068 Y8.8116 F60.00
G01 X33.9174 Y8.8015 F60.00
G01 X34.0265 Y8.7025 F60.00
G01 X34.0376 Y8.6930 F60.00
G01 X34.0491 Y8.6840 F60.00
G01 X34.1674 Y8.5962 F60.00
G01 X34.1794 Y8.5878 F60.00
G01 X34.1918 Y8.5800 F60.00
G01 X34.3181 Y8.5042 F60.00
G01 X34.3309 Y8.4970 F60.00
G01 X34.3439 Y8.4904 F60.00
G01 X34.4771 Y8.4275 F60.00
G01 X34.4905 Y8.4215 F60.00
G01 X34.5041 Y8.4163 F60.00
G01 X34.6428 Y8.3666 F60.00
G01 X34.6567 Y8.3620 F60.00
G01 X34.6708 Y8.3581 F60.00
G01 X34.8137 Y8.3224 F60.00
G01 X34.8280 Y8.3191 F60.00
G01 X34.8424 Y8.3166 F60.00
G01 X34.9881 Y8.2950 F60.00
G01 X35.0026 Y8.2932 F60.00
G01 X35.0173 Y8.2922 F60.00
G01 X35.1644 Y8.2849 F60.00
G01 X35.1863 Y8.2847 F60.00
G01 X35.3407 Y8.2922 F60.00
G01 X35.3554 Y8.2932 F60.00
G01 X35.3699 Y8.2950 F60.00
G01 X35.5156 Y8.3166 F60.00
G01 X35.5300 Y8.3191 F60.00
G01 X35.5443 Y8.3224 F60.00
G01 X35.6872 Y8.3581 F60.00
G01 X35.7013 Y8.3620 F60.00
G01 X35.7152 Y8.3666 F60.00
G01 X35.8607 Y8.4188 F60.00
G01 X35.8809 Y8.4275 F60.00
G01 X36.0141 Y8.4904 F60.00
G01 X36.0271 Y8.4970 F60.00
G01 X36.0399 Y8.5042 F60.00
G01 X36.1662 Y8.5800 F60.00
G01 X36.1786 Y8.5878 F60.00
G01 X36.1906 Y8.5962 F60.00
G01 X36.3089 Y8.6840 F60.00
G01 X36.3260 Y8.6977 F60.00
G01 X36.3502 Y8.7195 F60.00
G01 X34.3610 Y6.7303 F60.00
G01 X34.3456 Y6.7160 F60.00
G01 X31.7667 Y4.1360 F60.00
G01 X27.1613 Y4.1360 F60.00
G01 X26.6468 Y4.6504 F60.00
G01 X26.6362 Y4.6605 F60.00
G01 X26.5271 Y4.7595 F60.00
G01 X26.5160 Y4.7690 F60.00
G01 X26.5045 Y4.7780 F60.00
G01 X26.3862 Y4.8658 F60.00
G01 X26.3742 Y4.8742 F60.00
G01 X26.3618 Y4.8820 F60.00
G01 X26.2355 Y4.9578 F60.00
G01 X26.2227 Y4.9650 F60.00
G01 X26.2097 Y4.9716 F60.00
G01 X26.0765 Y5.0345 F60.00
G01 X26.0631 Y5.0405 F60.00
G01 X26.0495 Y5.0457 F60.00
G01 X25.9108 Y5.0954 F60.00
G01 X25.8969 Y5.1000 F60.00
G01 X25.8828 Y5.1039 F60.00
G01 X25.7399 Y5.1396 F60.00
G01 X25.7256 Y5.1429 F60.00
G01 X25.7112 Y5.1454 F60.00
G01 X25.5655 Y5.1670 F60.00
G01 X25.5510 Y5.1688 F60.00
G01 X25.5363 Y5.1698 F60.00
G01 X25.3819 Y5.1773 F60.00
G01 X21.5392 Y5.1774 F60.00
G01 X21.5246 Y5.1771 F60.00
G01 X21.3775 Y5.1698 F60.00
G01 X21.3628 Y5.1688 F60.00
G01 X21.3483 Y5.1670 F60.00
G01 X21.2026 Y5.1454 F60.00
G01 X21.1882 Y5.1429 F60.00
G01 X21.1739 Y5.1396 F60.00
G01 X21.0310 Y5.1039 F60.00
G01 X21.0169 Y5.1000 F60.00
G01 X21.0030 Y5.0954 F60.00
G01 X20.8643 Y5.0457 F60.00
G01 X20.8507 Y5.0405 F60.00
G01 X20.8373 Y5.0345 F60.00
G01 X20.7041 Y4.9716 F60.00
G01 X20.6911 Y4.9650 F60.00
G01 X20.6783 Y4.9578 F60.00
G01 X20.5520 Y4.8820 F60.00
G01 X20.5396 Y4.8742 F60.00
G01 X20.5276 Y4.8658 F60.00
G01 X20.4093 Y4.7780 F60.00
G01 X20.3978 Y4.7690 F60.00
G01 X20.3867 Y4.7595 F60.00
G01 X20.2776 Y4.6605 F60.00
G01 X20.2670 Y4.6504 F60.00
G01 X20.2569 Y4.6398 F60.00
G01 X20.1579 Y4.5307 F60.00
G01 X20.1484 Y4.5196 F60.00
G01 X20.1394 Y4.5081 F60.00
G01 X20.0516 Y4.3898 F60.00
G01 X20.0392 Y4.3717 F60.00
G01 X19.9596 Y4.2391 F60.00
G01 X19.9524 Y4.2263 F60.00
G01 X19.9458 Y4.2133 F60.00
G01 X19.8829 Y4.0801 F60.00
G01 X19.8769 Y4.0667 F60.00
G01 X19.8717 Y4.0531 F60.00
G01 X19.8220 Y3.9144 F60.00
G01 X19.8174 Y3.9005 F60.00
G01 X19.8135 Y3.8864 F60.00
G01 X19.7778 Y3.7435 F60.00
G01 X19.7745 Y3.7292 F60.00
G01 X19.7720 Y3.7148 F60.00
G01 X19.7504 Y3.5691 F60.00
G01 X19.7486 Y3.5546 F60.00
G01 X19.7476 Y3.5399 F60.00
G01 X19.7403 Y3.3928 F60.00
G01 X19.7400 Y3.3782 F60.00
G01 X19.7403 Y3.3636 F60.00
G01 X19.7476 Y3.2165 F60.00
G01 X19.7486 Y3.2018 F60.00
G01 X19.7504 Y3.1873 F60.00
G01 X19.7720 Y3.0416 F60.00
G01 X19.7745 Y3.0272 F60.00
G01 X19.7778 Y3.0129 F60.00
G01 X19.8135 Y2.8700 F60.00
G01 X19.8174 Y2.8559 F60.00
G01 X19.8220 Y2.8420 F60.00
G01 X19.8717 Y2.7033 F60.00
G01 X19.8769 Y2.6897 F60.00
G01 X19.8829 Y2.6763 F60.00
G01 X19.9458 Y2.5431 F60.00
G01 X19.9524 Y2.5301 F60.00
G01 X19.9596 Y2.5173 F60.00
G01 X20.0354 Y2.3910 F60.00
G01 X20.0432 Y2.3786 F60.00
G01 X20.0516 Y2.3666 F60.00
G01 X20.1394 Y2.2483 F60.00
G01 X20.1484 Y2.2368 F60.00
G01 X20.1579 Y2.2257 F60.00
G01 X20.2569 Y2.1166 F60.00
G01 X20.2670 Y2.1060 F60.00
G01 X20.2776 Y2.0959 F60.00
G01 X20.3867 Y1.9969 F60.00
G01 X20.3978 Y1.9874 F60.00
G01 X20.4093 Y1.9784 F60.00
G01 X20.5276 Y1.8906 F60.00
G01 X20.5457 Y1.8782 F60.00
G01 X20.6783 Y1.7986 F60.00
G01 X20.6911 Y1.7914 F60.00
G01 X20.7041 Y1.7848 F60.00
G01 X20.8373 Y1.7219 F60.00
G01 X20.8507 Y1.7159 F60.00
G01 X20.8643 Y1.7107 F60.00
G01 X21.0030 Y1.6610 F60.00
G01 X21.0169 Y1.6564 F60.00
G01 X21.0310 Y1.6525 F60.00
G01 X21.1739 Y1.6168 F60.00
G01 X21.1882 Y1.6135 F60.00
G01 X21.2026 Y1.6110 F60.00
G01 X21.3483 Y1.5894 F60.00
G01 X21.3701 Y1.5870 F60.00
G01 X21.5246 Y1.5793 F60.00
G01 X21.5392 Y1.5790 F60.00
G01 X24.6293 Y1.5790 F60.00
G01 X25.1438 Y1.0646 F60.00
G01 X25.1544 Y1.0545 F60.00
G01 X25.2635 Y0.9555 F60.00
G01 X25.2746 Y0.9460 F60.00
G01 X25.2861 Y0.9370 F60.00
G01 X25.4044 Y0.8492 F60.00
G01 X25.4164 Y0.8408 F60.00
G01 X25.4288 Y0.8330 F60.00
G01 X25.5551 Y0.7572 F60.00
G01 X25.5744 Y0.7467 F60.00
G01 X25.7141 Y0.6805 F60.00
G01 X25.7343 Y0.6718 F60.00
G01 X25.8867 Y0.6173 F60.00
G01 X25.9007 Y0.6130 F60.00
G01 X25.9390 Y0.6033 F60.00
G01 X13.8882 Y0.6033 F60.00
G01 X13.9265 Y0.6130 F60.00
G01 X13.9405 Y0.6173 F60.00
G01 X14.0929 Y0.6718 F60.00
G01 X14.1131 Y0.6805 F60.00
G01 X14.2528 Y0.7467 F60.00
G01 X14.2721 Y0.7572 F60.00
G01 X14.3984 Y0.8330 F60.00
G01 X14.4108 Y0.8408 F60.00
G01 X14.4228 Y0.8492 F60.00
G01 X14.5469 Y0.9414 F60.00
G01 X14.5637 Y0.9555 F60.00
G01 X14.6728 Y1.0545 F60.00
G01 X14.6834 Y1.0646 F60.00
G01 X14.6935 Y1.0752 F60.00
G01 X14.7925 Y1.1843 F60.00
G01 X14.8020 Y1.1954 F60.00
G01 X14.8110 Y1.2069 F60.00
G01 X14.8988 Y1.3252 F60.00
G01 X14.9072 Y1.3372 F60.00
G01 X14.9150 Y1.3496 F60.00
G01 X14.9944 Y1.4822 F60.00
G01 X15.0046 Y1.5017 F60.00
G01 X15.0675 Y1.6349 F60.00
G01 X15.0735 Y1.6483 F60.00
G01 X15.0787 Y1.6619 F60.00
G01 X15.1284 Y1.8006 F60.00
G01 X15.1330 Y1.8145 F60.00
G01 X15.1369 Y1.8286 F60.00
G01 X15.1726 Y1.9715 F60.00
G01 X15.1759 Y1.9858 F60.00
G01 X15.1784 Y2.0002 F60.00
G01 X15.2000 Y2.1459 F60.00
G01 X15.2018 Y2.1604 F60.00
G01 X15.2028 Y2.1751 F60.00
G01 X15.2101 Y2.3222 F60.00
G01 X15.2104 Y2.3368 F60.00
G01 X15.2101 Y2.3514 F60.00
G01 X15.2028 Y2.4985 F60.00
G01 X15.2018 Y2.5132 F60.00
G01 X15.2000 Y2.5277 F60.00
G01 X15.1784 Y2.6734 F60.00
G01 X15.1759 Y2.6878 F60.00
G01 X15.1726 Y2.7021 F60.00
G01 X15.1369 Y2.8450 F60.00
G01 X15.1330 Y2.8591 F60.00
G01 X15.1284 Y2.8730 F60.00
G01 X15.0787 Y3.0117 F60.00
G01 X15.0735 Y3.0253 F60.00
G01 X15.0675 Y3.0387 F60.00
G01 X15.0046 Y3.1719 F60.00
G01 X14.9980 Y3.1849 F60.00
G01 X14.9908 Y3.1977 F60.00
G01 X14.9150 Y3.3240 F60.00
G01 X14.9072 Y3.3364 F60.00
G01 X14.8988 Y3.3484 F60.00
G01 X14.8110 Y3.4667 F60.00
G01 X14.7973 Y3.4838 F60.00
G01 X14.6935 Y3.5984 F60.00
G01 X14.6834 Y3.6090 F60.00
G01 X13.6420 Y4.6504 F60.00
G01 X13.6314 Y4.6605 F60.00
G01 X13.5223 Y4.7595 F60.00
G01 X13.5112 Y4.7690 F60.00
G01 X13.4997 Y4.7780 F60.00
G01 X13.3814 Y4.8658 F60.00
G01 X13.3694 Y4.8742 F60.00
G01 X13.3570 Y4.8820 F60.00
G01 X13.2307 Y4.9578 F60.00
G01 X13.2179 Y4.9650 F60.00
G01 X13.2049 Y4.9716 F60.00
G01 X13.0717 Y5.0345 F60.00
G01 X13.0583 Y5.0405 F60.00
G01 X13.0447 Y5.0457 F60.00
G01 X12.9060 Y5.0954 F60.00
G01 X12.8921 Y5.1000 F60.00
G01 X12.8780 Y5.1039 F60.00
G01 X12.7351 Y5.1396 F60.00
G01 X12.7208 Y5.1429 F60.00
G01 X12.7064 Y5.1454 F60.00
G01 X12.5607 Y5.1670 F60.00
G01 X12.5462 Y5.1688 F60.00
G01 X12.5315 Y5.1698 F60.00
G01 X12.3844 Y5.1771 F60.00
G01 X12.3698 Y5.1774 F60.00
G01 X12.3552 Y5.1771 F60.00
G01 X12.2007 Y5.1694 F60.00
G01 X12.1789 Y5.1670 F60.00
G01 X12.0260 Y5.1442 F60.00
G01 X12.0116 Y5.1413 F60.00
G01 X11.9634 Y5.1293 F60.00
G01 X11.9152 Y5.1413 F60.00
G01 X11.9008 Y5.1442 F60.00
G01 X11.7406 Y5.1680 F60.00
G01 X11.7187 Y5.1698 F60.00
G01 X11.5643 Y5.1773 F60.00
G01 X8.6287 Y5.1773 F60.00
G01 X8.4743 Y5.1698 F60.00
G01 X8.4596 Y5.1688 F60.00
G01 X8.4451 Y5.1670 F60.00
G01 X8.2994 Y5.1454 F60.00
G01 X8.2778 Y5.1413 F60.00
G01 X8.1278 Y5.1039 F60.00
G01 X8.1067 Y5.0977 F60.00
G01 X7.9543 Y5.0432 F60.00
G01 X7.9407 Y5.0376 F60.00
G01 X7.9140 Y5.0250 F60.00
G01 X5.5807 Y5.0249 F60.00
G01 X5.4263 Y5.0174 F60.00
G01 X5.4116 Y5.0164 F60.00
G01 X5.3971 Y5.0146 F60.00
G01 X5.2442 Y4.9918 F60.00
G01 X5.2227 Y4.9872 F60.00
G01 X5.0798 Y4.9515 F60.00
G01 X5.0657 Y4.9476 F60.00
G01 X5.0518 Y4.9430 F60.00
G01 X4.9131 Y4.8933 F60.00
G01 X4.8995 Y4.8881 F60.00
G01 X4.8861 Y4.8821 F60.00
G01 X4.7529 Y4.8192 F60.00
G01 X4.7399 Y4.8126 F60.00
G01 X4.7271 Y4.8054 F60.00
G01 X4.6008 Y4.7296 F60.00
G01 X4.5884 Y4.7218 F60.00
G01 X4.5764 Y4.7134 F60.00
G01 X4.4581 Y4.6256 F60.00
G01 X4.4466 Y4.6166 F60.00
G01 X4.4355 Y4.6071 F60.00
G01 X4.3264 Y4.5081 F60.00
G01 X4.3158 Y4.4980 F60.00
G01 X4.3057 Y4.4874 F60.00
G01 X4.2067 Y4.3783 F60.00
G01 X4.1972 Y4.3672 F60.00
G01 X4.1882 Y4.3557 F60.00
G01 X4.1004 Y4.2374 F60.00
G01 X4.0920 Y4.2254 F60.00
G01 X4.0842 Y4.2130 F60.00
G01 X4.0084 Y4.0867 F60.00
G01 X4.0012 Y4.0739 F60.00
G01 X3.9946 Y4.0609 F60.00
G01 X3.9317 Y3.9277 F60.00
G01 X3.9257 Y3.9143 F60.00
G01 X3.9205 Y3.9007 F60.00
G01 X3.8708 Y3.7620 F60.00
G01 X3.8642 Y3.7411 F60.00
G01 X3.8266 Y3.5911 F60.00
G01 X3.8233 Y3.5768 F60.00
G01 X3.8208 Y3.5624 F60.00
G01 X3.7992 Y3.4167 F60.00
G01 X3.7974 Y3.4022 F60.00
G01 X3.7964 Y3.3875 F60.00
G01 X3.7891 Y3.2404 F60.00
G01 X3.7888 Y3.2258 F60.00
G01 X3.7891 Y3.2112 F60.00
G01 X3.7964 Y3.0641 F60.00
G01 X3.7974 Y3.0494 F60.00
G01 X3.7992 Y3.0349 F60.00
G01 X3.8208 Y2.8892 F60.00
G01 X3.8233 Y2.8748 F60.00
G01 X3.8266 Y2.8605 F60.00
G01 X3.8623 Y2.7176 F60.00
G01 X3.8662 Y2.7035 F60.00
G01 X3.8708 Y2.6896 F60.00
G01 X3.9205 Y2.5509 F60.00
G01 X3.9257 Y2.5373 F60.00
G01 X3.9317 Y2.5239 F60.00
G01 X3.9946 Y2.3907 F60.00
G01 X4.0012 Y2.3777 F60.00
G01 X4.0084 Y2.3649 F60.00
G01 X4.0842 Y2.2386 F60.00
G01 X4.0920 Y2.2262 F60.00
G01 X4.1004 Y2.2142 F60.00
G01 X4.1882 Y2.0959 F60.00
G01 X4.1972 Y2.0844 F60.00
G01 X4.2067 Y2.0733 F60.00
G01 X4.3057 Y1.9642 F60.00
G01 X4.3158 Y1.9536 F60.00
G01 X4.3264 Y1.9435 F60.00
G01 X4.4355 Y1.8445 F60.00
G01 X4.4466 Y1.8350 F60.00
G01 X4.4581 Y1.8260 F60.00
G01 X4.5764 Y1.7382 F60.00
G01 X4.5884 Y1.7298 F60.00
G01 X4.6008 Y1.7220 F60.00
G01 X4.7271 Y1.6462 F60.00
G01 X4.7399 Y1.6390 F60.00
G01 X4.7529 Y1.6324 F60.00
G01 X4.8861 Y1.5695 F60.00
G01 X4.8995 Y1.5635 F60.00
G01 X4.9131 Y1.5583 F60.00
G01 X5.0518 Y1.5086 F60.00
G01 X5.0727 Y1.5020 F60.00
G01 X5.2227 Y1.4644 F60.00
G01 X5.2370 Y1.4611 F60.00
G01 X5.2514 Y1.4586 F60.00
G01 X5.3971 Y1.4370 F60.00
G01 X5.4116 Y1.4352 F60.00
G01 X5.4263 Y1.4342 F60.00
G01 X5.5807 Y1.4267 F60.00
G01 X8.5090 Y1.4266 F60.00
G01 X8.5236 Y1.4269 F60.00
G01 X8.6707 Y1.4342 F60.00
G01 X8.6854 Y1.4352 F60.00
G01 X8.6999 Y1.4370 F60.00
G01 X8.8456 Y1.4586 F60.00
G01 X8.8600 Y1.4611 F60.00
G01 X8.8743 Y1.4644 F60.00
G01 X9.0172 Y1.5001 F60.00
G01 X9.0383 Y1.5063 F60.00
G01 X9.1907 Y1.5608 F60.00
G01 X9.2043 Y1.5664 F60.00
G01 X9.2310 Y1.5790 F60.00
G01 X11.5570 Y1.5790 F60.00
G01 X11.5716 Y1.5793 F60.00
G01 X11.6217 Y1.5818 F60.00
G00 Z3.0000
G00 X14.3411 Y10.0288
G01 F60.00
G01 Z-0.0980
G01 F60.00
G01 X5.5880 Y10.0288 F60.00
G01 X5.5734 Y10.0285 F60.00
G01 X5.4263 Y10.0212 F60.00
G01 X5.4116 Y10.0202 F60.00
G01 X5.3971 Y10.0184 F60.00
G01 X5.2514 Y9.9968 F60.00
G01 X5.2370 Y9.9943 F60.00
G01 X5.2227 Y9.9910 F60.00
G01 X5.0798 Y9.9553 F60.00
G01 X5.0657 Y9.9514 F60.00
G01 X5.0518 Y9.9468 F60.00
G01 X4.9131 Y9.8971 F60.00
G01 X4.8995 Y9.8919 F60.00
G01 X4.8861 Y9.8859 F60.00
G01 X4.7529 Y9.8230 F60.00
G01 X4.7399 Y9.8164 F60.00
G01 X4.7271 Y9.8092 F60.00
G01 X4.6008 Y9.7334 F60.00
G01 X4.5884 Y9.7256 F60.00
G01 X4.5764 Y9.7172 F60.00
G01 X4.4581 Y9.6294 F60.00
G01 X4.4466 Y9.6204 F60.00
G01 X4.4355 Y9.6109 F60.00
G01 X4.3264 Y9.5119 F60.00
G01 X4.3158 Y9.5018 F60.00
G01 X4.3057 Y9.4912 F60.00
G01 X4.2067 Y9.3821 F60.00
G01 X4.1972 Y9.3710 F60.00
G01 X4.1882 Y9.3595 F60.00
G01 X4.1004 Y9.2412 F60.00
G01 X4.0920 Y9.2292 F60.00
G01 X4.0842 Y9.2168 F60.00
G01 X4.0084 Y9.0905 F60.00
G01 X4.0012 Y9.0777 F60.00
G01 X3.9946 Y9.0647 F60.00
G01 X3.9317 Y8.9315 F60.00
G01 X3.9257 Y8.9181 F60.00
G01 X3.9205 Y8.9045 F60.00
G01 X3.8708 Y8.7658 F60.00
G01 X3.8662 Y8.7519 F60.00
G01 X3.8623 Y8.7378 F60.00
G01 X3.8266 Y8.5949 F60.00
G01 X3.8233 Y8.5806 F60.00
G01 X3.8208 Y8.5662 F60.00
G01 X3.7992 Y8.4205 F60.00
G01 X3.7974 Y8.4060 F60.00
G01 X3.7964 Y8.3913 F60.00
G01 X3.7891 Y8.2442 F60.00
G01 X3.7888 Y8.2296 F60.00
G01 X3.7891 Y8.2150 F60.00
G01 X3.7964 Y8.0679 F60.00
G01 X3.7974 Y8.0532 F60.00
G01 X3.7992 Y8.0387 F60.00
G01 X3.8208 Y7.8930 F60.00
G01 X3.8233 Y7.8786 F60.00
G01 X3.8266 Y7.8643 F60.00
G01 X3.8623 Y7.7214 F60.00
G01 X3.8662 Y7.7073 F60.00
G01 X3.8708 Y7.6934 F60.00
G01 X3.9205 Y7.5547 F60.00
G01 X3.9257 Y7.5411 F60.00
G01 X3.9317 Y7.5277 F60.00
G01 X3.9946 Y7.3945 F60.00
G01 X4.0012 Y7.3815 F60.00
G01 X4.0084 Y7.3687 F60.00
G01 X4.0842 Y7.2424 F60.00
G01 X4.0920 Y7.2300 F60.00
G01 X4.1004 Y7.2180 F60.00
G01 X4.1882 Y7.0997 F60.00
G01 X4.1972 Y7.0882 F60.00
G01 X4.2067 Y7.0771 F60.00
G01 X4.3057 Y6.9680 F60.00
G01 X4.3158 Y6.9574 F60.00
G01 X4.3264 Y6.9473 F60.00
G01 X4.4355 Y6.8483 F60.00
G01 X4.4466 Y6.8388 F60.00
G01 X4.4581 Y6.8298 F60.00
G01 X4.5764 Y6.7420 F60.00
G01 X4.5884 Y6.7336 F60.00
G01 X4.6008 Y6.7258 F60.00
G01 X4.7271 Y6.6500 F60.00
G01 X4.7399 Y6.6428 F60.00
G01 X4.7529 Y6.6362 F60.00
G01 X4.8861 Y6.5733 F60.00
G01 X4.8995 Y6.5673 F60.00
G01 X4.9131 Y6.5621 F60.00
G01 X5.0518 Y6.5124 F60.00
G01 X5.0657 Y6.5078 F60.00
G01 X5.0798 Y6.5039 F60.00
G01 X5.2227 Y6.4682 F60.00
G01 X5.2370 Y6.4649 F60.00
G01 X5.2514 Y6.4624 F60.00
G01 X5.3971 Y6.4408 F60.00
G01 X5.4189 Y6.4384 F60.00
G01 X5.5734 Y6.4307 F60.00
G01 X5.5880 Y6.4304 F60.00
G01 X14.7574 Y6.4304 F60.00
G01 X14.7720 Y6.4307 F60.00
G01 X14.9191 Y6.4380 F60.00
G01 X14.9338 Y6.4390 F60.00
G01 X14.9483 Y6.4408 F60.00
G01 X15.0940 Y6.4624 F60.00
G01 X15.1084 Y6.4649 F60.00
G01 X15.1227 Y6.4682 F60.00
G01 X15.2753 Y6.5066 F60.00
G01 X25.3732 Y6.5066 F60.00
G01 X25.4988 Y6.4616 F60.00
G01 X25.5127 Y6.4570 F60.00
G01 X25.5268 Y6.4531 F60.00
G01 X25.6697 Y6.4174 F60.00
G01 X25.6840 Y6.4141 F60.00
G01 X25.6984 Y6.4116 F60.00
G01 X25.8441 Y6.3900 F60.00
G01 X25.8586 Y6.3882 F60.00
G01 X25.8733 Y6.3872 F60.00
G01 X26.0204 Y6.3799 F60.00
G01 X26.0350 Y6.3796 F60.00
G01 X27.8892 Y6.3796 F60.00
G01 X27.9038 Y6.3799 F60.00
G01 X28.0509 Y6.3872 F60.00
G01 X28.0656 Y6.3882 F60.00
G01 X28.0801 Y6.3900 F60.00
G01 X28.2258 Y6.4116 F60.00
G01 X28.2402 Y6.4141 F60.00
G01 X28.2545 Y6.4174 F60.00
G01 X28.3974 Y6.4531 F60.00
G01 X28.4115 Y6.4570 F60.00
G01 X28.4254 Y6.4616 F60.00
G01 X28.5641 Y6.5113 F60.00
G01 X28.5777 Y6.5165 F60.00
G01 X28.5911 Y6.5225 F60.00
G01 X28.7243 Y6.5854 F60.00
G01 X28.7373 Y6.5920 F60.00
G01 X28.7501 Y6.5992 F60.00
G01 X28.8764 Y6.6750 F60.00
G01 X28.8888 Y6.6828 F60.00
G01 X28.9008 Y6.6912 F60.00
G01 X29.0191 Y6.7790 F60.00
G01 X29.0306 Y6.7880 F60.00
G01 X29.0417 Y6.7975 F60.00
G01 X29.1508 Y6.8965 F60.00
G01 X29.1614 Y6.9066 F60.00
G01 X29.1715 Y6.9172 F60.00
G01 X29.2705 Y7.0263 F60.00
G01 X29.2800 Y7.0374 F60.00
G01 X29.2890 Y7.0489 F60.00
G01 X29.3768 Y7.1672 F60.00
G01 X29.3852 Y7.1792 F60.00
G01 X29.3930 Y7.1916 F60.00
G01 X29.4688 Y7.3179 F60.00
G01 X29.4760 Y7.3307 F60.00
G01 X29.4826 Y7.3437 F60.00
G01 X29.5455 Y7.4769 F60.00
G01 X29.5515 Y7.4903 F60.00
G01 X29.5567 Y7.5039 F60.00
G01 X29.6064 Y7.6426 F60.00
G01 X29.6110 Y7.6565 F60.00
G01 X29.6149 Y7.6706 F60.00
G01 X29.6506 Y7.8135 F60.00
G01 X29.6539 Y7.8278 F60.00
G01 X29.6564 Y7.8422 F60.00
G01 X29.6790 Y7.9952 F60.00
G01 X29.6808 Y8.0171 F60.00
G01 X29.6881 Y8.1642 F60.00
G01 X29.6884 Y8.1788 F60.00
G01 X29.6881 Y8.1934 F60.00
G01 X29.6808 Y8.3405 F60.00
G01 X29.6798 Y8.3552 F60.00
G01 X29.6780 Y8.3697 F60.00
G01 X29.6564 Y8.5154 F60.00
G01 X29.6539 Y8.5298 F60.00
G01 X29.6506 Y8.5441 F60.00
G01 X29.6149 Y8.6870 F60.00
G01 X29.6110 Y8.7011 F60.00
G01 X29.6064 Y8.7150 F60.00
G01 X29.5567 Y8.8537 F60.00
G01 X29.5515 Y8.8673 F60.00
G01 X29.5455 Y8.8807 F60.00
G01 X29.4826 Y9.0139 F60.00
G01 X29.4760 Y9.0269 F60.00
G01 X29.4688 Y9.0397 F60.00
G01 X29.3930 Y9.1660 F60.00
G01 X29.3852 Y9.1784 F60.00
G01 X29.3768 Y9.1904 F60.00
G01 X29.2890 Y9.3087 F60.00
G01 X29.2800 Y9.3202 F60.00
G01 X29.2705 Y9.3313 F60.00
G01 X29.1715 Y9.4404 F60.00
G01 X29.1614 Y9.4510 F60.00
G01 X29.1508 Y9.4611 F60.00
G01 X29.0417 Y9.5601 F60.00
G01 X29.0306 Y9.5696 F60.00
G01 X29.0191 Y9.5786 F60.00
G01 X28.9008 Y9.6664 F60.00
G01 X28.8888 Y9.6748 F60.00
G01 X28.8764 Y9.6826 F60.00
G01 X28.7501 Y9.7584 F60.00
G01 X28.7373 Y9.7656 F60.00
G01 X28.7243 Y9.7722 F60.00
G01 X28.5911 Y9.8351 F60.00
G01 X28.5777 Y9.8411 F60.00
G01 X28.5641 Y9.8463 F60.00
G01 X28.4254 Y9.8960 F60.00
G01 X28.4115 Y9.9006 F60.00
G01 X28.3974 Y9.9045 F60.00
G01 X28.2545 Y9.9402 F60.00
G01 X28.2402 Y9.9435 F60.00
G01 X28.2258 Y9.9460 F60.00
G01 X28.0728 Y9.9686 F60.00
G01 X28.0509 Y9.9704 F60.00
G01 X27.9038 Y9.9777 F60.00
G01 X27.8892 Y9.9780 F60.00
G01 X26.5444 Y9.9780 F60.00
G01 X26.4188 Y10.0230 F60.00
G01 X26.4049 Y10.0276 F60.00
G01 X26.3908 Y10.0315 F60.00
G01 X26.2479 Y10.0672 F60.00
G01 X26.2336 Y10.0705 F60.00
G01 X26.2192 Y10.0730 F60.00
G01 X26.0735 Y10.0946 F60.00
G01 X26.0590 Y10.0964 F60.00
G01 X26.0443 Y10.0974 F60.00
G01 X25.8972 Y10.1047 F60.00
G01 X25.8826 Y10.1050 F60.00
G01 X14.8590 Y10.1050 F60.00
G01 X14.8444 Y10.1047 F60.00
G01 X14.6973 Y10.0974 F60.00
G01 X14.6826 Y10.0964 F60.00
G01 X14.6681 Y10.0946 F60.00
