(G-CODE GENERATED BY FLATCAM v8.994 - www.flatcam.org - Version Date: 2020/11/7)

(Name: cam.drl_cnc)
(Type: G-code from Geometry)
(Units: MM)

(Created on Tuesday, 12 September 2023 at 22:02)

(This preprocessor is used with a motion controller loaded with GRBL firmware.)
(It is configured to be compatible with almost any version of GRBL firmware.)


(TOOLS DIAMETER: )
(Tool: 1 -> Dia: 0.7619999999999999)
(Tool: 2 -> Dia: 0.8000999999999999)
(Tool: 3 -> Dia: 1.0007599999999999)
(Tool: 4 -> Dia: 1.30048)
(Tool: 5 -> Dia: 2.9997399999999996)

(FEEDRATE Z: )
(Tool: 1 -> Feedrate: 30.0)
(Tool: 2 -> Feedrate: 30.0)
(Tool: 3 -> Feedrate: 30.0)
(Tool: 4 -> Feedrate: 30.0)
(Tool: 5 -> Feedrate: 30.0)

(FEEDRATE RAPIDS: )
(Tool: 1 -> Feedrate Rapids: 1500)
(Tool: 2 -> Feedrate Rapids: 1500)
(Tool: 3 -> Feedrate Rapids: 1500)
(Tool: 4 -> Feedrate Rapids: 1500)
(Tool: 5 -> Feedrate Rapids: 1500)

(Z_CUT: )
(Tool: 1 -> Z_Cut: -2.0)
(Tool: 2 -> Z_Cut: -2.0)
(Tool: 3 -> Z_Cut: -2.0)
(Tool: 4 -> Z_Cut: -2.0)
(Tool: 5 -> Z_Cut: -2.0)

(Tools Offset: )
(Tool: 1 -> Offset Z: 0.0)
(Tool: 2 -> Offset Z: 0.0)
(Tool: 3 -> Offset Z: 0.0)
(Tool: 4 -> Offset Z: 0.0)
(Tool: 5 -> Offset Z: 0.0)

(Z_MOVE: )
(Tool: 1 -> Z_Move: 3.0)
(Tool: 2 -> Z_Move: 3.0)
(Tool: 3 -> Z_Move: 3.0)
(Tool: 4 -> Z_Move: 3.0)
(Tool: 5 -> Z_Move: 3.0)

(Z Toolchange: 5.0 mm)
(X,Y Toolchange: 0.0000, 0.0000 mm)
(Z Start: None mm)
(Z End: 3.0 mm)
(X,Y End: 0.0000, 0.0000 mm)
(Steps per circle: 64)
(Steps per circle: 64)
(Preprocessor Excellon: grbl_11)

(X range:    5.3176 ...   46.0694  mm)
(Y range:    0.5321 ...   18.7719  mm)

(Spindle Speed: 1000000 RPM)
G21
G90
G17
G94


G01 F30.00

M5             
G00 Z5.0000
G00 X0.0000 Y0.0000                
T1
M6
(MSG, Change to Tool Dia = 0.7620 ||| Total drills for tool T1 = 23)
M0
G00 Z5.0000

G01 F30.00
M03 S1000000
G00 X35.7900 Y2.1590
G01 Z-2.0000
G01 Z0
G00 Z3.0000
G00 X35.7900 Y4.1910
G01 Z-2.0000
G01 Z0
G00 Z3.0000
G00 X35.4090 Y8.1280
G01 Z-2.0000
G01 Z0
G00 Z3.0000
G00 X31.4212 Y10.5410
G01 Z-2.0000
G01 Z0
G00 Z3.0000
G00 X29.9480 Y4.6990
G01 Z-2.0000
G01 Z0
G00 Z3.0000
G00 X25.1220 Y10.7950
G01 Z-2.0000
G01 Z0
G00 Z3.0000
G00 X22.6582 Y5.8420
G01 Z-2.0000
G01 Z0
G00 Z3.0000
G00 X16.9432 Y4.6990
G01 Z-2.0000
G01 Z0
G00 Z3.0000
G00 X12.6760 Y5.8420
G01 Z-2.0000
G01 Z0
G00 Z3.0000
G00 X8.6882 Y2.0320
G01 Z-2.0000
G01 Z0
G00 Z3.0000
G00 X5.8180 Y7.2390
G01 Z-2.0000
G01 Z0
G00 Z3.0000
G00 X5.8180 Y12.2428
G01 Z-2.0000
G01 Z0
G00 Z3.0000
G00 X5.8180 Y17.2466
G01 Z-2.0000
G01 Z0
G00 Z3.0000
G00 X12.6760 Y15.7480
G01 Z-2.0000
G01 Z0
G00 Z3.0000
G00 X16.9432 Y16.6370
G01 Z-2.0000
G01 Z0
G00 Z3.0000
G00 X22.6582 Y15.7480
G01 Z-2.0000
G01 Z0
G00 Z3.0000
G00 X29.9480 Y16.6370
G01 Z-2.0000
G01 Z0
G00 Z3.0000
G00 X35.4090 Y18.1610
G01 Z-2.0000
G01 Z0
G00 Z3.0000
G00 X38.7110 Y13.0810
G01 Z-2.0000
G01 Z0
G00 Z3.0000
G00 X43.7402 Y17.2720
G01 Z-2.0000
G01 Z0
G00 Z3.0000
G00 X45.5690 Y11.5570
G01 Z-2.0000
G01 Z0
G00 Z3.0000
G00 X45.5690 Y6.4770
G01 Z-2.0000
G01 Z0
G00 Z3.0000
G00 X38.7110 Y5.9944
G01 Z-2.0000
G01 Z0
G00 Z3.0000
M05
G00 Z3.00
G00 X0.0 Y0.0


