(G-CODE GENERATED BY FLATCAM v8.994 - www.flatcam.org - Version Date: 2020/11/7)

(Name: pcb1.gko_cutout_cnc)
(Type: G-code from Geometry)
(Units: MM)

(Created on Tuesday, 12 September 2023 at 22:33)

(This preprocessor is used with a motion controller loaded with GRBL firmware.)
(It is configured to be compatible with almost any version of GRBL firmware.)

(TOOL DIAMETER: 2.0 mm)
(Feedrate_XY: 60.0 mm/min)
(Feedrate_Z: 60.0 mm/min)
(Feedrate rapids 1500.0 mm/min)

(Z_Cut: -2.0 mm)
(DepthPerCut: 0.5 mm <=>4 passes)
(Z_Move: 3.0 mm)
(Z Start: None mm)
(Z End: 3.0 mm)
(X,Y End: 0.0000, 0.0000 mm)
(Steps per circle: 64)
(Steps per circle: 64)
(Preprocessor Geometry: grbl_11)

(X range:   -1.1500 ...   51.4420  mm)
(Y range:   -1.1500 ...   21.3430  mm)

(Spindle Speed: 1000000.0 RPM)
G21
G90
G17
G94


G01 F60.00

M5             
G00 Z5.0000
G00 X0.0000 Y0.0000                
T1
M6
(MSG, Change to Tool Dia = 2.0000)
M0
G00 Z5.0000

M03 S1000000.0
G01 F60.00
G00 X-1.1500 Y7.1965
G01 F60.00
G01 Z-0.5000
G01 F60.00
G01 X-1.1500 Y0.0000 F60.00
G01 X-1.1485 Y-0.0589 F60.00
G01 X-1.1379 Y-0.1663 F60.00
G01 X-1.1161 Y-0.2770 F60.00
G01 X-1.0819 Y-0.3897 F60.00
G01 X-1.0406 Y-0.4895 F60.00
G01 X-0.9876 Y-0.5891 F60.00
G01 X-0.9222 Y-0.6870 F60.00
G01 X-0.8504 Y-0.7741 F60.00
G01 X-0.7741 Y-0.8504 F60.00
G01 X-0.6831 Y-0.9251 F60.00
G01 X-0.5933 Y-0.9851 F60.00
G01 X-0.4939 Y-1.0385 F60.00
G01 X-0.3851 Y-1.0836 F60.00
G01 X-0.2770 Y-1.1161 F60.00
G01 X-0.1712 Y-1.1372 F60.00
G01 X-0.0589 Y-1.1485 F60.00
G01 X0.0000 Y-1.1500 F60.00
G01 X22.2460 Y-1.1500 F60.00
G00 X22.2460 Y-1.1500
G01 F60.00
G01 Z-1.0000
G01 F60.00
G01 X0.0000 Y-1.1500 F60.00
G01 X-0.0589 Y-1.1485 F60.00
G01 X-0.1712 Y-1.1372 F60.00
G01 X-0.2770 Y-1.1161 F60.00
G01 X-0.3851 Y-1.0836 F60.00
G01 X-0.4939 Y-1.0385 F60.00
G01 X-0.5933 Y-0.9851 F60.00
G01 X-0.6831 Y-0.9251 F60.00
G01 X-0.7741 Y-0.8504 F60.00
G01 X-0.8504 Y-0.7741 F60.00
G01 X-0.9222 Y-0.6870 F60.00
G01 X-0.9876 Y-0.5891 F60.00
G01 X-1.0406 Y-0.4895 F60.00
G01 X-1.0819 Y-0.3897 F60.00
G01 X-1.1161 Y-0.2770 F60.00
G01 X-1.1379 Y-0.1663 F60.00
G01 X-1.1485 Y-0.0589 F60.00
G01 X-1.1500 Y0.0000 F60.00
G01 X-1.1500 Y7.1965 F60.00
G00 X-1.1500 Y7.1965
G01 F60.00
G01 Z-1.5000
G01 F60.00
G01 X-1.1500 Y0.0000 F60.00
G01 X-1.1485 Y-0.0589 F60.00
G01 X-1.1379 Y-0.1663 F60.00
G01 X-1.1161 Y-0.2770 F60.00
G01 X-1.0819 Y-0.3897 F60.00
G01 X-1.0406 Y-0.4895 F60.00
G01 X-0.9876 Y-0.5891 F60.00
G01 X-0.9222 Y-0.6870 F60.00
G01 X-0.8504 Y-0.7741 F60.00
G01 X-0.7741 Y-0.8504 F60.00
G01 X-0.6831 Y-0.9251 F60.00
G01 X-0.5933 Y-0.9851 F60.00
G01 X-0.4939 Y-1.0385 F60.00
G01 X-0.3851 Y-1.0836 F60.00
G01 X-0.2770 Y-1.1161 F60.00
G01 X-0.1712 Y-1.1372 F60.00
G01 X-0.0589 Y-1.1485 F60.00
G01 X0.0000 Y-1.1500 F60.00
G01 X22.2460 Y-1.1500 F60.00
G00 X22.2460 Y-1.1500
G01 F60.00
G01 Z-2.0000
G01 F60.00
G01 X0.0000 Y-1.1500 F60.00
G01 X-0.0589 Y-1.1485 F60.00
G01 X-0.1712 Y-1.1372 F60.00
G01 X-0.2770 Y-1.1161 F60.00
G01 X-0.3851 Y-1.0836 F60.00
G01 X-0.4939 Y-1.0385 F60.00
G01 X-0.5933 Y-0.9851 F60.00
G01 X-0.6831 Y-0.9251 F60.00
G01 X-0.7741 Y-0.8504 F60.00
G01 X-0.8504 Y-0.7741 F60.00
G01 X-0.9222 Y-0.6870 F60.00
G01 X-0.9876 Y-0.5891 F60.00
G01 X-1.0406 Y-0.4895 F60.00
G01 X-1.0819 Y-0.3897 F60.00
G01 X-1.1161 Y-0.2770 F60.00
G01 X-1.1379 Y-0.1663 F60.00
G01 X-1.1485 Y-0.0589 F60.00
G01 X-1.1500 Y0.0000 F60.00
G01 X-1.1500 Y7.1965 F60.00
G00 Z3.0000
G00 X-1.1500 Y13.1965
G01 F60.00
G01 Z-0.5000
G01 F60.00
G01 X-1.1500 Y20.1930 F60.00
G01 X-1.1485 Y20.2519 F60.00
G01 X-1.1372 Y20.3642 F60.00
G01 X-1.1161 Y20.4700 F60.00
G01 X-1.0819 Y20.5827 F60.00
G01 X-1.0406 Y20.6825 F60.00
G01 X-0.9876 Y20.7821 F60.00
G01 X-0.9222 Y20.8800 F60.00
G01 X-0.8504 Y20.9671 F60.00
G01 X-0.7741 Y21.0434 F60.00
G01 X-0.6831 Y21.1181 F60.00
G01 X-0.5933 Y21.1781 F60.00
G01 X-0.4939 Y21.2315 F60.00
G01 X-0.3851 Y21.2766 F60.00
G01 X-0.2770 Y21.3091 F60.00
G01 X-0.1712 Y21.3302 F60.00
G01 X-0.0589 Y21.3415 F60.00
G01 X0.0000 Y21.3430 F60.00
G01 X22.2460 Y21.3430 F60.00
G00 X22.2460 Y21.3430
G01 F60.00
G01 Z-1.0000
G01 F60.00
G01 X0.0000 Y21.3430 F60.00
G01 X-0.0589 Y21.3415 F60.00
G01 X-0.1712 Y21.3302 F60.00
G01 X-0.2770 Y21.3091 F60.00
G01 X-0.3851 Y21.2766 F60.00
G01 X-0.4939 Y21.2315 F60.00
G01 X-0.5933 Y21.1781 F60.00
G01 X-0.6831 Y21.1181 F60.00
G01 X-0.7741 Y21.0434 F60.00
G01 X-0.8504 Y20.9671 F60.00
G01 X-0.9222 Y20.8800 F60.00
G01 X-0.9876 Y20.7821 F60.00
G01 X-1.0406 Y20.6825 F60.00
G01 X-1.0819 Y20.5827 F60.00
G01 X-1.1161 Y20.4700 F60.00
G01 X-1.1372 Y20.3642 F60.00
G01 X-1.1485 Y20.2519 F60.00
G01 X-1.1500 Y20.1930 F60.00
G01 X-1.1500 Y13.1965 F60.00
G00 X-1.1500 Y13.1965
G01 F60.00
G01 Z-1.5000
G01 F60.00
G01 X-1.1500 Y20.1930 F60.00
G01 X-1.1485 Y20.2519 F60.00
G01 X-1.1372 Y20.3642 F60.00
G01 X-1.1161 Y20.4700 F60.00
G01 X-1.0819 Y20.5827 F60.00
G01 X-1.0406 Y20.6825 F60.00
G01 X-0.9876 Y20.7821 F60.00
G01 X-0.9222 Y20.8800 F60.00
G01 X-0.8504 Y20.9671 F60.00
G01 X-0.7741 Y21.0434 F60.00
G01 X-0.6831 Y21.1181 F60.00
G01 X-0.5933 Y21.1781 F60.00
G01 X-0.4939 Y21.2315 F60.00
G01 X-0.3851 Y21.2766 F60.00
G01 X-0.2770 Y21.3091 F60.00
G01 X-0.1712 Y21.3302 F60.00
G01 X-0.0589 Y21.3415 F60.00
G01 X0.0000 Y21.3430 F60.00
G01 X22.2460 Y21.3430 F60.00
G00 X22.2460 Y21.3430
G01 F60.00
G01 Z-2.0000
G01 F60.00
G01 X0.0000 Y21.3430 F60.00
G01 X-0.0589 Y21.3415 F60.00
G01 X-0.1712 Y21.3302 F60.00
G01 X-0.2770 Y21.3091 F60.00
G01 X-0.3851 Y21.2766 F60.00
G01 X-0.4939 Y21.2315 F60.00
G01 X-0.5933 Y21.1781 F60.00
G01 X-0.6831 Y21.1181 F60.00
G01 X-0.7741 Y21.0434 F60.00
G01 X-0.8504 Y20.9671 F60.00
G01 X-0.9222 Y20.8800 F60.00
G01 X-0.9876 Y20.7821 F60.00
G01 X-1.0406 Y20.6825 F60.00
G01 X-1.0819 Y20.5827 F60.00
G01 X-1.1161 Y20.4700 F60.00
G01 X-1.1372 Y20.3642 F60.00
G01 X-1.1485 Y20.2519 F60.00
G01 X-1.1500 Y20.1930 F60.00
G01 X-1.1500 Y13.1965 F60.00
G00 Z3.0000
G00 X28.2460 Y21.3430
G01 F60.00
G01 Z-0.5000
G01 F60.00
G01 X50.2920 Y21.3430 F60.00
G01 X50.3509 Y21.3415 F60.00
G01 X50.4632 Y21.3302 F60.00
G01 X50.5690 Y21.3091 F60.00
G01 X50.6771 Y21.2766 F60.00
G01 X50.7859 Y21.2315 F60.00
G01 X50.8853 Y21.1781 F60.00
G01 X50.9751 Y21.1181 F60.00
G01 X51.0661 Y21.0434 F60.00
G01 X51.1424 Y20.9671 F60.00
G01 X51.2142 Y20.8800 F60.00
G01 X51.2796 Y20.7821 F60.00
G01 X51.3326 Y20.6825 F60.00
G01 X51.3739 Y20.5827 F60.00
G01 X51.4081 Y20.4700 F60.00
G01 X51.4299 Y20.3593 F60.00
G01 X51.4405 Y20.2519 F60.00
G01 X51.4420 Y20.1930 F60.00
G01 X51.4420 Y13.1965 F60.00
G00 X51.4420 Y13.1965
G01 F60.00
G01 Z-1.0000
G01 F60.00
G01 X51.4420 Y20.1930 F60.00
G01 X51.4405 Y20.2519 F60.00
G01 X51.4299 Y20.3593 F60.00
G01 X51.4081 Y20.4700 F60.00
G01 X51.3739 Y20.5827 F60.00
G01 X51.3326 Y20.6825 F60.00
G01 X51.2796 Y20.7821 F60.00
G01 X51.2142 Y20.8800 F60.00
G01 X51.1424 Y20.9671 F60.00
G01 X51.0661 Y21.0434 F60.00
G01 X50.9751 Y21.1181 F60.00
G01 X50.8853 Y21.1781 F60.00
G01 X50.7859 Y21.2315 F60.00
G01 X50.6771 Y21.2766 F60.00
G01 X50.5690 Y21.3091 F60.00
G01 X50.4632 Y21.3302 F60.00
G01 X50.3509 Y21.3415 F60.00
G01 X50.2920 Y21.3430 F60.00
G01 X28.2460 Y21.3430 F60.00
G00 X28.2460 Y21.3430
G01 F60.00
G01 Z-1.5000
G01 F60.00
G01 X50.2920 Y21.3430 F60.00
G01 X50.3509 Y21.3415 F60.00
G01 X50.4632 Y21.3302 F60.00
G01 X50.5690 Y21.3091 F60.00
G01 X50.6771 Y21.2766 F60.00
G01 X50.7859 Y21.2315 F60.00
G01 X50.8853 Y21.1781 F60.00
G01 X50.9751 Y21.1181 F60.00
G01 X51.0661 Y21.0434 F60.00
G01 X51.1424 Y20.9671 F60.00
G01 X51.2142 Y20.8800 F60.00
G01 X51.2796 Y20.7821 F60.00
G01 X51.3326 Y20.6825 F60.00
G01 X51.3739 Y20.5827 F60.00
G01 X51.4081 Y20.4700 F60.00
G01 X51.4299 Y20.3593 F60.00
G01 X51.4405 Y20.2519 F60.00
G01 X51.4420 Y20.1930 F60.00
G01 X51.4420 Y13.1965 F60.00
G00 X51.4420 Y13.1965
G01 F60.00
G01 Z-2.0000
G01 F60.00
G01 X51.4420 Y20.1930 F60.00
G01 X51.4405 Y20.2519 F60.00
G01 X51.4299 Y20.3593 F60.00
G01 X51.4081 Y20.4700 F60.00
G01 X51.3739 Y20.5827 F60.00
G01 X51.3326 Y20.6825 F60.00
G01 X51.2796 Y20.7821 F60.00
G01 X51.2142 Y20.8800 F60.00
G01 X51.1424 Y20.9671 F60.00
G01 X51.0661 Y21.0434 F60.00
G01 X50.9751 Y21.1181 F60.00
G01 X50.8853 Y21.1781 F60.00
G01 X50.7859 Y21.2315 F60.00
G01 X50.6771 Y21.2766 F60.00
G01 X50.5690 Y21.3091 F60.00
G01 X50.4632 Y21.3302 F60.00
G01 X50.3509 Y21.3415 F60.00
G01 X50.2920 Y21.3430 F60.00
G01 X28.2460 Y21.3430 F60.00
G00 Z3.0000
G00 X51.4420 Y7.1965
G01 F60.00
G01 Z-0.5000
G01 F60.00
G01 X51.4420 Y0.0000 F60.00
G01 X51.4405 Y-0.0589 F60.00
G01 X51.4292 Y-0.1712 F60.00
G01 X51.4081 Y-0.2770 F60.00
G01 X51.3739 Y-0.3897 F60.00
G01 X51.3326 Y-0.4895 F60.00
G01 X51.2796 Y-0.5891 F60.00
G01 X51.2171 Y-0.6831 F60.00
G01 X51.1424 Y-0.7741 F60.00
G01 X51.0661 Y-0.8504 F60.00
G01 X50.9790 Y-0.9222 F60.00
G01 X50.8811 Y-0.9876 F60.00
G01 X50.7815 Y-1.0406 F60.00
G01 X50.6817 Y-1.0819 F60.00
G01 X50.5738 Y-1.1149 F60.00
G01 X50.4632 Y-1.1372 F60.00
G01 X50.3509 Y-1.1485 F60.00
G01 X50.2920 Y-1.1500 F60.00
G01 X28.2460 Y-1.1500 F60.00
G00 X28.2460 Y-1.1500
G01 F60.00
G01 Z-1.0000
G01 F60.00
G01 X50.2920 Y-1.1500 F60.00
G01 X50.3509 Y-1.1485 F60.00
G01 X50.4632 Y-1.1372 F60.00
G01 X50.5738 Y-1.1149 F60.00
G01 X50.6817 Y-1.0819 F60.00
G01 X50.7815 Y-1.0406 F60.00
G01 X50.8811 Y-0.9876 F60.00
G01 X50.9790 Y-0.9222 F60.00
G01 X51.0661 Y-0.8504 F60.00
G01 X51.1424 Y-0.7741 F60.00
G01 X51.2171 Y-0.6831 F60.00
G01 X51.2796 Y-0.5891 F60.00
G01 X51.3326 Y-0.4895 F60.00
G01 X51.3739 Y-0.3897 F60.00
G01 X51.4081 Y-0.2770 F60.00
G01 X51.4292 Y-0.1712 F60.00
G01 X51.4405 Y-0.0589 F60.00
G01 X51.4420 Y0.0000 F60.00
G01 X51.4420 Y7.1965 F60.00
G00 X51.4420 Y7.1965
G01 F60.00
G01 Z-1.5000
G01 F60.00
G01 X51.4420 Y0.0000 F60.00
G01 X51.4405 Y-0.0589 F60.00
G01 X51.4292 Y-0.1712 F60.00
G01 X51.4081 Y-0.2770 F60.00
G01 X51.3739 Y-0.3897 F60.00
G01 X51.3326 Y-0.4895 F60.00
G01 X51.2796 Y-0.5891 F60.00
G01 X51.2171 Y-0.6831 F60.00
G01 X51.1424 Y-0.7741 F60.00
G01 X51.0661 Y-0.8504 F60.00
G01 X50.9790 Y-0.9222 F60.00
G01 X50.8811 Y-0.9876 F60.00
G01 X50.7815 Y-1.0406 F60.00
G01 X50.6817 Y-1.0819 F60.00
G01 X50.5738 Y-1.1149 F60.00
G01 X50.4632 Y-1.1372 F60.00
G01 X50.3509 Y-1.1485 F60.00
G01 X50.2920 Y-1.1500 F60.00
G01 X28.2460 Y-1.1500 F60.00
G00 X28.2460 Y-1.1500
G01 F60.00
G01 Z-2.0000
G01 F60.00
G01 X50.2920 Y-1.1500 F60.00
G01 X50.3509 Y-1.1485 F60.00
G01 X50.4632 Y-1.1372 F60.00
G01 X50.5738 Y-1.1149 F60.00
G01 X50.6817 Y-1.0819 F60.00
G01 X50.7815 Y-1.0406 F60.00
G01 X50.8811 Y-0.9876 F60.00
G01 X50.9790 Y-0.9222 F60.00
G01 X51.0661 Y-0.8504 F60.00
G01 X51.1424 Y-0.7741 F60.00
G01 X51.2171 Y-0.6831 F60.00
G01 X51.2796 Y-0.5891 F60.00
G01 X51.3326 Y-0.4895 F60.00
G01 X51.3739 Y-0.3897 F60.00
G01 X51.4081 Y-0.2770 F60.00
G01 X51.4292 Y-0.1712 F60.00
G01 X51.4405 Y-0.0589 F60.00
G01 X51.4420 Y0.0000 F60.00
G01 X51.4420 Y7.1965 F60.00
G00 Z3.0000
M05
G00 Z3.0000
G00 Z3.00
G00 X0.0 Y0.0


