(G-CODE GENERATED BY FLATCAM v8.994 - www.flatcam.org - Version Date: 2020/11/7)

(Name: pcb1.gbl_iso_combined_cnc)
(Type: G-code from Geometry)
(Units: MM)

(Created on Tuesday, 12 September 2023 at 21:53)

(This preprocessor is used with a motion controller loaded with GRBL firmware.)
(It is configured to be compatible with almost any version of GRBL firmware.)

(TOOL DIAMETER: 0.2132 mm)
(Feedrate_XY: 60.0 mm/min)
(Feedrate_Z: 60.0 mm/min)
(Feedrate rapids 1500.0 mm/min)

(Z_Cut: -0.098 mm)
(Z_Move: 3.0 mm)
(Z Start: None mm)
(Z End: 3.0 mm)
(X,Y End: 0.0000, 0.0000 mm)
(Steps per circle: 64)
(Steps per circle: 64)
(Preprocessor Geometry: grbl_11)

(X range:    3.4439 ...   47.9671  mm)
(Y range:    0.2335 ...   20.2857  mm)

(Spindle Speed: 1000000.0 RPM)
G21
G90
G17
G94


G01 F60.00

M5             
G00 Z5.0000
G00 X0.0000 Y0.0000                
T2
M6
(MSG, Change to Tool Dia = 0.2132)
M0
G00 Z5.0000

M03 S1000000.0
G01 F60.00
G00 X6.8901 Y2.0466
G01 F60.00
G01 Z-0.0980
G01 F60.00
G01 X6.8897 Y2.0320 F60.00
G01 X6.8901 Y2.0174 F60.00
G01 X6.8973 Y1.8703 F60.00
G01 X6.8984 Y1.8557 F60.00
G01 X6.9002 Y1.8412 F60.00
G01 X6.9218 Y1.6956 F60.00
G01 X6.9243 Y1.6811 F60.00
G01 X6.9275 Y1.6668 F60.00
G01 X6.9633 Y1.5240 F60.00
G01 X6.9672 Y1.5099 F60.00
G01 X6.9718 Y1.4960 F60.00
G01 X7.0214 Y1.3574 F60.00
G01 X7.0266 Y1.3438 F60.00
G01 X7.0326 Y1.3304 F60.00
G01 X7.0955 Y1.1973 F60.00
G01 X7.1021 Y1.1842 F60.00
G01 X7.1093 Y1.1715 F60.00
G01 X7.1850 Y1.0452 F60.00
G01 X7.1928 Y1.0328 F60.00
G01 X7.2013 Y1.0208 F60.00
G01 X7.2889 Y0.9026 F60.00
G01 X7.2980 Y0.8911 F60.00
G01 X7.3075 Y0.8800 F60.00
G01 X7.4064 Y0.7709 F60.00
G01 X7.4165 Y0.7603 F60.00
G01 X7.4271 Y0.7502 F60.00
G01 X7.5362 Y0.6513 F60.00
G01 X7.5473 Y0.6418 F60.00
G01 X7.5588 Y0.6327 F60.00
G01 X7.6770 Y0.5451 F60.00
G01 X7.6890 Y0.5366 F60.00
G01 X7.7014 Y0.5288 F60.00
G01 X7.8277 Y0.4531 F60.00
G01 X7.8404 Y0.4459 F60.00
G01 X7.8535 Y0.4393 F60.00
G01 X7.9866 Y0.3764 F60.00
G01 X8.0000 Y0.3704 F60.00
G01 X8.0136 Y0.3652 F60.00
G01 X8.1522 Y0.3156 F60.00
G01 X8.1661 Y0.3110 F60.00
G01 X8.1802 Y0.3071 F60.00
G01 X8.3230 Y0.2713 F60.00
G01 X8.3373 Y0.2681 F60.00
G01 X8.3518 Y0.2656 F60.00
G01 X8.4974 Y0.2440 F60.00
G01 X8.5119 Y0.2422 F60.00
G01 X8.5265 Y0.2411 F60.00
G01 X8.6736 Y0.2339 F60.00
G01 X8.6882 Y0.2335 F60.00
G01 X8.7028 Y0.2339 F60.00
G01 X8.8499 Y0.2411 F60.00
G01 X8.8645 Y0.2422 F60.00
G01 X8.8790 Y0.2440 F60.00
G01 X9.0246 Y0.2656 F60.00
G01 X9.0391 Y0.2681 F60.00
G01 X9.0534 Y0.2713 F60.00
G01 X9.1961 Y0.3071 F60.00
G01 X9.2103 Y0.3110 F60.00
G01 X9.2242 Y0.3156 F60.00
G01 X9.3628 Y0.3652 F60.00
G01 X9.3764 Y0.3704 F60.00
G01 X9.3898 Y0.3764 F60.00
G01 X9.5229 Y0.4393 F60.00
G01 X9.5360 Y0.4459 F60.00
G01 X9.5487 Y0.4531 F60.00
G01 X9.6750 Y0.5288 F60.00
G01 X9.6874 Y0.5366 F60.00
G01 X9.6994 Y0.5451 F60.00
G01 X9.8176 Y0.6327 F60.00
G01 X9.8291 Y0.6418 F60.00
G01 X9.8402 Y0.6513 F60.00
G01 X9.9493 Y0.7502 F60.00
G01 X9.9599 Y0.7603 F60.00
G01 X9.9700 Y0.7709 F60.00
G01 X10.0689 Y0.8800 F60.00
G01 X10.0784 Y0.8911 F60.00
G01 X10.0874 Y0.9026 F60.00
G01 X10.1751 Y1.0208 F60.00
G01 X10.1836 Y1.0328 F60.00
G01 X10.1914 Y1.0452 F60.00
G01 X10.2671 Y1.1715 F60.00
G01 X10.2743 Y1.1842 F60.00
G01 X10.2809 Y1.1973 F60.00
G01 X10.3438 Y1.3304 F60.00
G01 X10.3498 Y1.3438 F60.00
G01 X10.3550 Y1.3574 F60.00
G01 X10.4046 Y1.4960 F60.00
G01 X10.4092 Y1.5099 F60.00
G01 X10.4131 Y1.5240 F60.00
G01 X10.4489 Y1.6668 F60.00
G01 X10.4521 Y1.6811 F60.00
G01 X10.4546 Y1.6956 F60.00
G01 X10.4762 Y1.8412 F60.00
G01 X10.4780 Y1.8557 F60.00
G01 X10.4791 Y1.8703 F60.00
G01 X10.4863 Y2.0174 F60.00
G01 X10.4867 Y2.0320 F60.00
G01 X10.4863 Y2.0466 F60.00
G01 X10.4791 Y2.1937 F60.00
G01 X10.4780 Y2.2083 F60.00
G01 X10.4762 Y2.2228 F60.00
G01 X10.4546 Y2.3684 F60.00
G01 X10.4521 Y2.3829 F60.00
G01 X10.4489 Y2.3972 F60.00
G01 X10.4131 Y2.5400 F60.00
G01 X10.4092 Y2.5541 F60.00
G01 X10.4046 Y2.5680 F60.00
G01 X10.3550 Y2.7066 F60.00
G01 X10.3498 Y2.7202 F60.00
G01 X10.3438 Y2.7336 F60.00
G01 X10.2809 Y2.8667 F60.00
G01 X10.2743 Y2.8798 F60.00
G01 X10.2671 Y2.8925 F60.00
G01 X10.1914 Y3.0188 F60.00
G01 X10.1836 Y3.0312 F60.00
G01 X10.1751 Y3.0432 F60.00
G01 X10.0874 Y3.1614 F60.00
G01 X10.0784 Y3.1729 F60.00
G01 X10.0689 Y3.1840 F60.00
G01 X9.9700 Y3.2931 F60.00
G01 X9.9599 Y3.3037 F60.00
G01 X9.9493 Y3.3138 F60.00
G01 X9.8402 Y3.4127 F60.00
G01 X9.8291 Y3.4222 F60.00
G01 X9.8176 Y3.4313 F60.00
G01 X9.6994 Y3.5189 F60.00
G01 X9.6874 Y3.5274 F60.00
G01 X9.6750 Y3.5352 F60.00
G01 X9.5487 Y3.6109 F60.00
G01 X9.5360 Y3.6181 F60.00
G01 X9.5229 Y3.6247 F60.00
G01 X9.3898 Y3.6876 F60.00
G01 X9.3764 Y3.6936 F60.00
G01 X9.3628 Y3.6988 F60.00
G01 X9.2242 Y3.7484 F60.00
G01 X9.2103 Y3.7530 F60.00
G01 X9.1961 Y3.7569 F60.00
G01 X9.0534 Y3.7927 F60.00
G01 X9.0391 Y3.7959 F60.00
G01 X9.0246 Y3.7984 F60.00
G01 X8.8790 Y3.8200 F60.00
G01 X8.8645 Y3.8218 F60.00
G01 X8.8499 Y3.8229 F60.00
G01 X8.7028 Y3.8301 F60.00
G01 X8.6882 Y3.8305 F60.00
G01 X8.6736 Y3.8301 F60.00
G01 X8.5265 Y3.8229 F60.00
G01 X8.5119 Y3.8218 F60.00
G01 X8.4974 Y3.8200 F60.00
G01 X8.3518 Y3.7984 F60.00
G01 X8.3373 Y3.7959 F60.00
G01 X8.3230 Y3.7927 F60.00
G01 X8.1802 Y3.7569 F60.00
G01 X8.1661 Y3.7530 F60.00
G01 X8.1522 Y3.7484 F60.00
G01 X8.0136 Y3.6988 F60.00
G01 X8.0000 Y3.6936 F60.00
G01 X7.9866 Y3.6876 F60.00
G01 X7.8535 Y3.6247 F60.00
G01 X7.8404 Y3.6181 F60.00
G01 X7.8277 Y3.6109 F60.00
G01 X7.7014 Y3.5352 F60.00
G01 X7.6890 Y3.5274 F60.00
G01 X7.6770 Y3.5189 F60.00
G01 X7.5588 Y3.4313 F60.00
G01 X7.5473 Y3.4222 F60.00
G01 X7.5362 Y3.4127 F60.00
G01 X7.4271 Y3.3138 F60.00
G01 X7.4165 Y3.3037 F60.00
G01 X7.4064 Y3.2931 F60.00
G01 X7.3075 Y3.1840 F60.00
G01 X7.2980 Y3.1729 F60.00
G01 X7.2889 Y3.1614 F60.00
G01 X7.2013 Y3.0432 F60.00
G01 X7.1928 Y3.0312 F60.00
G01 X7.1850 Y3.0188 F60.00
G01 X7.1093 Y2.8925 F60.00
G01 X7.1021 Y2.8798 F60.00
G01 X7.0955 Y2.8667 F60.00
G01 X7.0326 Y2.7336 F60.00
G01 X7.0266 Y2.7202 F60.00
G01 X7.0214 Y2.7066 F60.00
G01 X6.9718 Y2.5680 F60.00
G01 X6.9672 Y2.5541 F60.00
G01 X6.9633 Y2.5400 F60.00
G01 X6.9275 Y2.3972 F60.00
G01 X6.9243 Y2.3829 F60.00
G01 X6.9218 Y2.3684 F60.00
G01 X6.9002 Y2.2228 F60.00
G01 X6.8984 Y2.2083 F60.00
G01 X6.8973 Y2.1937 F60.00
G01 X6.8901 Y2.0466 F60.00
G00 Z3.0000
G00 X7.0817 Y2.0372
G01 F60.00
G01 Z-0.0980
G01 F60.00
G01 X7.0817 Y2.0268 F60.00
G01 X7.0893 Y1.8745 F60.00
G01 X7.1125 Y1.7186 F60.00
G01 X7.1508 Y1.5656 F60.00
G01 X7.2039 Y1.4172 F60.00
G01 X7.2713 Y1.2747 F60.00
G01 X7.3524 Y1.1394 F60.00
G01 X7.4463 Y1.0128 F60.00
G01 X7.5522 Y0.8960 F60.00
G01 X7.6690 Y0.7901 F60.00
G01 X7.7956 Y0.6962 F60.00
G01 X7.9309 Y0.6151 F60.00
G01 X8.0734 Y0.5477 F60.00
G01 X8.2218 Y0.4946 F60.00
G01 X8.3748 Y0.4563 F60.00
G01 X8.5307 Y0.4331 F60.00
G01 X8.6882 Y0.4254 F60.00
G01 X8.8457 Y0.4331 F60.00
G01 X9.0016 Y0.4563 F60.00
G01 X9.1546 Y0.4946 F60.00
G01 X9.3030 Y0.5477 F60.00
G01 X9.4455 Y0.6151 F60.00
G01 X9.5808 Y0.6962 F60.00
G01 X9.7074 Y0.7901 F60.00
G01 X9.8242 Y0.8960 F60.00
G01 X9.9301 Y1.0128 F60.00
G01 X10.0240 Y1.1394 F60.00
G01 X10.1051 Y1.2747 F60.00
G01 X10.1725 Y1.4172 F60.00
G01 X10.2256 Y1.5656 F60.00
G01 X10.2639 Y1.7186 F60.00
G01 X10.2871 Y1.8745 F60.00
G01 X10.2948 Y2.0320 F60.00
G01 X10.2871 Y2.1895 F60.00
G01 X10.2639 Y2.3454 F60.00
G01 X10.2256 Y2.4984 F60.00
G01 X10.1725 Y2.6468 F60.00
G01 X10.1051 Y2.7893 F60.00
G01 X10.0240 Y2.9246 F60.00
G01 X9.9301 Y3.0512 F60.00
G01 X9.8242 Y3.1680 F60.00
G01 X9.7074 Y3.2739 F60.00
G01 X9.5808 Y3.3678 F60.00
G01 X9.4455 Y3.4489 F60.00
G01 X9.3030 Y3.5163 F60.00
G01 X9.1546 Y3.5694 F60.00
G01 X9.0016 Y3.6077 F60.00
G01 X8.8457 Y3.6309 F60.00
G01 X8.6882 Y3.6386 F60.00
G01 X8.5307 Y3.6309 F60.00
G01 X8.3748 Y3.6077 F60.00
G01 X8.2218 Y3.5694 F60.00
G01 X8.0734 Y3.5163 F60.00
G01 X7.9309 Y3.4489 F60.00
G01 X7.7956 Y3.3678 F60.00
G01 X7.6690 Y3.2739 F60.00
G01 X7.5522 Y3.1680 F60.00
G01 X7.4463 Y3.0512 F60.00
G01 X7.3524 Y2.9246 F60.00
G01 X7.2713 Y2.7893 F60.00
G01 X7.2039 Y2.6468 F60.00
G01 X7.1508 Y2.4984 F60.00
G01 X7.1125 Y2.3454 F60.00
G01 X7.0893 Y2.1895 F60.00
G01 X7.0817 Y2.0372 F60.00
G00 Z3.0000
G00 X6.8742 Y5.1143
G01 F60.00
G01 Z-0.0980
G01 F60.00
G01 X10.3989 Y5.1143 F60.00
G01 X12.3166 Y3.1966 F60.00
G01 X12.3319 Y3.1816 F60.00
G01 X12.3477 Y3.1670 F60.00
G01 X12.4547 Y3.0704 F60.00
G01 X12.4711 Y3.0566 F60.00
G01 X12.4878 Y3.0431 F60.00
G01 X12.5049 Y3.0302 F60.00
G01 X12.6035 Y2.9570 F60.00
G01 X12.6209 Y2.9445 F60.00
G01 X12.6386 Y2.9323 F60.00
G01 X12.6565 Y2.9206 F60.00
G01 X12.6748 Y2.9094 F60.00
G01 X12.7801 Y2.8463 F60.00
G01 X12.7986 Y2.8355 F60.00
G01 X12.8174 Y2.8251 F60.00
G01 X12.8364 Y2.8153 F60.00
G01 X12.8557 Y2.8059 F60.00
G01 X12.9667 Y2.7534 F60.00
G01 X12.9862 Y2.7444 F60.00
G01 X13.0059 Y2.7360 F60.00
G01 X13.0258 Y2.7280 F60.00
G01 X13.0459 Y2.7206 F60.00
G01 X13.1615 Y2.6792 F60.00
G01 X13.1818 Y2.6722 F60.00
G01 X13.2022 Y2.6658 F60.00
G01 X13.2228 Y2.6598 F60.00
G01 X13.2436 Y2.6543 F60.00
G01 X13.3835 Y2.6195 F60.00
G01 X13.4045 Y2.6151 F60.00
G01 X13.4256 Y2.6112 F60.00
G01 X13.5682 Y2.5897 F60.00
G01 X13.5894 Y2.5869 F60.00
G01 X13.6107 Y2.5845 F60.00
G01 X13.6321 Y2.5827 F60.00
G01 X13.6535 Y2.5813 F60.00
G01 X13.7975 Y2.5745 F60.00
G01 X13.8190 Y2.5743 F60.00
G01 X16.9432 Y2.5743 F60.00
G01 X16.9646 Y2.5745 F60.00
G01 X16.9861 Y2.5753 F60.00
G01 X17.1087 Y2.5813 F60.00
G01 X17.1301 Y2.5827 F60.00
G01 X17.1515 Y2.5845 F60.00
G01 X17.1728 Y2.5869 F60.00
G01 X17.1940 Y2.5897 F60.00
G01 X17.3154 Y2.6078 F60.00
G01 X17.3366 Y2.6112 F60.00
G01 X17.3577 Y2.6151 F60.00
G01 X17.3787 Y2.6195 F60.00
G01 X17.3996 Y2.6245 F60.00
G01 X17.5186 Y2.6543 F60.00
G01 X17.5394 Y2.6598 F60.00
G01 X17.5600 Y2.6658 F60.00
G01 X17.5804 Y2.6722 F60.00
G01 X17.6007 Y2.6792 F60.00
G01 X17.7364 Y2.7280 F60.00
G01 X17.7563 Y2.7360 F60.00
G01 X17.7760 Y2.7444 F60.00
G01 X17.9065 Y2.8059 F60.00
G01 X17.9257 Y2.8153 F60.00
G01 X17.9448 Y2.8251 F60.00
G01 X17.9636 Y2.8355 F60.00
G01 X17.9821 Y2.8463 F60.00
G01 X18.0874 Y2.9094 F60.00
G01 X18.1057 Y2.9206 F60.00
G01 X18.1236 Y2.9323 F60.00
G01 X18.1413 Y2.9445 F60.00
G01 X18.1587 Y2.9570 F60.00
G01 X18.2573 Y3.0302 F60.00
G01 X18.2744 Y3.0431 F60.00
G01 X18.2911 Y3.0566 F60.00
G01 X18.3075 Y3.0704 F60.00
G01 X18.3236 Y3.0846 F60.00
G01 X18.4145 Y3.1670 F60.00
G01 X18.4303 Y3.1816 F60.00
G01 X18.4456 Y3.1966 F60.00
G01 X18.4606 Y3.2119 F60.00
G01 X18.4752 Y3.2277 F60.00
G01 X18.5576 Y3.3186 F60.00
G01 X18.5718 Y3.3347 F60.00
G01 X18.5856 Y3.3511 F60.00
G01 X18.5990 Y3.3678 F60.00
G01 X18.6851 Y3.4835 F60.00
G01 X18.6977 Y3.5009 F60.00
G01 X18.7099 Y3.5186 F60.00
G01 X18.7216 Y3.5365 F60.00
G01 X18.7328 Y3.5548 F60.00
G01 X18.7959 Y3.6601 F60.00
G01 X18.8067 Y3.6786 F60.00
G01 X18.8171 Y3.6974 F60.00
G01 X18.8269 Y3.7164 F60.00
G01 X18.8363 Y3.7357 F60.00
G01 X18.8888 Y3.8467 F60.00
G01 X18.8977 Y3.8662 F60.00
G01 X18.9062 Y3.8859 F60.00
G01 X18.9142 Y3.9058 F60.00
G01 X18.9630 Y4.0415 F60.00
G01 X18.9700 Y4.0618 F60.00
G01 X18.9764 Y4.0822 F60.00
G01 X18.9824 Y4.1028 F60.00
G01 X18.9879 Y4.1236 F60.00
G01 X19.0227 Y4.2635 F60.00
G01 X19.0271 Y4.2845 F60.00
G01 X19.0310 Y4.3056 F60.00
G01 X19.0344 Y4.3268 F60.00
G01 X19.0525 Y4.4482 F60.00
G01 X19.0553 Y4.4694 F60.00
G01 X19.0577 Y4.4907 F60.00
G01 X19.0595 Y4.5121 F60.00
G01 X19.0609 Y4.5335 F60.00
G01 X19.0677 Y4.6775 F60.00
G01 X19.0679 Y4.6990 F60.00
G01 X19.0677 Y4.7205 F60.00
G01 X19.0669 Y4.7419 F60.00
G01 X19.0609 Y4.8645 F60.00
G01 X19.0595 Y4.8859 F60.00
G01 X19.0577 Y4.9073 F60.00
G01 X19.0553 Y4.9286 F60.00
G01 X19.0525 Y4.9498 F60.00
G01 X19.0310 Y5.0924 F60.00
G01 X19.0271 Y5.1135 F60.00
G01 X19.0227 Y5.1345 F60.00
G01 X19.0177 Y5.1554 F60.00
G01 X18.9879 Y5.2744 F60.00
G01 X18.9824 Y5.2952 F60.00
G01 X18.9764 Y5.3158 F60.00
G01 X18.9700 Y5.3362 F60.00
G01 X18.9630 Y5.3565 F60.00
G01 X18.9216 Y5.4721 F60.00
G01 X18.9142 Y5.4922 F60.00
G01 X18.9062 Y5.5121 F60.00
G01 X18.8977 Y5.5318 F60.00
G01 X18.8363 Y5.6623 F60.00
G01 X18.8269 Y5.6816 F60.00
G01 X18.8171 Y5.7006 F60.00
G01 X18.8067 Y5.7194 F60.00
G01 X18.7959 Y5.7379 F60.00
G01 X18.7216 Y5.8615 F60.00
G01 X18.7099 Y5.8794 F60.00
G01 X18.6977 Y5.8971 F60.00
G01 X18.6851 Y5.9145 F60.00
G01 X18.6120 Y6.0131 F60.00
G01 X18.5990 Y6.0302 F60.00
G01 X18.5856 Y6.0469 F60.00
G01 X18.5718 Y6.0633 F60.00
G01 X18.5576 Y6.0794 F60.00
G01 X18.4752 Y6.1703 F60.00
G01 X18.4606 Y6.1861 F60.00
G01 X18.4456 Y6.2014 F60.00
G01 X18.4303 Y6.2164 F60.00
G01 X18.3236 Y6.3134 F60.00
G01 X18.3075 Y6.3276 F60.00
G01 X18.2911 Y6.3414 F60.00
G01 X18.2744 Y6.3549 F60.00
G01 X18.2573 Y6.3678 F60.00
G01 X18.1587 Y6.4410 F60.00
G01 X18.1413 Y6.4535 F60.00
G01 X18.1236 Y6.4657 F60.00
G01 X18.1057 Y6.4774 F60.00
G01 X18.0874 Y6.4886 F60.00
G01 X17.9636 Y6.5625 F60.00
G01 X17.9448 Y6.5729 F60.00
G01 X17.9257 Y6.5827 F60.00
G01 X17.9065 Y6.5921 F60.00
G01 X17.7955 Y6.6446 F60.00
G01 X17.7760 Y6.6536 F60.00
G01 X17.7563 Y6.6620 F60.00
G01 X17.7364 Y6.6700 F60.00
G01 X17.7163 Y6.6774 F60.00
G01 X17.6007 Y6.7188 F60.00
G01 X17.5804 Y6.7258 F60.00
G01 X17.5600 Y6.7322 F60.00
G01 X17.5394 Y6.7382 F60.00
G01 X17.3996 Y6.7735 F60.00
G01 X17.3787 Y6.7785 F60.00
G01 X17.3577 Y6.7829 F60.00
G01 X17.3366 Y6.7868 F60.00
G01 X17.3154 Y6.7902 F60.00
G01 X17.1940 Y6.8083 F60.00
G01 X17.1728 Y6.8111 F60.00
G01 X17.1515 Y6.8135 F60.00
G01 X17.1301 Y6.8153 F60.00
G01 X17.1087 Y6.8167 F60.00
G01 X16.9861 Y6.8227 F60.00
G01 X16.9646 Y6.8235 F60.00
G01 X16.9432 Y6.8237 F60.00
G01 X14.6991 Y6.8237 F60.00
G01 X12.7814 Y8.7414 F60.00
G01 X12.7661 Y8.7564 F60.00
G01 X12.7503 Y8.7710 F60.00
G01 X12.6433 Y8.8676 F60.00
G01 X12.6269 Y8.8814 F60.00
G01 X12.6102 Y8.8949 F60.00
G01 X12.5931 Y8.9078 F60.00
G01 X12.4945 Y8.9810 F60.00
G01 X12.4771 Y8.9935 F60.00
G01 X12.4594 Y9.0057 F60.00
G01 X12.4415 Y9.0174 F60.00
G01 X12.4232 Y9.0286 F60.00
G01 X12.3179 Y9.0917 F60.00
G01 X12.2994 Y9.1025 F60.00
G01 X12.2806 Y9.1129 F60.00
G01 X12.2615 Y9.1227 F60.00
G01 X12.2423 Y9.1321 F60.00
G01 X12.1313 Y9.1846 F60.00
G01 X12.1118 Y9.1936 F60.00
G01 X12.0921 Y9.2020 F60.00
G01 X12.0722 Y9.2100 F60.00
G01 X12.0521 Y9.2174 F60.00
G01 X11.9162 Y9.2658 F60.00
G01 X11.8958 Y9.2722 F60.00
G01 X11.8752 Y9.2782 F60.00
G01 X11.7354 Y9.3135 F60.00
G01 X11.7145 Y9.3185 F60.00
G01 X11.6935 Y9.3229 F60.00
G01 X11.6724 Y9.3268 F60.00
G01 X11.6512 Y9.3302 F60.00
G01 X11.5298 Y9.3483 F60.00
G01 X11.5086 Y9.3511 F60.00
G01 X11.4873 Y9.3535 F60.00
G01 X11.4659 Y9.3553 F60.00
G01 X11.4445 Y9.3567 F60.00
G01 X11.3004 Y9.3635 F60.00
G01 X11.2790 Y9.3637 F60.00
G01 X6.8742 Y9.3637 F60.00
G01 X6.7658 Y9.4150 F60.00
G01 X6.7462 Y9.4239 F60.00
G01 X6.7265 Y9.4324 F60.00
G01 X6.7066 Y9.4404 F60.00
G01 X6.6865 Y9.4478 F60.00
G01 X6.5479 Y9.4974 F60.00
G01 X6.5276 Y9.5044 F60.00
G01 X6.5072 Y9.5109 F60.00
G01 X6.4866 Y9.5169 F60.00
G01 X6.4658 Y9.5223 F60.00
G01 X6.3022 Y9.5631 F60.00
G01 X6.2812 Y9.5675 F60.00
G01 X6.2601 Y9.5714 F60.00
G01 X6.2389 Y9.5748 F60.00
G01 X6.0933 Y9.5964 F60.00
G01 X6.0720 Y9.5993 F60.00
G01 X6.0507 Y9.6017 F60.00
G01 X6.0293 Y9.6035 F60.00
G01 X6.0079 Y9.6048 F60.00
G01 X5.8609 Y9.6121 F60.00
G01 X5.8394 Y9.6129 F60.00
G01 X5.8180 Y9.6131 F60.00
G01 X5.7965 Y9.6129 F60.00
G01 X5.7751 Y9.6121 F60.00
G01 X5.6281 Y9.6048 F60.00
G01 X5.6067 Y9.6035 F60.00
G01 X5.5853 Y9.6017 F60.00
G01 X5.5640 Y9.5993 F60.00
G01 X5.5427 Y9.5964 F60.00
G01 X5.3971 Y9.5748 F60.00
G01 X5.3759 Y9.5714 F60.00
G01 X5.3548 Y9.5675 F60.00
G01 X5.3338 Y9.5631 F60.00
G01 X5.3130 Y9.5581 F60.00
G01 X5.1702 Y9.5223 F60.00
G01 X5.1494 Y9.5169 F60.00
G01 X5.1288 Y9.5109 F60.00
G01 X5.1084 Y9.5044 F60.00
G01 X5.0881 Y9.4974 F60.00
G01 X4.9495 Y9.4478 F60.00
G01 X4.9294 Y9.4404 F60.00
G01 X4.9095 Y9.4324 F60.00
G01 X4.8897 Y9.4239 F60.00
G01 X4.7372 Y9.3521 F60.00
G01 X4.7179 Y9.3427 F60.00
G01 X4.6988 Y9.3328 F60.00
G01 X4.6801 Y9.3224 F60.00
G01 X4.6615 Y9.3116 F60.00
G01 X4.5353 Y9.2360 F60.00
G01 X4.5170 Y9.2247 F60.00
G01 X4.4990 Y9.2130 F60.00
G01 X4.4813 Y9.2009 F60.00
G01 X4.4639 Y9.1883 F60.00
G01 X4.3457 Y9.1006 F60.00
G01 X4.3286 Y9.0876 F60.00
G01 X4.3119 Y9.0742 F60.00
G01 X4.2955 Y9.0604 F60.00
G01 X4.2794 Y9.0462 F60.00
G01 X4.1703 Y8.9473 F60.00
G01 X4.1546 Y8.9327 F60.00
G01 X4.1392 Y8.9178 F60.00
G01 X4.1243 Y8.9024 F60.00
G01 X4.1097 Y8.8867 F60.00
G01 X4.0108 Y8.7776 F60.00
G01 X3.9966 Y8.7615 F60.00
G01 X3.9828 Y8.7451 F60.00
G01 X3.9694 Y8.7284 F60.00
G01 X3.9564 Y8.7113 F60.00
G01 X3.8687 Y8.5931 F60.00
G01 X3.8561 Y8.5757 F60.00
G01 X3.8440 Y8.5580 F60.00
G01 X3.8323 Y8.5400 F60.00
G01 X3.8210 Y8.5217 F60.00
G01 X3.7454 Y8.3955 F60.00
G01 X3.7346 Y8.3769 F60.00
G01 X3.7242 Y8.3581 F60.00
G01 X3.7143 Y8.3391 F60.00
G01 X3.7049 Y8.3198 F60.00
G01 X3.6420 Y8.1868 F60.00
G01 X3.6331 Y8.1673 F60.00
G01 X3.6246 Y8.1475 F60.00
G01 X3.6166 Y8.1276 F60.00
G01 X3.6092 Y8.1075 F60.00
G01 X3.5596 Y7.9689 F60.00
G01 X3.5526 Y7.9486 F60.00
G01 X3.5461 Y7.9282 F60.00
G01 X3.5401 Y7.9076 F60.00
G01 X3.5347 Y7.8868 F60.00
G01 X3.4989 Y7.7440 F60.00
G01 X3.4939 Y7.7232 F60.00
G01 X3.4895 Y7.7022 F60.00
G01 X3.4856 Y7.6811 F60.00
G01 X3.4822 Y7.6599 F60.00
G01 X3.4606 Y7.5143 F60.00
G01 X3.4577 Y7.4930 F60.00
G01 X3.4553 Y7.4717 F60.00
G01 X3.4535 Y7.4503 F60.00
G01 X3.4522 Y7.4289 F60.00
G01 X3.4449 Y7.2819 F60.00
G01 X3.4441 Y7.2605 F60.00
G01 X3.4439 Y7.2390 F60.00
G01 X3.4441 Y7.2175 F60.00
G01 X3.4449 Y7.1961 F60.00
G01 X3.4522 Y7.0491 F60.00
G01 X3.4535 Y7.0277 F60.00
G01 X3.4553 Y7.0063 F60.00
G01 X3.4577 Y6.9850 F60.00
G01 X3.4606 Y6.9637 F60.00
G01 X3.4822 Y6.8181 F60.00
G01 X3.4856 Y6.7969 F60.00
G01 X3.4895 Y6.7758 F60.00
G01 X3.4939 Y6.7548 F60.00
G01 X3.4989 Y6.7340 F60.00
G01 X3.5347 Y6.5912 F60.00
G01 X3.5401 Y6.5704 F60.00
G01 X3.5461 Y6.5498 F60.00
G01 X3.5526 Y6.5294 F60.00
G01 X3.5596 Y6.5091 F60.00
G01 X3.6092 Y6.3705 F60.00
G01 X3.6166 Y6.3504 F60.00
G01 X3.6246 Y6.3305 F60.00
G01 X3.6331 Y6.3107 F60.00
G01 X3.6420 Y6.2912 F60.00
G01 X3.7143 Y6.1389 F60.00
G01 X3.7242 Y6.1199 F60.00
G01 X3.7346 Y6.1011 F60.00
G01 X3.7454 Y6.0825 F60.00
G01 X3.8210 Y5.9563 F60.00
G01 X3.8323 Y5.9380 F60.00
G01 X3.8440 Y5.9200 F60.00
G01 X3.8561 Y5.9023 F60.00
G01 X3.8687 Y5.8849 F60.00
G01 X3.9564 Y5.7667 F60.00
G01 X3.9694 Y5.7496 F60.00
G01 X3.9828 Y5.7329 F60.00
G01 X3.9966 Y5.7165 F60.00
G01 X4.0108 Y5.7004 F60.00
G01 X4.1097 Y5.5913 F60.00
G01 X4.1243 Y5.5756 F60.00
G01 X4.1392 Y5.5602 F60.00
G01 X4.1546 Y5.5453 F60.00
G01 X4.1703 Y5.5307 F60.00
G01 X4.2794 Y5.4318 F60.00
G01 X4.2955 Y5.4176 F60.00
G01 X4.3119 Y5.4038 F60.00
G01 X4.3286 Y5.3904 F60.00
G01 X4.3457 Y5.3774 F60.00
G01 X4.4639 Y5.2897 F60.00
G01 X4.4813 Y5.2771 F60.00
G01 X4.4990 Y5.2650 F60.00
G01 X4.5170 Y5.2533 F60.00
G01 X4.5353 Y5.2420 F60.00
G01 X4.6615 Y5.1664 F60.00
G01 X4.6801 Y5.1556 F60.00
G01 X4.6988 Y5.1452 F60.00
G01 X4.7179 Y5.1353 F60.00
G01 X4.7372 Y5.1259 F60.00
G01 X4.8702 Y5.0630 F60.00
G01 X4.8897 Y5.0541 F60.00
G01 X4.9095 Y5.0456 F60.00
G01 X4.9294 Y5.0376 F60.00
G01 X4.9495 Y5.0302 F60.00
G01 X5.1084 Y4.9736 F60.00
G01 X5.1288 Y4.9671 F60.00
G01 X5.1494 Y4.9611 F60.00
G01 X5.1702 Y4.9557 F60.00
G01 X5.3130 Y4.9199 F60.00
G01 X5.3338 Y4.9149 F60.00
G01 X5.3548 Y4.9105 F60.00
G01 X5.3759 Y4.9066 F60.00
G01 X5.3971 Y4.9032 F60.00
G01 X5.5427 Y4.8816 F60.00
G01 X5.5640 Y4.8787 F60.00
G01 X5.5853 Y4.8763 F60.00
G01 X5.6067 Y4.8745 F60.00
G01 X5.6281 Y4.8732 F60.00
G01 X5.7751 Y4.8659 F60.00
G01 X5.7965 Y4.8651 F60.00
G01 X5.8180 Y4.8649 F60.00
G01 X5.8394 Y4.8651 F60.00
G01 X5.8609 Y4.8659 F60.00
G01 X6.0293 Y4.8745 F60.00
G01 X6.0507 Y4.8763 F60.00
G01 X6.0720 Y4.8787 F60.00
G01 X6.0933 Y4.8816 F60.00
G01 X6.2389 Y4.9032 F60.00
G01 X6.2601 Y4.9066 F60.00
G01 X6.2812 Y4.9105 F60.00
G01 X6.3022 Y4.9149 F60.00
G01 X6.3230 Y4.9199 F60.00
G01 X6.4866 Y4.9611 F60.00
G01 X6.5072 Y4.9671 F60.00
G01 X6.5276 Y4.9736 F60.00
G01 X6.5479 Y4.9806 F60.00
G01 X6.7066 Y5.0376 F60.00
G01 X6.7265 Y5.0456 F60.00
G01 X6.7462 Y5.0541 F60.00
G01 X6.8742 Y5.1143 F60.00
G00 Z3.0000
G00 X6.8306 Y5.3061
G01 F60.00
G01 Z-0.0980
G01 F60.00
G01 X10.4784 Y5.3061 F60.00
G01 X12.4523 Y3.3323 F60.00
G01 X12.4765 Y3.3092 F60.00
G01 X12.5674 Y3.2268 F60.00
G01 X12.5928 Y3.2049 F60.00
G01 X12.6059 Y3.1944 F60.00
G01 X12.7178 Y3.1112 F60.00
G01 X12.7452 Y3.0919 F60.00
G01 X12.7734 Y3.0740 F60.00
G01 X12.8787 Y3.0109 F60.00
G01 X12.9079 Y2.9944 F60.00
G01 X12.9378 Y2.9793 F60.00
G01 X13.0487 Y2.9268 F60.00
G01 X13.0793 Y2.9133 F60.00
G01 X13.1106 Y2.9012 F60.00
G01 X13.2261 Y2.8599 F60.00
G01 X13.2579 Y2.8494 F60.00
G01 X13.2902 Y2.8404 F60.00
G01 X13.4092 Y2.8106 F60.00
G01 X13.4419 Y2.8033 F60.00
G01 X13.4749 Y2.7976 F60.00
G01 X13.5963 Y2.7795 F60.00
G01 X13.6129 Y2.7773 F60.00
G01 X13.6462 Y2.7740 F60.00
G01 X13.7855 Y2.7670 F60.00
G01 X13.8190 Y2.7661 F60.00
G01 X16.9599 Y2.7663 F60.00
G01 X17.0993 Y2.7730 F60.00
G01 X17.1327 Y2.7754 F60.00
G01 X17.1659 Y2.7795 F60.00
G01 X17.2873 Y2.7976 F60.00
G01 X17.3203 Y2.8033 F60.00
G01 X17.3530 Y2.8106 F60.00
G01 X17.4720 Y2.8404 F60.00
G01 X17.5043 Y2.8494 F60.00
G01 X17.5202 Y2.8544 F60.00
G01 X17.6516 Y2.9012 F60.00
G01 X17.6829 Y2.9133 F60.00
G01 X17.7135 Y2.9268 F60.00
G01 X17.8244 Y2.9793 F60.00
G01 X17.8543 Y2.9944 F60.00
G01 X17.8835 Y3.0109 F60.00
G01 X17.9887 Y3.0740 F60.00
G01 X18.0170 Y3.0919 F60.00
G01 X18.0444 Y3.1112 F60.00
G01 X18.1430 Y3.1843 F60.00
G01 X18.1694 Y3.2049 F60.00
G01 X18.1947 Y3.2268 F60.00
G01 X18.2857 Y3.3092 F60.00
G01 X18.3099 Y3.3323 F60.00
G01 X18.3330 Y3.3565 F60.00
G01 X18.4154 Y3.4475 F60.00
G01 X18.4373 Y3.4728 F60.00
G01 X18.4579 Y3.4992 F60.00
G01 X18.5310 Y3.5978 F60.00
G01 X18.5503 Y3.6252 F60.00
G01 X18.5682 Y3.6535 F60.00
G01 X18.6313 Y3.7587 F60.00
G01 X18.6478 Y3.7879 F60.00
G01 X18.6629 Y3.8178 F60.00
G01 X18.7154 Y3.9287 F60.00
G01 X18.7289 Y3.9593 F60.00
G01 X18.7410 Y3.9906 F60.00
G01 X18.7823 Y4.1061 F60.00
G01 X18.7928 Y4.1379 F60.00
G01 X18.8018 Y4.1702 F60.00
G01 X18.8316 Y4.2892 F60.00
G01 X18.8389 Y4.3219 F60.00
G01 X18.8446 Y4.3549 F60.00
G01 X18.8627 Y4.4763 F60.00
G01 X18.8667 Y4.5095 F60.00
G01 X18.8682 Y4.5262 F60.00
G01 X18.8752 Y4.6655 F60.00
G01 X18.8761 Y4.6990 F60.00
G01 X18.8752 Y4.7325 F60.00
G01 X18.8692 Y4.8551 F60.00
G01 X18.8667 Y4.8885 F60.00
G01 X18.8627 Y4.9217 F60.00
G01 X18.8446 Y5.0431 F60.00
G01 X18.8389 Y5.0761 F60.00
G01 X18.8316 Y5.1088 F60.00
G01 X18.8018 Y5.2278 F60.00
G01 X18.7928 Y5.2601 F60.00
G01 X18.7823 Y5.2919 F60.00
G01 X18.7410 Y5.4074 F60.00
G01 X18.7289 Y5.4387 F60.00
G01 X18.7154 Y5.4693 F60.00
G01 X18.6629 Y5.5802 F60.00
G01 X18.6478 Y5.6101 F60.00
G01 X18.6313 Y5.6393 F60.00
G01 X18.5682 Y5.7445 F60.00
G01 X18.5503 Y5.7728 F60.00
G01 X18.5310 Y5.8002 F60.00
G01 X18.4579 Y5.8988 F60.00
G01 X18.4373 Y5.9252 F60.00
G01 X18.4154 Y5.9505 F60.00
G01 X18.3330 Y6.0415 F60.00
G01 X18.3099 Y6.0657 F60.00
G01 X18.2857 Y6.0888 F60.00
G01 X18.1822 Y6.1823 F60.00
G01 X18.1694 Y6.1931 F60.00
G01 X18.1430 Y6.2137 F60.00
G01 X18.0444 Y6.2868 F60.00
G01 X18.0308 Y6.2966 F60.00
G01 X18.0030 Y6.3152 F60.00
G01 X17.8690 Y6.3956 F60.00
G01 X17.8395 Y6.4113 F60.00
G01 X17.8244 Y6.4187 F60.00
G01 X17.7135 Y6.4712 F60.00
G01 X17.6829 Y6.4847 F60.00
G01 X17.6516 Y6.4968 F60.00
G01 X17.5361 Y6.5381 F60.00
G01 X17.5043 Y6.5486 F60.00
G01 X17.4720 Y6.5576 F60.00
G01 X17.3530 Y6.5874 F60.00
G01 X17.3203 Y6.5947 F60.00
G01 X17.2873 Y6.6004 F60.00
G01 X17.1659 Y6.6185 F60.00
G01 X17.1327 Y6.6226 F60.00
G01 X17.0993 Y6.6250 F60.00
G01 X16.9767 Y6.6310 F60.00
G01 X16.9432 Y6.6319 F60.00
G01 X14.6196 Y6.6319 F60.00
G01 X12.6457 Y8.6057 F60.00
G01 X12.6215 Y8.6288 F60.00
G01 X12.5305 Y8.7112 F60.00
G01 X12.5180 Y8.7223 F60.00
G01 X12.4921 Y8.7436 F60.00
G01 X12.3666 Y8.8366 F60.00
G01 X12.3528 Y8.8461 F60.00
G01 X12.3245 Y8.8640 F60.00
G01 X12.2048 Y8.9356 F60.00
G01 X12.1901 Y8.9436 F60.00
G01 X12.1602 Y8.9587 F60.00
G01 X12.0493 Y9.0112 F60.00
G01 X12.0187 Y9.0247 F60.00
G01 X11.9874 Y9.0368 F60.00
G01 X11.8560 Y9.0836 F60.00
G01 X11.8240 Y9.0933 F60.00
G01 X11.8078 Y9.0976 F60.00
G01 X11.6888 Y9.1274 F60.00
G01 X11.6561 Y9.1347 F60.00
G01 X11.6231 Y9.1404 F60.00
G01 X11.5017 Y9.1585 F60.00
G01 X11.4685 Y9.1626 F60.00
G01 X11.4351 Y9.1650 F60.00
G01 X11.2957 Y9.1717 F60.00
G01 X6.8306 Y9.1719 F60.00
G01 X6.6685 Y9.2485 F60.00
G01 X6.6531 Y9.2551 F60.00
G01 X6.6219 Y9.2672 F60.00
G01 X6.4833 Y9.3168 F60.00
G01 X6.4515 Y9.3273 F60.00
G01 X6.4192 Y9.3362 F60.00
G01 X6.2764 Y9.3720 F60.00
G01 X6.2437 Y9.3793 F60.00
G01 X6.2107 Y9.3850 F60.00
G01 X6.0651 Y9.4066 F60.00
G01 X6.0319 Y9.4107 F60.00
G01 X5.9985 Y9.4132 F60.00
G01 X5.8515 Y9.4204 F60.00
G01 X5.8180 Y9.4212 F60.00
G01 X5.7845 Y9.4204 F60.00
G01 X5.6375 Y9.4132 F60.00
G01 X5.6041 Y9.4107 F60.00
G01 X5.5709 Y9.4066 F60.00
G01 X5.4253 Y9.3850 F60.00
G01 X5.3923 Y9.3793 F60.00
G01 X5.3596 Y9.3720 F60.00
G01 X5.2168 Y9.3362 F60.00
G01 X5.1845 Y9.3273 F60.00
G01 X5.1527 Y9.3168 F60.00
G01 X5.0141 Y9.2672 F60.00
G01 X4.9829 Y9.2551 F60.00
G01 X4.9523 Y9.2416 F60.00
G01 X4.8192 Y9.1786 F60.00
G01 X4.7893 Y9.1636 F60.00
G01 X4.7602 Y9.1471 F60.00
G01 X4.6339 Y9.0714 F60.00
G01 X4.6056 Y9.0535 F60.00
G01 X4.5782 Y9.0342 F60.00
G01 X4.4600 Y8.9465 F60.00
G01 X4.4336 Y8.9259 F60.00
G01 X4.4082 Y8.9040 F60.00
G01 X4.2992 Y8.8052 F60.00
G01 X4.2749 Y8.7821 F60.00
G01 X4.2518 Y8.7578 F60.00
G01 X4.1530 Y8.6488 F60.00
G01 X4.1311 Y8.6234 F60.00
G01 X4.1105 Y8.5970 F60.00
G01 X4.0228 Y8.4788 F60.00
G01 X4.0035 Y8.4514 F60.00
G01 X3.9856 Y8.4231 F60.00
G01 X3.9099 Y8.2968 F60.00
G01 X3.8934 Y8.2677 F60.00
G01 X3.8784 Y8.2378 F60.00
G01 X3.8154 Y8.1047 F60.00
G01 X3.8019 Y8.0741 F60.00
G01 X3.7898 Y8.0429 F60.00
G01 X3.7402 Y7.9043 F60.00
G01 X3.7297 Y7.8725 F60.00
G01 X3.7208 Y7.8402 F60.00
G01 X3.6850 Y7.6974 F60.00
G01 X3.6777 Y7.6647 F60.00
G01 X3.6720 Y7.6317 F60.00
G01 X3.6504 Y7.4861 F60.00
G01 X3.6463 Y7.4529 F60.00
G01 X3.6438 Y7.4195 F60.00
G01 X3.6366 Y7.2725 F60.00
G01 X3.6358 Y7.2390 F60.00
G01 X3.6366 Y7.2055 F60.00
G01 X3.6438 Y7.0585 F60.00
G01 X3.6463 Y7.0251 F60.00
G01 X3.6504 Y6.9919 F60.00
G01 X3.6720 Y6.8463 F60.00
G01 X3.6777 Y6.8133 F60.00
G01 X3.6850 Y6.7806 F60.00
G01 X3.7208 Y6.6378 F60.00
G01 X3.7297 Y6.6055 F60.00
G01 X3.7402 Y6.5737 F60.00
G01 X3.7898 Y6.4351 F60.00
G01 X3.8019 Y6.4039 F60.00
G01 X3.8154 Y6.3733 F60.00
G01 X3.8784 Y6.2402 F60.00
G01 X3.8934 Y6.2103 F60.00
G01 X3.9099 Y6.1812 F60.00
G01 X3.9856 Y6.0549 F60.00
G01 X4.0035 Y6.0266 F60.00
G01 X4.0228 Y5.9992 F60.00
G01 X4.1105 Y5.8810 F60.00
G01 X4.1311 Y5.8546 F60.00
G01 X4.1530 Y5.8292 F60.00
G01 X4.2518 Y5.7202 F60.00
G01 X4.2749 Y5.6959 F60.00
G01 X4.2992 Y5.6728 F60.00
G01 X4.4082 Y5.5740 F60.00
G01 X4.4336 Y5.5521 F60.00
G01 X4.4600 Y5.5315 F60.00
G01 X4.5782 Y5.4438 F60.00
G01 X4.6056 Y5.4245 F60.00
G01 X4.6339 Y5.4066 F60.00
G01 X4.7602 Y5.3309 F60.00
G01 X4.7893 Y5.3144 F60.00
G01 X4.8192 Y5.2994 F60.00
G01 X4.9523 Y5.2364 F60.00
G01 X4.9829 Y5.2229 F60.00
G01 X5.0141 Y5.2108 F60.00
G01 X5.1527 Y5.1612 F60.00
G01 X5.1845 Y5.1507 F60.00
G01 X5.2168 Y5.1418 F60.00
G01 X5.3596 Y5.1060 F60.00
G01 X5.3923 Y5.0987 F60.00
G01 X5.4253 Y5.0930 F60.00
G01 X5.5709 Y5.0714 F60.00
G01 X5.6041 Y5.0673 F60.00
G01 X5.6375 Y5.0648 F60.00
G01 X5.7845 Y5.0576 F60.00
G01 X5.8180 Y5.0568 F60.00
G01 X5.8515 Y5.0576 F60.00
G01 X5.9985 Y5.0648 F60.00
G01 X6.0319 Y5.0673 F60.00
G01 X6.0651 Y5.0714 F60.00
G01 X6.2107 Y5.0930 F60.00
G01 X6.2437 Y5.0987 F60.00
G01 X6.2764 Y5.1060 F60.00
G01 X6.4192 Y5.1418 F60.00
G01 X6.4515 Y5.1507 F60.00
G01 X6.4833 Y5.1612 F60.00
G01 X6.6219 Y5.2108 F60.00
G01 X6.6531 Y5.2229 F60.00
G01 X6.6837 Y5.2364 F60.00
G01 X6.8306 Y5.3061 F60.00
G00 Z3.0000
G00 X6.8742 Y10.1181
G01 F60.00
G01 Z-0.0980
G01 F60.00
G01 X22.7941 Y10.1181 F60.00
G01 X23.6196 Y9.2926 F60.00
G01 X23.6349 Y9.2776 F60.00
G01 X23.6507 Y9.2630 F60.00
G01 X23.7416 Y9.1806 F60.00
G01 X23.7577 Y9.1664 F60.00
G01 X23.7741 Y9.1526 F60.00
G01 X23.7908 Y9.1391 F60.00
G01 X23.9065 Y9.0530 F60.00
G01 X23.9239 Y9.0405 F60.00
G01 X23.9416 Y9.0283 F60.00
G01 X23.9595 Y9.0166 F60.00
G01 X23.9778 Y9.0054 F60.00
G01 X24.0831 Y8.9423 F60.00
G01 X24.1016 Y8.9315 F60.00
G01 X24.1204 Y8.9211 F60.00
G01 X24.1394 Y8.9113 F60.00
G01 X24.1587 Y8.9019 F60.00
G01 X24.2697 Y8.8494 F60.00
G01 X24.2892 Y8.8404 F60.00
G01 X24.3089 Y8.8320 F60.00
G01 X24.3288 Y8.8240 F60.00
G01 X24.3489 Y8.8166 F60.00
G01 X24.4645 Y8.7752 F60.00
G01 X24.4848 Y8.7682 F60.00
G01 X24.5052 Y8.7618 F60.00
G01 X24.5258 Y8.7558 F60.00
G01 X24.5466 Y8.7503 F60.00
G01 X24.6865 Y8.7155 F60.00
G01 X24.7075 Y8.7111 F60.00
G01 X24.7286 Y8.7072 F60.00
G01 X24.7498 Y8.7038 F60.00
G01 X24.8712 Y8.6857 F60.00
G01 X24.8924 Y8.6829 F60.00
G01 X24.9137 Y8.6805 F60.00
G01 X24.9351 Y8.6787 F60.00
G01 X24.9565 Y8.6773 F60.00
G01 X25.1005 Y8.6705 F60.00
G01 X25.1220 Y8.6703 F60.00
G01 X27.4167 Y8.6703 F60.00
G01 X27.4414 Y8.6573 F60.00
G01 X27.4607 Y8.6479 F60.00
G01 X27.5717 Y8.5954 F60.00
G01 X27.5912 Y8.5864 F60.00
G01 X27.6109 Y8.5780 F60.00
G01 X27.6308 Y8.5700 F60.00
G01 X27.6509 Y8.5626 F60.00
G01 X27.7868 Y8.5142 F60.00
G01 X27.8072 Y8.5078 F60.00
G01 X27.8278 Y8.5018 F60.00
G01 X27.8486 Y8.4963 F60.00
G01 X27.9676 Y8.4665 F60.00
G01 X27.9885 Y8.4615 F60.00
G01 X28.0095 Y8.4571 F60.00
G01 X28.0306 Y8.4532 F60.00
G01 X28.0518 Y8.4498 F60.00
G01 X28.1732 Y8.4317 F60.00
G01 X28.1944 Y8.4289 F60.00
G01 X28.2157 Y8.4265 F60.00
G01 X28.2371 Y8.4247 F60.00
G01 X28.3811 Y8.4173 F60.00
G01 X28.4025 Y8.4165 F60.00
G01 X28.4240 Y8.4163 F60.00
G01 X31.4212 Y8.4163 F60.00
G01 X31.4426 Y8.4165 F60.00
G01 X31.5867 Y8.4233 F60.00
G01 X31.6081 Y8.4247 F60.00
G01 X31.6295 Y8.4265 F60.00
G01 X31.6508 Y8.4289 F60.00
G01 X31.6720 Y8.4317 F60.00
G01 X31.7934 Y8.4498 F60.00
G01 X31.8146 Y8.4532 F60.00
G01 X31.8357 Y8.4571 F60.00
G01 X31.8567 Y8.4615 F60.00
G01 X31.9966 Y8.4963 F60.00
G01 X32.0174 Y8.5018 F60.00
G01 X32.0380 Y8.5078 F60.00
G01 X32.0584 Y8.5142 F60.00
G01 X32.1943 Y8.5626 F60.00
G01 X32.2144 Y8.5700 F60.00
G01 X32.2343 Y8.5780 F60.00
G01 X32.2540 Y8.5864 F60.00
G01 X32.2735 Y8.5954 F60.00
G01 X32.3845 Y8.6479 F60.00
G01 X32.4037 Y8.6573 F60.00
G01 X32.4228 Y8.6671 F60.00
G01 X32.4416 Y8.6775 F60.00
G01 X32.4601 Y8.6883 F60.00
G01 X32.5654 Y8.7514 F60.00
G01 X32.5837 Y8.7626 F60.00
G01 X32.6016 Y8.7743 F60.00
G01 X32.6193 Y8.7865 F60.00
G01 X32.7353 Y8.8722 F60.00
G01 X32.7524 Y8.8851 F60.00
G01 X32.7691 Y8.8986 F60.00
G01 X32.7855 Y8.9124 F60.00
G01 X32.8016 Y8.9266 F60.00
G01 X32.9083 Y9.0236 F60.00
G01 X32.9236 Y9.0386 F60.00
G01 X32.9386 Y9.0539 F60.00
G01 X32.9532 Y9.0697 F60.00
G01 X33.0498 Y9.1767 F60.00
G01 X33.0636 Y9.1931 F60.00
G01 X33.0770 Y9.2098 F60.00
G01 X33.0900 Y9.2269 F60.00
G01 X33.1631 Y9.3255 F60.00
G01 X33.1757 Y9.3429 F60.00
G01 X33.1879 Y9.3606 F60.00
G01 X33.1996 Y9.3785 F60.00
G01 X33.2108 Y9.3968 F60.00
G01 X33.2847 Y9.5206 F60.00
G01 X33.2951 Y9.5394 F60.00
G01 X33.3049 Y9.5584 F60.00
G01 X33.3143 Y9.5777 F60.00
G01 X33.3668 Y9.6887 F60.00
G01 X33.3757 Y9.7082 F60.00
G01 X33.3842 Y9.7279 F60.00
G01 X33.3922 Y9.7478 F60.00
G01 X33.3996 Y9.7679 F60.00
G01 X33.4410 Y9.8835 F60.00
G01 X33.4480 Y9.9038 F60.00
G01 X33.4544 Y9.9242 F60.00
G01 X33.4604 Y9.9448 F60.00
G01 X33.4659 Y9.9656 F60.00
G01 X33.4957 Y10.0846 F60.00
G01 X33.5007 Y10.1055 F60.00
G01 X33.5051 Y10.1265 F60.00
G01 X33.5090 Y10.1476 F60.00
G01 X33.5124 Y10.1688 F60.00
G01 X33.5305 Y10.2902 F60.00
G01 X33.5333 Y10.3114 F60.00
G01 X33.5357 Y10.3327 F60.00
G01 X33.5375 Y10.3541 F60.00
G01 X33.5389 Y10.3755 F60.00
G01 X33.5449 Y10.4981 F60.00
G01 X33.5457 Y10.5195 F60.00
G01 X33.5459 Y10.5410 F60.00
G01 X33.5457 Y10.5625 F60.00
G01 X33.5449 Y10.5839 F60.00
G01 X33.5389 Y10.7065 F60.00
G01 X33.5375 Y10.7279 F60.00
G01 X33.5357 Y10.7493 F60.00
G01 X33.5333 Y10.7706 F60.00
G01 X33.5305 Y10.7918 F60.00
G01 X33.5124 Y10.9132 F60.00
G01 X33.5090 Y10.9344 F60.00
G01 X33.5051 Y10.9555 F60.00
G01 X33.5007 Y10.9765 F60.00
G01 X33.4957 Y10.9974 F60.00
G01 X33.4659 Y11.1164 F60.00
G01 X33.4604 Y11.1372 F60.00
G01 X33.4544 Y11.1578 F60.00
G01 X33.4480 Y11.1782 F60.00
G01 X33.4410 Y11.1985 F60.00
G01 X33.3996 Y11.3141 F60.00
G01 X33.3922 Y11.3342 F60.00
G01 X33.3842 Y11.3541 F60.00
G01 X33.3757 Y11.3738 F60.00
G01 X33.3668 Y11.3933 F60.00
G01 X33.3143 Y11.5043 F60.00
G01 X33.3049 Y11.5236 F60.00
G01 X33.2951 Y11.5426 F60.00
G01 X33.2847 Y11.5614 F60.00
G01 X33.2739 Y11.5799 F60.00
G01 X33.2108 Y11.6852 F60.00
G01 X33.1996 Y11.7035 F60.00
G01 X33.1879 Y11.7214 F60.00
G01 X33.1757 Y11.7391 F60.00
G01 X33.1631 Y11.7565 F60.00
G01 X33.0900 Y11.8551 F60.00
G01 X33.0770 Y11.8722 F60.00
G01 X33.0636 Y11.8889 F60.00
G01 X33.0498 Y11.9053 F60.00
G01 X33.0356 Y11.9214 F60.00
G01 X32.9532 Y12.0123 F60.00
G01 X32.9386 Y12.0281 F60.00
G01 X32.9236 Y12.0434 F60.00
G01 X32.9083 Y12.0584 F60.00
G01 X32.8925 Y12.0730 F60.00
G01 X32.8016 Y12.1554 F60.00
G01 X32.7855 Y12.1696 F60.00
G01 X32.7691 Y12.1834 F60.00
G01 X32.7524 Y12.1969 F60.00
G01 X32.7353 Y12.2098 F60.00
G01 X32.6367 Y12.2830 F60.00
G01 X32.6193 Y12.2955 F60.00
G01 X32.6016 Y12.3077 F60.00
G01 X32.5837 Y12.3194 F60.00
G01 X32.5654 Y12.3306 F60.00
G01 X32.4416 Y12.4045 F60.00
G01 X32.4228 Y12.4149 F60.00
G01 X32.4037 Y12.4247 F60.00
G01 X32.3845 Y12.4341 F60.00
G01 X32.2735 Y12.4866 F60.00
G01 X32.2540 Y12.4956 F60.00
G01 X32.2343 Y12.5040 F60.00
G01 X32.2144 Y12.5120 F60.00
G01 X32.1943 Y12.5194 F60.00
G01 X32.0787 Y12.5608 F60.00
G01 X32.0584 Y12.5678 F60.00
G01 X32.0380 Y12.5742 F60.00
G01 X32.0174 Y12.5802 F60.00
G01 X31.9966 Y12.5857 F60.00
G01 X31.8776 Y12.6155 F60.00
G01 X31.8567 Y12.6205 F60.00
G01 X31.8357 Y12.6249 F60.00
G01 X31.8146 Y12.6288 F60.00
G01 X31.7934 Y12.6322 F60.00
G01 X31.6720 Y12.6503 F60.00
G01 X31.6508 Y12.6531 F60.00
G01 X31.6295 Y12.6555 F60.00
G01 X31.6081 Y12.6573 F60.00
G01 X31.4641 Y12.6647 F60.00
G01 X31.4426 Y12.6655 F60.00
G01 X31.4212 Y12.6657 F60.00
G01 X29.1772 Y12.6657 F60.00
G01 X29.1525 Y12.6787 F60.00
G01 X29.1333 Y12.6881 F60.00
G01 X29.0223 Y12.7406 F60.00
G01 X29.0028 Y12.7496 F60.00
G01 X28.9831 Y12.7580 F60.00
G01 X28.9632 Y12.7660 F60.00
G01 X28.9431 Y12.7734 F60.00
G01 X28.8275 Y12.8148 F60.00
G01 X28.8072 Y12.8218 F60.00
G01 X28.7868 Y12.8282 F60.00
G01 X28.7662 Y12.8342 F60.00
G01 X28.7454 Y12.8397 F60.00
G01 X28.6264 Y12.8695 F60.00
G01 X28.6055 Y12.8745 F60.00
G01 X28.5845 Y12.8789 F60.00
G01 X28.5634 Y12.8828 F60.00
G01 X28.5422 Y12.8862 F60.00
G01 X28.4208 Y12.9043 F60.00
G01 X28.3996 Y12.9071 F60.00
G01 X28.3783 Y12.9095 F60.00
G01 X28.3569 Y12.9113 F60.00
G01 X28.2129 Y12.9187 F60.00
G01 X28.1914 Y12.9195 F60.00
G01 X28.1700 Y12.9197 F60.00
G01 X26.0021 Y12.9197 F60.00
G01 X25.1766 Y13.7452 F60.00
G01 X25.1613 Y13.7602 F60.00
G01 X25.1455 Y13.7748 F60.00
G01 X25.0546 Y13.8572 F60.00
G01 X25.0385 Y13.8714 F60.00
G01 X25.0221 Y13.8852 F60.00
G01 X25.0054 Y13.8987 F60.00
G01 X24.8897 Y13.9848 F60.00
G01 X24.8723 Y13.9973 F60.00
G01 X24.8546 Y14.0095 F60.00
G01 X24.8367 Y14.0212 F60.00
G01 X24.8184 Y14.0324 F60.00
G01 X24.7131 Y14.0955 F60.00
G01 X24.6946 Y14.1063 F60.00
G01 X24.6758 Y14.1167 F60.00
G01 X24.6567 Y14.1265 F60.00
G01 X24.5265 Y14.1884 F60.00
G01 X24.5070 Y14.1974 F60.00
G01 X24.4873 Y14.2058 F60.00
G01 X24.4674 Y14.2138 F60.00
G01 X24.4473 Y14.2212 F60.00
G01 X24.3114 Y14.2696 F60.00
G01 X24.2910 Y14.2760 F60.00
G01 X24.2704 Y14.2820 F60.00
G01 X24.2120 Y14.2969 F60.00
G01 X24.4273 Y14.5123 F60.00
G01 X33.8850 Y14.5123 F60.00
G01 X33.9064 Y14.5125 F60.00
G01 X33.9279 Y14.5133 F60.00
G01 X34.0505 Y14.5193 F60.00
G01 X34.0719 Y14.5207 F60.00
G01 X34.0933 Y14.5225 F60.00
G01 X34.1146 Y14.5249 F60.00
G01 X34.1358 Y14.5277 F60.00
G01 X34.2435 Y14.5437 F60.00
G01 X36.8486 Y11.9385 F60.00
G01 X36.8537 Y11.9105 F60.00
G01 X36.8581 Y11.8895 F60.00
G01 X36.8631 Y11.8686 F60.00
G01 X36.8685 Y11.8479 F60.00
G01 X36.8745 Y11.8273 F60.00
G01 X36.8810 Y11.8068 F60.00
G01 X36.8880 Y11.7865 F60.00
G01 X36.8955 Y11.7664 F60.00
G01 X36.9034 Y11.7465 F60.00
G01 X36.9119 Y11.7268 F60.00
G01 X36.9208 Y11.7073 F60.00
G01 X36.9302 Y11.6880 F60.00
G01 X36.9401 Y11.6689 F60.00
G01 X36.9504 Y11.6502 F60.00
G01 X36.9612 Y11.6316 F60.00
G01 X36.9725 Y11.6134 F60.00
G01 X36.9842 Y11.5954 F60.00
G01 X36.9963 Y11.5777 F60.00
G01 X37.0089 Y11.5603 F60.00
G01 X37.0219 Y11.5432 F60.00
G01 X37.0353 Y11.5265 F60.00
G01 X37.0491 Y11.5101 F60.00
G01 X37.0633 Y11.4940 F60.00
G01 X37.0779 Y11.4783 F60.00
G01 X37.0929 Y11.4629 F60.00
G01 X37.1083 Y11.4479 F60.00
G01 X37.1240 Y11.4333 F60.00
G01 X37.1401 Y11.4191 F60.00
G01 X37.1565 Y11.4053 F60.00
G01 X37.1732 Y11.3919 F60.00
G01 X37.1903 Y11.3789 F60.00
G01 X37.2077 Y11.3663 F60.00
G01 X37.2254 Y11.3542 F60.00
G01 X37.2434 Y11.3425 F60.00
G01 X37.2616 Y11.3312 F60.00
G01 X37.2802 Y11.3204 F60.00
G01 X37.2989 Y11.3101 F60.00
G01 X37.3180 Y11.3002 F60.00
G01 X37.3373 Y11.2908 F60.00
G01 X37.3568 Y11.2819 F60.00
G01 X37.3765 Y11.2734 F60.00
G01 X37.3964 Y11.2655 F60.00
G01 X37.4165 Y11.2580 F60.00
G01 X37.4368 Y11.2510 F60.00
G01 X37.4573 Y11.2445 F60.00
G01 X37.4779 Y11.2385 F60.00
G01 X37.4986 Y11.2331 F60.00
G01 X37.5195 Y11.2281 F60.00
G01 X37.5405 Y11.2237 F60.00
G01 X37.5616 Y11.2198 F60.00
G01 X37.5827 Y11.2163 F60.00
G01 X37.6040 Y11.2135 F60.00
G01 X37.6253 Y11.2111 F60.00
G01 X37.6467 Y11.2093 F60.00
G01 X37.6681 Y11.2079 F60.00
G01 X37.6895 Y11.2071 F60.00
G01 X37.7099 Y11.2069 F60.00
G01 X37.7284 Y11.1973 F60.00
G01 X37.7477 Y11.1879 F60.00
G01 X37.8587 Y11.1354 F60.00
G01 X37.8782 Y11.1264 F60.00
G01 X37.8979 Y11.1180 F60.00
G01 X37.9178 Y11.1100 F60.00
G01 X37.9379 Y11.1026 F60.00
G01 X38.0535 Y11.0612 F60.00
G01 X38.0738 Y11.0542 F60.00
G01 X38.0942 Y11.0478 F60.00
G01 X38.1148 Y11.0418 F60.00
G01 X38.2546 Y11.0065 F60.00
G01 X38.2755 Y11.0015 F60.00
G01 X38.2965 Y10.9971 F60.00
G01 X38.3176 Y10.9932 F60.00
G01 X38.4602 Y10.9717 F60.00
G01 X38.4814 Y10.9689 F60.00
G01 X38.5027 Y10.9665 F60.00
G01 X38.5241 Y10.9647 F60.00
G01 X38.5455 Y10.9633 F60.00
G01 X38.6681 Y10.9573 F60.00
G01 X38.6895 Y10.9565 F60.00
G01 X38.7110 Y10.9563 F60.00
G01 X43.1649 Y10.9563 F60.00
G01 X43.2806 Y10.8406 F60.00
G01 X43.3380 Y10.6793 F60.00
G01 X43.3455 Y10.6592 F60.00
G01 X43.3534 Y10.6393 F60.00
G01 X43.3619 Y10.6196 F60.00
G01 X43.3708 Y10.6001 F60.00
G01 X43.4348 Y10.4649 F60.00
G01 X43.4442 Y10.4456 F60.00
G01 X43.4540 Y10.4265 F60.00
G01 X43.4644 Y10.4077 F60.00
G01 X43.4752 Y10.3892 F60.00
G01 X43.5521 Y10.2609 F60.00
G01 X43.5633 Y10.2427 F60.00
G01 X43.5750 Y10.2247 F60.00
G01 X43.5872 Y10.2070 F60.00
G01 X43.6888 Y10.0695 F60.00
G01 X43.7018 Y10.0524 F60.00
G01 X43.7152 Y10.0357 F60.00
G01 X43.7290 Y10.0192 F60.00
G01 X43.7433 Y10.0032 F60.00
G01 X43.8437 Y9.8923 F60.00
G01 X43.8583 Y9.8766 F60.00
G01 X43.8733 Y9.8613 F60.00
G01 X43.8886 Y9.8463 F60.00
G01 X43.9043 Y9.8317 F60.00
G01 X44.0152 Y9.7313 F60.00
G01 X44.0312 Y9.7170 F60.00
G01 X44.0476 Y9.7032 F60.00
G01 X44.0644 Y9.6898 F60.00
G01 X44.0815 Y9.6768 F60.00
G01 X44.2016 Y9.5877 F60.00
G01 X44.2190 Y9.5752 F60.00
G01 X44.2367 Y9.5630 F60.00
G01 X44.2547 Y9.5513 F60.00
G01 X44.2729 Y9.5401 F60.00
G01 X44.4012 Y9.4632 F60.00
G01 X44.4197 Y9.4524 F60.00
G01 X44.4385 Y9.4420 F60.00
G01 X44.4576 Y9.4322 F60.00
G01 X44.4769 Y9.4228 F60.00
G01 X44.6121 Y9.3588 F60.00
G01 X44.6316 Y9.3499 F60.00
G01 X44.6513 Y9.3414 F60.00
G01 X44.6712 Y9.3335 F60.00
G01 X44.6913 Y9.3260 F60.00
G01 X44.8321 Y9.2756 F60.00
G01 X44.8524 Y9.2686 F60.00
G01 X44.8729 Y9.2621 F60.00
G01 X44.8935 Y9.2562 F60.00
G01 X44.9142 Y9.2507 F60.00
G01 X45.0593 Y9.2144 F60.00
G01 X45.0802 Y9.2094 F60.00
G01 X45.1011 Y9.2050 F60.00
G01 X45.1222 Y9.2010 F60.00
G01 X45.1434 Y9.1976 F60.00
G01 X45.3126 Y9.1728 F60.00
G01 X45.3339 Y9.1704 F60.00
G01 X45.3553 Y9.1686 F60.00
G01 X45.3767 Y9.1673 F60.00
G01 X45.5261 Y9.1599 F60.00
G01 X45.5475 Y9.1591 F60.00
G01 X45.5690 Y9.1589 F60.00
G01 X45.5904 Y9.1591 F60.00
G01 X45.6119 Y9.1599 F60.00
G01 X45.7613 Y9.1673 F60.00
G01 X45.7827 Y9.1686 F60.00
G01 X45.8041 Y9.1704 F60.00
G01 X45.8254 Y9.1728 F60.00
G01 X45.8466 Y9.1757 F60.00
G01 X45.9946 Y9.1976 F60.00
G01 X46.0158 Y9.2010 F60.00
G01 X46.0368 Y9.2050 F60.00
G01 X46.0578 Y9.2094 F60.00
G01 X46.0787 Y9.2144 F60.00
G01 X46.2238 Y9.2507 F60.00
G01 X46.2445 Y9.2562 F60.00
G01 X46.2651 Y9.2621 F60.00
G01 X46.2856 Y9.2686 F60.00
G01 X46.4467 Y9.3260 F60.00
G01 X46.4668 Y9.3335 F60.00
G01 X46.4867 Y9.3414 F60.00
G01 X46.5064 Y9.3499 F60.00
G01 X46.5259 Y9.3588 F60.00
G01 X46.6804 Y9.4322 F60.00
G01 X46.6995 Y9.4420 F60.00
G01 X46.7183 Y9.4524 F60.00
G01 X46.7368 Y9.4632 F60.00
G01 X46.8833 Y9.5513 F60.00
G01 X46.9013 Y9.5630 F60.00
G01 X46.9190 Y9.5752 F60.00
G01 X46.9364 Y9.5877 F60.00
G01 X47.0565 Y9.6768 F60.00
G01 X47.0736 Y9.6898 F60.00
G01 X47.0903 Y9.7032 F60.00
G01 X47.1068 Y9.7170 F60.00
G01 X47.1228 Y9.7313 F60.00
G01 X47.2336 Y9.8317 F60.00
G01 X47.2494 Y9.8463 F60.00
G01 X47.2647 Y9.8613 F60.00
G01 X47.2797 Y9.8766 F60.00
G01 X47.2943 Y9.8923 F60.00
G01 X47.3947 Y10.0032 F60.00
G01 X47.4090 Y10.0192 F60.00
G01 X47.4228 Y10.0357 F60.00
G01 X47.4362 Y10.0524 F60.00
G01 X47.4492 Y10.0695 F60.00
G01 X47.5383 Y10.1896 F60.00
G01 X47.5508 Y10.2070 F60.00
G01 X47.5630 Y10.2247 F60.00
G01 X47.5747 Y10.2427 F60.00
G01 X47.5859 Y10.2609 F60.00
G01 X47.6628 Y10.3892 F60.00
G01 X47.6736 Y10.4077 F60.00
G01 X47.6839 Y10.4265 F60.00
G01 X47.6938 Y10.4456 F60.00
G01 X47.7032 Y10.4649 F60.00
G01 X47.7672 Y10.6001 F60.00
G01 X47.7761 Y10.6196 F60.00
G01 X47.7846 Y10.6393 F60.00
G01 X47.7925 Y10.6592 F60.00
G01 X47.8000 Y10.6793 F60.00
G01 X47.8504 Y10.8201 F60.00
G01 X47.8574 Y10.8404 F60.00
G01 X47.8639 Y10.8609 F60.00
G01 X47.8698 Y10.8815 F60.00
G01 X47.8753 Y10.9022 F60.00
G01 X47.9116 Y11.0473 F60.00
G01 X47.9166 Y11.0682 F60.00
G01 X47.9210 Y11.0892 F60.00
G01 X47.9250 Y11.1102 F60.00
G01 X47.9284 Y11.1314 F60.00
G01 X47.9503 Y11.2794 F60.00
G01 X47.9532 Y11.3006 F60.00
G01 X47.9556 Y11.3219 F60.00
G01 X47.9574 Y11.3433 F60.00
G01 X47.9587 Y11.3647 F60.00
G01 X47.9661 Y11.5141 F60.00
G01 X47.9669 Y11.5355 F60.00
G01 X47.9671 Y11.5570 F60.00
G01 X47.9669 Y11.5785 F60.00
G01 X47.9587 Y11.7493 F60.00
G01 X47.9574 Y11.7707 F60.00
G01 X47.9556 Y11.7921 F60.00
G01 X47.9532 Y11.8134 F60.00
G01 X47.9503 Y11.8346 F60.00
G01 X47.9284 Y11.9826 F60.00
G01 X47.9250 Y12.0038 F60.00
G01 X47.9210 Y12.0248 F60.00
G01 X47.9166 Y12.0458 F60.00
G01 X47.9116 Y12.0667 F60.00
G01 X47.8753 Y12.2118 F60.00
G01 X47.8698 Y12.2325 F60.00
G01 X47.8639 Y12.2531 F60.00
G01 X47.8574 Y12.2736 F60.00
G01 X47.8504 Y12.2939 F60.00
G01 X47.8000 Y12.4347 F60.00
G01 X47.7925 Y12.4548 F60.00
G01 X47.7846 Y12.4747 F60.00
G01 X47.7761 Y12.4944 F60.00
G01 X47.7672 Y12.5139 F60.00
G01 X47.7032 Y12.6491 F60.00
G01 X47.6938 Y12.6684 F60.00
G01 X47.6839 Y12.6875 F60.00
G01 X47.6736 Y12.7063 F60.00
G01 X47.6628 Y12.7248 F60.00
G01 X47.5859 Y12.8531 F60.00
G01 X47.5747 Y12.8713 F60.00
G01 X47.5630 Y12.8893 F60.00
G01 X47.5508 Y12.9070 F60.00
G01 X47.5383 Y12.9244 F60.00
G01 X47.4492 Y13.0445 F60.00
G01 X47.4362 Y13.0616 F60.00
G01 X47.4228 Y13.0783 F60.00
G01 X47.4090 Y13.0948 F60.00
G01 X47.3947 Y13.1108 F60.00
G01 X47.2943 Y13.2217 F60.00
G01 X47.2797 Y13.2374 F60.00
G01 X47.2647 Y13.2527 F60.00
G01 X47.2494 Y13.2677 F60.00
G01 X47.2336 Y13.2823 F60.00
G01 X47.1228 Y13.3827 F60.00
G01 X47.1068 Y13.3970 F60.00
G01 X47.0903 Y13.4108 F60.00
G01 X47.0736 Y13.4242 F60.00
G01 X47.0565 Y13.4372 F60.00
G01 X46.9364 Y13.5263 F60.00
G01 X46.9190 Y13.5388 F60.00
G01 X46.9013 Y13.5510 F60.00
G01 X46.8833 Y13.5627 F60.00
G01 X46.7368 Y13.6508 F60.00
G01 X46.7183 Y13.6616 F60.00
G01 X46.6995 Y13.6720 F60.00
G01 X46.6804 Y13.6818 F60.00
G01 X46.6611 Y13.6912 F60.00
G01 X46.5259 Y13.7552 F60.00
G01 X46.5064 Y13.7641 F60.00
G01 X46.4867 Y13.7726 F60.00
G01 X46.4668 Y13.7805 F60.00
G01 X46.3059 Y13.8384 F60.00
G01 X46.2854 Y13.8454 F60.00
G01 X45.5474 Y14.5834 F60.00
G01 X45.5321 Y14.5984 F60.00
G01 X45.4254 Y14.6954 F60.00
G01 X45.4093 Y14.7096 F60.00
G01 X45.3929 Y14.7234 F60.00
G01 X45.3762 Y14.7369 F60.00
G01 X45.3591 Y14.7498 F60.00
G01 X45.2605 Y14.8230 F60.00
G01 X45.2431 Y14.8355 F60.00
G01 X45.2254 Y14.8477 F60.00
G01 X45.2075 Y14.8594 F60.00
G01 X45.1892 Y14.8706 F60.00
G01 X45.0654 Y14.9445 F60.00
G01 X45.0466 Y14.9549 F60.00
G01 X45.0275 Y14.9647 F60.00
G01 X44.8973 Y15.0266 F60.00
G01 X44.8778 Y15.0356 F60.00
G01 X44.8581 Y15.0440 F60.00
G01 X44.8382 Y15.0520 F60.00
G01 X44.8181 Y15.0594 F60.00
G01 X44.7000 Y15.1017 F60.00
G01 X44.8210 Y15.1589 F60.00
G01 X44.8403 Y15.1683 F60.00
G01 X44.8593 Y15.1782 F60.00
G01 X44.8781 Y15.1886 F60.00
G01 X44.8967 Y15.1994 F60.00
G01 X45.0229 Y15.2750 F60.00
G01 X45.0412 Y15.2863 F60.00
G01 X45.0592 Y15.2980 F60.00
G01 X45.0769 Y15.3101 F60.00
G01 X45.0943 Y15.3227 F60.00
G01 X45.2125 Y15.4104 F60.00
G01 X45.2296 Y15.4234 F60.00
G01 X45.2463 Y15.4368 F60.00
G01 X45.2627 Y15.4506 F60.00
G01 X45.2788 Y15.4648 F60.00
G01 X45.3879 Y15.5637 F60.00
G01 X45.4036 Y15.5783 F60.00
G01 X45.4189 Y15.5932 F60.00
G01 X45.4339 Y15.6086 F60.00
G01 X45.4485 Y15.6243 F60.00
G01 X45.5474 Y15.7334 F60.00
G01 X45.5616 Y15.7495 F60.00
G01 X45.5754 Y15.7659 F60.00
G01 X45.5888 Y15.7826 F60.00
G01 X45.6895 Y15.9179 F60.00
G01 X45.7021 Y15.9353 F60.00
G01 X45.7142 Y15.9530 F60.00
G01 X45.7259 Y15.9710 F60.00
G01 X45.7372 Y15.9893 F60.00
G01 X45.8128 Y16.1155 F60.00
G01 X45.8236 Y16.1341 F60.00
G01 X45.8340 Y16.1529 F60.00
G01 X45.8439 Y16.1719 F60.00
G01 X45.8533 Y16.1912 F60.00
G01 X45.9251 Y16.3437 F60.00
G01 X45.9336 Y16.3635 F60.00
G01 X45.9416 Y16.3834 F60.00
G01 X45.9490 Y16.4035 F60.00
G01 X45.9986 Y16.5421 F60.00
G01 X46.0056 Y16.5624 F60.00
G01 X46.0121 Y16.5828 F60.00
G01 X46.0181 Y16.6034 F60.00
G01 X46.0235 Y16.6242 F60.00
G01 X46.0593 Y16.7670 F60.00
G01 X46.0643 Y16.7878 F60.00
G01 X46.0687 Y16.8088 F60.00
G01 X46.0726 Y16.8299 F60.00
G01 X46.0760 Y16.8511 F60.00
G01 X46.0976 Y16.9967 F60.00
G01 X46.1005 Y17.0180 F60.00
G01 X46.1029 Y17.0393 F60.00
G01 X46.1047 Y17.0607 F60.00
G01 X46.1060 Y17.0821 F60.00
G01 X46.1133 Y17.2291 F60.00
G01 X46.1140 Y17.2505 F60.00
G01 X46.1143 Y17.2720 F60.00
G01 X46.1140 Y17.2935 F60.00
G01 X46.1133 Y17.3149 F60.00
G01 X46.1060 Y17.4619 F60.00
G01 X46.1047 Y17.4833 F60.00
G01 X46.1029 Y17.5047 F60.00
G01 X46.1005 Y17.5260 F60.00
G01 X46.0976 Y17.5473 F60.00
G01 X46.0760 Y17.6929 F60.00
G01 X46.0726 Y17.7141 F60.00
G01 X46.0687 Y17.7352 F60.00
G01 X46.0643 Y17.7562 F60.00
G01 X46.0593 Y17.7770 F60.00
G01 X46.0235 Y17.9198 F60.00
G01 X46.0181 Y17.9406 F60.00
G01 X46.0121 Y17.9612 F60.00
G01 X46.0056 Y17.9816 F60.00
G01 X45.9986 Y18.0019 F60.00
G01 X45.9490 Y18.1405 F60.00
G01 X45.9416 Y18.1606 F60.00
G01 X45.9336 Y18.1805 F60.00
G01 X45.9251 Y18.2003 F60.00
G01 X45.9162 Y18.2198 F60.00
G01 X45.8533 Y18.3528 F60.00
G01 X45.8439 Y18.3721 F60.00
G01 X45.8340 Y18.3911 F60.00
G01 X45.8236 Y18.4099 F60.00
G01 X45.8128 Y18.4285 F60.00
G01 X45.7372 Y18.5547 F60.00
G01 X45.7259 Y18.5730 F60.00
G01 X45.7142 Y18.5910 F60.00
G01 X45.7021 Y18.6087 F60.00
G01 X45.6018 Y18.7443 F60.00
G01 X45.5888 Y18.7614 F60.00
G01 X45.5754 Y18.7781 F60.00
G01 X45.5616 Y18.7945 F60.00
G01 X45.5474 Y18.8106 F60.00
G01 X45.4485 Y18.9197 F60.00
G01 X45.4339 Y18.9354 F60.00
G01 X45.4189 Y18.9508 F60.00
G01 X45.4036 Y18.9657 F60.00
G01 X45.3879 Y18.9803 F60.00
G01 X45.2788 Y19.0792 F60.00
G01 X45.2627 Y19.0934 F60.00
G01 X45.2463 Y19.1072 F60.00
G01 X45.2296 Y19.1206 F60.00
G01 X45.2125 Y19.1336 F60.00
G01 X45.0943 Y19.2213 F60.00
G01 X45.0769 Y19.2339 F60.00
G01 X45.0592 Y19.2460 F60.00
G01 X45.0412 Y19.2577 F60.00
G01 X45.0229 Y19.2690 F60.00
G01 X44.8967 Y19.3446 F60.00
G01 X44.8781 Y19.3554 F60.00
G01 X44.8593 Y19.3658 F60.00
G01 X44.8403 Y19.3757 F60.00
G01 X44.8210 Y19.3851 F60.00
G01 X44.6684 Y19.4569 F60.00
G01 X44.6487 Y19.4654 F60.00
G01 X44.6288 Y19.4734 F60.00
G01 X44.6087 Y19.4808 F60.00
G01 X44.4701 Y19.5304 F60.00
G01 X44.4498 Y19.5374 F60.00
G01 X44.4294 Y19.5439 F60.00
G01 X44.4088 Y19.5499 F60.00
G01 X44.3880 Y19.5553 F60.00
G01 X44.2452 Y19.5911 F60.00
G01 X44.2244 Y19.5961 F60.00
G01 X44.2034 Y19.6005 F60.00
G01 X44.1823 Y19.6044 F60.00
G01 X44.1611 Y19.6078 F60.00
G01 X44.0155 Y19.6294 F60.00
G01 X43.9942 Y19.6323 F60.00
G01 X43.9729 Y19.6347 F60.00
G01 X43.9515 Y19.6365 F60.00
G01 X43.9301 Y19.6378 F60.00
G01 X43.7831 Y19.6451 F60.00
G01 X43.7616 Y19.6459 F60.00
G01 X43.7402 Y19.6461 F60.00
G01 X43.7187 Y19.6459 F60.00
G01 X43.6973 Y19.6451 F60.00
G01 X43.5289 Y19.6365 F60.00
G01 X43.5075 Y19.6347 F60.00
G01 X43.4862 Y19.6323 F60.00
G01 X43.4649 Y19.6294 F60.00
G01 X43.3193 Y19.6078 F60.00
G01 X43.2981 Y19.6044 F60.00
G01 X43.2770 Y19.6005 F60.00
G01 X43.2560 Y19.5961 F60.00
G01 X43.2352 Y19.5911 F60.00
G01 X43.0924 Y19.5553 F60.00
G01 X43.0716 Y19.5499 F60.00
G01 X43.0510 Y19.5439 F60.00
G01 X43.0306 Y19.5374 F60.00
G01 X43.0103 Y19.5304 F60.00
G01 X42.8717 Y19.4808 F60.00
G01 X42.8516 Y19.4734 F60.00
G01 X42.8317 Y19.4654 F60.00
G01 X42.8119 Y19.4569 F60.00
G01 X42.7924 Y19.4480 F60.00
G01 X42.6594 Y19.3851 F60.00
G01 X42.6401 Y19.3757 F60.00
G01 X42.6210 Y19.3658 F60.00
G01 X42.6023 Y19.3554 F60.00
G01 X42.5837 Y19.3446 F60.00
G01 X42.4575 Y19.2690 F60.00
G01 X42.4392 Y19.2577 F60.00
G01 X42.4212 Y19.2460 F60.00
G01 X42.4035 Y19.2339 F60.00
G01 X42.3861 Y19.2213 F60.00
G01 X42.2679 Y19.1336 F60.00
G01 X42.2508 Y19.1206 F60.00
G01 X42.2341 Y19.1072 F60.00
G01 X42.2177 Y19.0934 F60.00
G01 X42.2016 Y19.0792 F60.00
G01 X42.0925 Y18.9803 F60.00
G01 X42.0768 Y18.9657 F60.00
G01 X42.0614 Y18.9508 F60.00
G01 X42.0465 Y18.9354 F60.00
G01 X42.0319 Y18.9197 F60.00
G01 X41.9330 Y18.8106 F60.00
G01 X41.9188 Y18.7945 F60.00
G01 X41.9050 Y18.7781 F60.00
G01 X41.8916 Y18.7614 F60.00
G01 X41.8786 Y18.7443 F60.00
G01 X41.7783 Y18.6087 F60.00
G01 X41.7662 Y18.5910 F60.00
G01 X41.7545 Y18.5730 F60.00
G01 X41.7432 Y18.5547 F60.00
G01 X41.6676 Y18.4285 F60.00
G01 X41.6568 Y18.4099 F60.00
G01 X41.6464 Y18.3911 F60.00
G01 X41.6365 Y18.3721 F60.00
G01 X41.6271 Y18.3528 F60.00
G01 X41.5553 Y18.2003 F60.00
G01 X41.5468 Y18.1805 F60.00
G01 X41.5388 Y18.1606 F60.00
G01 X41.5314 Y18.1405 F60.00
G01 X41.4818 Y18.0019 F60.00
G01 X41.4748 Y17.9816 F60.00
G01 X41.4683 Y17.9612 F60.00
G01 X41.4623 Y17.9406 F60.00
G01 X41.4569 Y17.9198 F60.00
G01 X41.4211 Y17.7770 F60.00
G01 X41.4161 Y17.7562 F60.00
G01 X41.4117 Y17.7352 F60.00
G01 X41.4078 Y17.7141 F60.00
G01 X41.4044 Y17.6929 F60.00
G01 X41.3828 Y17.5473 F60.00
G01 X41.3799 Y17.5260 F60.00
G01 X41.3775 Y17.5047 F60.00
G01 X41.3757 Y17.4833 F60.00
G01 X41.3744 Y17.4619 F60.00
G01 X41.3663 Y17.2935 F60.00
G01 X41.3661 Y17.2720 F60.00
G01 X41.3663 Y17.2505 F60.00
G01 X41.3671 Y17.2291 F60.00
G01 X41.3757 Y17.0607 F60.00
G01 X41.3775 Y17.0393 F60.00
G01 X41.3799 Y17.0180 F60.00
G01 X41.3828 Y16.9967 F60.00
G01 X41.4044 Y16.8511 F60.00
G01 X41.4078 Y16.8299 F60.00
G01 X41.4117 Y16.8088 F60.00
G01 X41.4161 Y16.7878 F60.00
G01 X41.4569 Y16.6242 F60.00
G01 X41.4623 Y16.6034 F60.00
G01 X41.4683 Y16.5828 F60.00
G01 X41.4748 Y16.5624 F60.00
G01 X41.4818 Y16.5421 F60.00
G01 X41.5314 Y16.4035 F60.00
G01 X41.5388 Y16.3834 F60.00
G01 X41.5468 Y16.3635 F60.00
G01 X41.5553 Y16.3437 F60.00
G01 X41.5642 Y16.3242 F60.00
G01 X41.6271 Y16.1912 F60.00
G01 X41.6365 Y16.1719 F60.00
G01 X41.6464 Y16.1529 F60.00
G01 X41.6568 Y16.1341 F60.00
G01 X41.6676 Y16.1155 F60.00
G01 X41.7432 Y15.9893 F60.00
G01 X41.7545 Y15.9710 F60.00
G01 X41.7662 Y15.9530 F60.00
G01 X41.7783 Y15.9353 F60.00
G01 X41.7909 Y15.9179 F60.00
G01 X41.8786 Y15.7997 F60.00
G01 X41.8916 Y15.7826 F60.00
G01 X41.9050 Y15.7659 F60.00
G01 X41.9188 Y15.7495 F60.00
G01 X41.9330 Y15.7334 F60.00
G01 X42.0319 Y15.6243 F60.00
G01 X42.0465 Y15.6086 F60.00
G01 X42.0614 Y15.5932 F60.00
G01 X42.0768 Y15.5783 F60.00
G01 X42.0925 Y15.5637 F60.00
G01 X42.2016 Y15.4648 F60.00
G01 X42.2177 Y15.4506 F60.00
G01 X42.2341 Y15.4368 F60.00
G01 X42.2508 Y15.4234 F60.00
G01 X42.2679 Y15.4104 F60.00
G01 X42.3861 Y15.3227 F60.00
G01 X42.4035 Y15.3101 F60.00
G01 X42.4212 Y15.2980 F60.00
G01 X42.4392 Y15.2863 F60.00
G01 X42.4575 Y15.2750 F60.00
G01 X42.5731 Y15.2057 F60.00
G01 X39.5911 Y15.2057 F60.00
G01 X37.5337 Y17.2631 F60.00
G01 X37.5337 Y18.1610 F60.00
G01 X37.5335 Y18.1825 F60.00
G01 X37.5267 Y18.3265 F60.00
G01 X37.5253 Y18.3479 F60.00
G01 X37.5235 Y18.3693 F60.00
G01 X37.5211 Y18.3906 F60.00
G01 X37.5183 Y18.4118 F60.00
G01 X37.5002 Y18.5332 F60.00
G01 X37.4968 Y18.5544 F60.00
G01 X37.4929 Y18.5755 F60.00
G01 X37.4885 Y18.5965 F60.00
G01 X37.4835 Y18.6174 F60.00
G01 X37.4482 Y18.7572 F60.00
G01 X37.4422 Y18.7778 F60.00
G01 X37.4358 Y18.7982 F60.00
G01 X37.4288 Y18.8185 F60.00
G01 X37.3874 Y18.9341 F60.00
G01 X37.3800 Y18.9542 F60.00
G01 X37.3720 Y18.9741 F60.00
G01 X37.3635 Y18.9938 F60.00
G01 X37.3546 Y19.0133 F60.00
G01 X37.3021 Y19.1243 F60.00
G01 X37.2927 Y19.1436 F60.00
G01 X37.2829 Y19.1626 F60.00
G01 X37.2725 Y19.1814 F60.00
G01 X37.1986 Y19.3052 F60.00
G01 X37.1874 Y19.3235 F60.00
G01 X37.1757 Y19.3414 F60.00
G01 X37.1635 Y19.3591 F60.00
G01 X37.1509 Y19.3765 F60.00
G01 X37.0778 Y19.4751 F60.00
G01 X37.0648 Y19.4922 F60.00
G01 X37.0514 Y19.5089 F60.00
G01 X37.0376 Y19.5253 F60.00
G01 X37.0234 Y19.5414 F60.00
G01 X36.9410 Y19.6323 F60.00
G01 X36.9264 Y19.6481 F60.00
G01 X36.9114 Y19.6634 F60.00
G01 X36.8961 Y19.6784 F60.00
G01 X36.8803 Y19.6930 F60.00
G01 X36.7733 Y19.7896 F60.00
G01 X36.7569 Y19.8034 F60.00
G01 X36.7402 Y19.8169 F60.00
G01 X36.7231 Y19.8298 F60.00
G01 X36.6071 Y19.9155 F60.00
G01 X36.5894 Y19.9277 F60.00
G01 X36.5715 Y19.9394 F60.00
G01 X36.5532 Y19.9506 F60.00
G01 X36.4479 Y20.0137 F60.00
G01 X36.4294 Y20.0245 F60.00
G01 X36.4106 Y20.0349 F60.00
G01 X36.3915 Y20.0447 F60.00
G01 X36.3723 Y20.0541 F60.00
G01 X36.2613 Y20.1066 F60.00
G01 X36.2418 Y20.1156 F60.00
G01 X36.2221 Y20.1240 F60.00
G01 X36.2022 Y20.1320 F60.00
G01 X36.0665 Y20.1808 F60.00
G01 X36.0462 Y20.1878 F60.00
G01 X36.0258 Y20.1942 F60.00
G01 X36.0052 Y20.2002 F60.00
G01 X35.9844 Y20.2057 F60.00
G01 X35.8654 Y20.2355 F60.00
G01 X35.8445 Y20.2405 F60.00
G01 X35.8235 Y20.2449 F60.00
G01 X35.8024 Y20.2488 F60.00
G01 X35.7812 Y20.2522 F60.00
G01 X35.6598 Y20.2703 F60.00
G01 X35.6386 Y20.2731 F60.00
G01 X35.6173 Y20.2755 F60.00
G01 X35.5959 Y20.2773 F60.00
G01 X35.5745 Y20.2787 F60.00
G01 X35.4519 Y20.2847 F60.00
G01 X35.4304 Y20.2855 F60.00
G01 X35.4090 Y20.2857 F60.00
G01 X35.3875 Y20.2855 F60.00
G01 X35.2435 Y20.2787 F60.00
G01 X35.2221 Y20.2773 F60.00
G01 X35.2007 Y20.2755 F60.00
G01 X35.1794 Y20.2731 F60.00
G01 X35.1582 Y20.2703 F60.00
G01 X35.0368 Y20.2522 F60.00
G01 X35.0156 Y20.2488 F60.00
G01 X34.9945 Y20.2449 F60.00
G01 X34.9735 Y20.2405 F60.00
G01 X34.8336 Y20.2057 F60.00
G01 X34.8128 Y20.2002 F60.00
G01 X34.7922 Y20.1942 F60.00
G01 X34.7718 Y20.1878 F60.00
G01 X34.7515 Y20.1808 F60.00
G01 X34.6158 Y20.1320 F60.00
G01 X34.5959 Y20.1240 F60.00
G01 X34.5762 Y20.1156 F60.00
G01 X34.5567 Y20.1066 F60.00
G01 X34.4457 Y20.0541 F60.00
G01 X34.4264 Y20.0447 F60.00
G01 X34.4074 Y20.0349 F60.00
G01 X34.3886 Y20.0245 F60.00
G01 X34.3701 Y20.0137 F60.00
G01 X34.2465 Y19.9394 F60.00
G01 X34.2286 Y19.9277 F60.00
G01 X34.2109 Y19.9155 F60.00
G01 X34.1935 Y19.9030 F60.00
G01 X34.0949 Y19.8298 F60.00
G01 X34.0778 Y19.8169 F60.00
G01 X34.0611 Y19.8034 F60.00
G01 X34.0447 Y19.7896 F60.00
G01 X34.0286 Y19.7754 F60.00
G01 X33.9219 Y19.6784 F60.00
G01 X33.9066 Y19.6634 F60.00
G01 X33.0049 Y18.7617 F60.00
G01 X23.5472 Y18.7617 F60.00
G01 X23.5257 Y18.7615 F60.00
G01 X23.3817 Y18.7547 F60.00
G01 X23.3603 Y18.7533 F60.00
G01 X23.3389 Y18.7515 F60.00
G01 X23.3176 Y18.7491 F60.00
G01 X23.2964 Y18.7463 F60.00
G01 X23.1750 Y18.7282 F60.00
G01 X23.1538 Y18.7248 F60.00
G01 X23.1327 Y18.7209 F60.00
G01 X23.1117 Y18.7165 F60.00
G01 X23.0908 Y18.7115 F60.00
G01 X22.9718 Y18.6817 F60.00
G01 X22.9510 Y18.6762 F60.00
G01 X22.9304 Y18.6702 F60.00
G01 X22.9100 Y18.6638 F60.00
G01 X22.8897 Y18.6568 F60.00
G01 X22.7741 Y18.6154 F60.00
G01 X22.7540 Y18.6080 F60.00
G01 X22.7341 Y18.6000 F60.00
G01 X22.7144 Y18.5916 F60.00
G01 X22.6949 Y18.5826 F60.00
G01 X22.5839 Y18.5301 F60.00
G01 X22.5646 Y18.5207 F60.00
G01 X22.5456 Y18.5109 F60.00
G01 X22.5268 Y18.5005 F60.00
G01 X22.5083 Y18.4897 F60.00
G01 X22.4030 Y18.4266 F60.00
G01 X22.3847 Y18.4154 F60.00
G01 X22.3668 Y18.4037 F60.00
G01 X22.3491 Y18.3915 F60.00
G01 X22.3317 Y18.3790 F60.00
G01 X22.2160 Y18.2929 F60.00
G01 X22.1993 Y18.2794 F60.00
G01 X22.1829 Y18.2656 F60.00
G01 X22.0759 Y18.1690 F60.00
G01 X22.0601 Y18.1544 F60.00
G01 X22.0448 Y18.1394 F60.00
G01 X21.1558 Y17.2504 F60.00
G01 X21.1408 Y17.2351 F60.00
G01 X21.1262 Y17.2193 F60.00
G01 X21.0438 Y17.1284 F60.00
G01 X21.0296 Y17.1123 F60.00
G01 X21.0158 Y17.0959 F60.00
G01 X21.0023 Y17.0792 F60.00
G01 X20.9894 Y17.0621 F60.00
G01 X20.9162 Y16.9635 F60.00
G01 X20.9037 Y16.9461 F60.00
G01 X20.8915 Y16.9284 F60.00
G01 X20.8798 Y16.9105 F60.00
G01 X20.8686 Y16.8922 F60.00
G01 X20.8055 Y16.7869 F60.00
G01 X20.7947 Y16.7684 F60.00
G01 X20.7843 Y16.7496 F60.00
G01 X20.7745 Y16.7306 F60.00
G01 X20.7651 Y16.7113 F60.00
G01 X20.7126 Y16.6003 F60.00
G01 X20.7036 Y16.5808 F60.00
G01 X20.6952 Y16.5611 F60.00
G01 X20.6872 Y16.5412 F60.00
G01 X20.6384 Y16.4055 F60.00
G01 X20.6314 Y16.3852 F60.00
G01 X20.6249 Y16.3648 F60.00
G01 X20.6190 Y16.3442 F60.00
G01 X20.6135 Y16.3234 F60.00
G01 X20.5837 Y16.2044 F60.00
G01 X20.5787 Y16.1835 F60.00
G01 X20.5743 Y16.1625 F60.00
G01 X20.5704 Y16.1414 F60.00
G01 X20.5489 Y15.9988 F60.00
G01 X20.5461 Y15.9776 F60.00
G01 X20.5437 Y15.9563 F60.00
G01 X20.5418 Y15.9349 F60.00
G01 X20.5405 Y15.9135 F60.00
G01 X20.5337 Y15.7695 F60.00
G01 X20.5335 Y15.7480 F60.00
G01 X20.5337 Y15.7265 F60.00
G01 X20.5345 Y15.7051 F60.00
G01 X20.5405 Y15.5825 F60.00
G01 X20.5418 Y15.5611 F60.00
G01 X20.5437 Y15.5397 F60.00
G01 X20.5461 Y15.5184 F60.00
G01 X20.5489 Y15.4972 F60.00
G01 X20.5704 Y15.3546 F60.00
G01 X20.5743 Y15.3335 F60.00
G01 X20.5787 Y15.3125 F60.00
G01 X20.5837 Y15.2916 F60.00
G01 X20.6190 Y15.1518 F60.00
G01 X20.6249 Y15.1312 F60.00
G01 X20.6314 Y15.1108 F60.00
G01 X20.6798 Y14.9749 F60.00
G01 X20.6872 Y14.9548 F60.00
G01 X20.6952 Y14.9349 F60.00
G01 X20.7036 Y14.9152 F60.00
G01 X20.7126 Y14.8957 F60.00
G01 X20.7651 Y14.7847 F60.00
G01 X20.7745 Y14.7654 F60.00
G01 X20.7843 Y14.7464 F60.00
G01 X20.7947 Y14.7276 F60.00
G01 X20.8686 Y14.6038 F60.00
G01 X20.8798 Y14.5855 F60.00
G01 X20.8915 Y14.5676 F60.00
G01 X20.9037 Y14.5499 F60.00
G01 X20.9162 Y14.5325 F60.00
G01 X21.0023 Y14.4168 F60.00
G01 X21.0158 Y14.4001 F60.00
G01 X21.0296 Y14.3837 F60.00
G01 X21.0438 Y14.3675 F60.00
G01 X14.3004 Y14.3675 F60.00
G01 X14.4451 Y14.5123 F60.00
G01 X16.9432 Y14.5123 F60.00
G01 X16.9646 Y14.5125 F60.00
G01 X16.9861 Y14.5133 F60.00
G01 X17.1087 Y14.5193 F60.00
G01 X17.1301 Y14.5207 F60.00
G01 X17.1515 Y14.5225 F60.00
G01 X17.1728 Y14.5249 F60.00
G01 X17.1940 Y14.5277 F60.00
G01 X17.3154 Y14.5458 F60.00
G01 X17.3366 Y14.5492 F60.00
G01 X17.3577 Y14.5531 F60.00
G01 X17.3787 Y14.5575 F60.00
G01 X17.5186 Y14.5923 F60.00
G01 X17.5394 Y14.5978 F60.00
G01 X17.5600 Y14.6038 F60.00
G01 X17.5804 Y14.6102 F60.00
G01 X17.6007 Y14.6172 F60.00
G01 X17.7364 Y14.6660 F60.00
G01 X17.7563 Y14.6740 F60.00
G01 X17.7760 Y14.6824 F60.00
G01 X17.7955 Y14.6914 F60.00
G01 X17.9065 Y14.7439 F60.00
G01 X17.9257 Y14.7533 F60.00
G01 X17.9448 Y14.7631 F60.00
G01 X17.9636 Y14.7735 F60.00
G01 X17.9821 Y14.7843 F60.00
G01 X18.1057 Y14.8586 F60.00
G01 X18.1236 Y14.8703 F60.00
G01 X18.1413 Y14.8825 F60.00
G01 X18.2573 Y14.9682 F60.00
G01 X18.2744 Y14.9811 F60.00
G01 X18.2911 Y14.9946 F60.00
G01 X18.3075 Y15.0084 F60.00
G01 X18.4145 Y15.1050 F60.00
G01 X18.4303 Y15.1196 F60.00
G01 X18.4456 Y15.1346 F60.00
G01 X18.4606 Y15.1499 F60.00
G01 X18.4752 Y15.1657 F60.00
G01 X18.5576 Y15.2566 F60.00
G01 X18.5718 Y15.2727 F60.00
G01 X18.5856 Y15.2891 F60.00
G01 X18.5990 Y15.3058 F60.00
G01 X18.6120 Y15.3229 F60.00
G01 X18.6851 Y15.4215 F60.00
G01 X18.6977 Y15.4389 F60.00
G01 X18.7099 Y15.4566 F60.00
G01 X18.7216 Y15.4745 F60.00
G01 X18.7328 Y15.4928 F60.00
G01 X18.7959 Y15.5981 F60.00
G01 X18.8067 Y15.6166 F60.00
G01 X18.8171 Y15.6354 F60.00
G01 X18.8269 Y15.6544 F60.00
G01 X18.8363 Y15.6737 F60.00
G01 X18.8888 Y15.7847 F60.00
G01 X18.8977 Y15.8042 F60.00
G01 X18.9062 Y15.8239 F60.00
G01 X18.9142 Y15.8438 F60.00
G01 X18.9216 Y15.8639 F60.00
G01 X18.9630 Y15.9795 F60.00
G01 X18.9700 Y15.9998 F60.00
G01 X18.9764 Y16.0202 F60.00
G01 X18.9824 Y16.0408 F60.00
G01 X18.9879 Y16.0616 F60.00
G01 X19.0177 Y16.1806 F60.00
G01 X19.0227 Y16.2015 F60.00
G01 X19.0271 Y16.2225 F60.00
G01 X19.0310 Y16.2436 F60.00
G01 X19.0344 Y16.2648 F60.00
G01 X19.0525 Y16.3862 F60.00
G01 X19.0553 Y16.4074 F60.00
G01 X19.0577 Y16.4287 F60.00
G01 X19.0595 Y16.4501 F60.00
G01 X19.0609 Y16.4715 F60.00
G01 X19.0669 Y16.5941 F60.00
G01 X19.0677 Y16.6155 F60.00
G01 X19.0679 Y16.6370 F60.00
G01 X19.0677 Y16.6585 F60.00
G01 X19.0669 Y16.6799 F60.00
G01 X19.0609 Y16.8025 F60.00
G01 X19.0595 Y16.8239 F60.00
G01 X19.0577 Y16.8453 F60.00
G01 X19.0553 Y16.8666 F60.00
G01 X19.0525 Y16.8878 F60.00
G01 X19.0344 Y17.0092 F60.00
G01 X19.0310 Y17.0304 F60.00
G01 X19.0271 Y17.0515 F60.00
G01 X19.0227 Y17.0725 F60.00
G01 X19.0177 Y17.0934 F60.00
G01 X18.9879 Y17.2124 F60.00
G01 X18.9824 Y17.2332 F60.00
G01 X18.9764 Y17.2538 F60.00
G01 X18.9700 Y17.2742 F60.00
G01 X18.9630 Y17.2945 F60.00
G01 X18.9216 Y17.4101 F60.00
G01 X18.9142 Y17.4302 F60.00
G01 X18.9062 Y17.4501 F60.00
G01 X18.8977 Y17.4698 F60.00
G01 X18.8888 Y17.4893 F60.00
G01 X18.8363 Y17.6003 F60.00
G01 X18.8269 Y17.6196 F60.00
G01 X18.8171 Y17.6386 F60.00
G01 X18.8067 Y17.6574 F60.00
G01 X18.7959 Y17.6759 F60.00
G01 X18.7328 Y17.7812 F60.00
G01 X18.7216 Y17.7995 F60.00
G01 X18.7099 Y17.8174 F60.00
G01 X18.6977 Y17.8351 F60.00
G01 X18.6851 Y17.8525 F60.00
G01 X18.6120 Y17.9511 F60.00
G01 X18.5990 Y17.9682 F60.00
G01 X18.5856 Y17.9849 F60.00
G01 X18.5718 Y18.0013 F60.00
G01 X18.4752 Y18.1083 F60.00
G01 X18.4606 Y18.1241 F60.00
G01 X18.4456 Y18.1394 F60.00
G01 X18.4303 Y18.1544 F60.00
G01 X18.4145 Y18.1690 F60.00
G01 X18.3236 Y18.2514 F60.00
G01 X18.3075 Y18.2656 F60.00
G01 X18.2911 Y18.2794 F60.00
G01 X18.2744 Y18.2929 F60.00
G01 X18.2573 Y18.3058 F60.00
G01 X18.1587 Y18.3790 F60.00
G01 X18.1413 Y18.3915 F60.00
G01 X18.1236 Y18.4037 F60.00
G01 X18.1057 Y18.4154 F60.00
G01 X18.0874 Y18.4266 F60.00
G01 X17.9821 Y18.4897 F60.00
G01 X17.9636 Y18.5005 F60.00
G01 X17.9448 Y18.5109 F60.00
G01 X17.9257 Y18.5207 F60.00
G01 X17.9065 Y18.5301 F60.00
G01 X17.7955 Y18.5826 F60.00
G01 X17.7760 Y18.5916 F60.00
G01 X17.7563 Y18.6000 F60.00
G01 X17.7364 Y18.6080 F60.00
G01 X17.7163 Y18.6154 F60.00
G01 X17.6007 Y18.6568 F60.00
G01 X17.5804 Y18.6638 F60.00
G01 X17.5600 Y18.6702 F60.00
G01 X17.5394 Y18.6762 F60.00
G01 X17.5186 Y18.6817 F60.00
G01 X17.3996 Y18.7115 F60.00
G01 X17.3787 Y18.7165 F60.00
G01 X17.3577 Y18.7209 F60.00
G01 X17.3366 Y18.7248 F60.00
G01 X17.3154 Y18.7282 F60.00
G01 X17.1728 Y18.7491 F60.00
G01 X17.1515 Y18.7515 F60.00
G01 X17.1301 Y18.7533 F60.00
G01 X17.1087 Y18.7547 F60.00
G01 X16.9861 Y18.7607 F60.00
G01 X16.9646 Y18.7615 F60.00
G01 X16.9432 Y18.7617 F60.00
G01 X13.5650 Y18.7617 F60.00
G01 X13.5435 Y18.7615 F60.00
G01 X13.3995 Y18.7547 F60.00
G01 X13.3781 Y18.7533 F60.00
G01 X13.3567 Y18.7515 F60.00
G01 X13.3354 Y18.7491 F60.00
G01 X13.3142 Y18.7463 F60.00
G01 X13.1928 Y18.7282 F60.00
G01 X13.1716 Y18.7248 F60.00
G01 X13.1505 Y18.7209 F60.00
G01 X13.1295 Y18.7165 F60.00
G01 X13.1086 Y18.7115 F60.00
G01 X12.9896 Y18.6817 F60.00
G01 X12.9688 Y18.6762 F60.00
G01 X12.9482 Y18.6702 F60.00
G01 X12.9278 Y18.6638 F60.00
G01 X12.9075 Y18.6568 F60.00
G01 X12.8092 Y18.6216 F60.00
G01 X12.6620 Y18.7663 F60.00
G01 X12.5578 Y18.8610 F60.00
G01 X12.5417 Y18.8752 F60.00
G01 X12.5253 Y18.8890 F60.00
G01 X12.5086 Y18.9025 F60.00
G01 X12.3929 Y18.9886 F60.00
G01 X12.3755 Y19.0011 F60.00
G01 X12.3578 Y19.0133 F60.00
G01 X12.3399 Y19.0250 F60.00
G01 X12.3216 Y19.0362 F60.00
G01 X12.2163 Y19.0993 F60.00
G01 X12.1978 Y19.1101 F60.00
G01 X12.1790 Y19.1205 F60.00
G01 X12.1599 Y19.1303 F60.00
G01 X12.1407 Y19.1397 F60.00
G01 X12.0297 Y19.1922 F60.00
G01 X12.0102 Y19.2012 F60.00
G01 X11.9905 Y19.2096 F60.00
G01 X11.9706 Y19.2176 F60.00
G01 X11.9505 Y19.2250 F60.00
G01 X11.8349 Y19.2664 F60.00
G01 X11.8146 Y19.2734 F60.00
G01 X11.7942 Y19.2798 F60.00
G01 X11.7736 Y19.2858 F60.00
G01 X11.7528 Y19.2913 F60.00
G01 X11.6338 Y19.3211 F60.00
G01 X11.6129 Y19.3261 F60.00
G01 X11.5919 Y19.3305 F60.00
G01 X11.5708 Y19.3344 F60.00
G01 X11.5496 Y19.3378 F60.00
G01 X11.4070 Y19.3587 F60.00
G01 X11.3857 Y19.3611 F60.00
G01 X11.3643 Y19.3629 F60.00
G01 X11.3429 Y19.3643 F60.00
G01 X11.2203 Y19.3703 F60.00
G01 X11.1988 Y19.3711 F60.00
G01 X11.1774 Y19.3713 F60.00
G01 X6.8742 Y19.3713 F60.00
G01 X6.7658 Y19.4226 F60.00
G01 X6.7462 Y19.4315 F60.00
G01 X6.7265 Y19.4400 F60.00
G01 X6.7066 Y19.4480 F60.00
G01 X6.6865 Y19.4554 F60.00
G01 X6.5276 Y19.5120 F60.00
G01 X6.5072 Y19.5185 F60.00
G01 X6.4866 Y19.5245 F60.00
G01 X6.4658 Y19.5299 F60.00
G01 X6.3230 Y19.5657 F60.00
G01 X6.3022 Y19.5707 F60.00
G01 X6.2812 Y19.5751 F60.00
G01 X6.2601 Y19.5790 F60.00
G01 X6.0933 Y19.6040 F60.00
G01 X6.0720 Y19.6069 F60.00
G01 X6.0507 Y19.6093 F60.00
G01 X6.0293 Y19.6111 F60.00
G01 X6.0079 Y19.6124 F60.00
G01 X5.8394 Y19.6205 F60.00
G01 X5.8180 Y19.6207 F60.00
G01 X5.7965 Y19.6205 F60.00
G01 X5.7751 Y19.6197 F60.00
G01 X5.6281 Y19.6124 F60.00
G01 X5.6067 Y19.6111 F60.00
G01 X5.5853 Y19.6093 F60.00
G01 X5.5640 Y19.6069 F60.00
G01 X5.5427 Y19.6040 F60.00
G01 X5.3971 Y19.5824 F60.00
G01 X5.3759 Y19.5790 F60.00
G01 X5.3548 Y19.5751 F60.00
G01 X5.3338 Y19.5707 F60.00
G01 X5.3130 Y19.5657 F60.00
G01 X5.1702 Y19.5299 F60.00
G01 X5.1494 Y19.5245 F60.00
G01 X5.1288 Y19.5185 F60.00
G01 X5.1084 Y19.5120 F60.00
G01 X5.0881 Y19.5050 F60.00
G01 X4.9495 Y19.4554 F60.00
G01 X4.9294 Y19.4480 F60.00
G01 X4.9095 Y19.4400 F60.00
G01 X4.8897 Y19.4315 F60.00
G01 X4.8702 Y19.4226 F60.00
G01 X4.7372 Y19.3597 F60.00
G01 X4.7179 Y19.3503 F60.00
G01 X4.6988 Y19.3404 F60.00
G01 X4.6801 Y19.3300 F60.00
G01 X4.6615 Y19.3192 F60.00
G01 X4.5353 Y19.2436 F60.00
G01 X4.5170 Y19.2323 F60.00
G01 X4.4990 Y19.2206 F60.00
G01 X4.4813 Y19.2085 F60.00
G01 X4.4639 Y19.1959 F60.00
G01 X4.3457 Y19.1082 F60.00
G01 X4.3286 Y19.0952 F60.00
G01 X4.3119 Y19.0818 F60.00
G01 X4.2955 Y19.0680 F60.00
G01 X4.2794 Y19.0538 F60.00
G01 X4.1703 Y18.9549 F60.00
G01 X4.1546 Y18.9403 F60.00
G01 X4.1392 Y18.9254 F60.00
G01 X4.1243 Y18.9100 F60.00
G01 X4.1097 Y18.8943 F60.00
G01 X4.0108 Y18.7852 F60.00
G01 X3.9966 Y18.7691 F60.00
G01 X3.9828 Y18.7527 F60.00
G01 X3.9694 Y18.7360 F60.00
G01 X3.9564 Y18.7189 F60.00
G01 X3.8687 Y18.6007 F60.00
G01 X3.8561 Y18.5833 F60.00
G01 X3.8440 Y18.5656 F60.00
G01 X3.8323 Y18.5476 F60.00
G01 X3.8210 Y18.5293 F60.00
G01 X3.7454 Y18.4031 F60.00
G01 X3.7346 Y18.3845 F60.00
G01 X3.7242 Y18.3657 F60.00
G01 X3.7143 Y18.3467 F60.00
G01 X3.7049 Y18.3274 F60.00
G01 X3.6420 Y18.1944 F60.00
G01 X3.6331 Y18.1749 F60.00
G01 X3.6246 Y18.1551 F60.00
G01 X3.6166 Y18.1352 F60.00
G01 X3.6092 Y18.1151 F60.00
G01 X3.5526 Y17.9562 F60.00
G01 X3.5461 Y17.9358 F60.00
G01 X3.5401 Y17.9152 F60.00
G01 X3.5347 Y17.8944 F60.00
G01 X3.4989 Y17.7516 F60.00
G01 X3.4939 Y17.7308 F60.00
G01 X3.4895 Y17.7098 F60.00
G01 X3.4856 Y17.6887 F60.00
G01 X3.4822 Y17.6675 F60.00
G01 X3.4606 Y17.5219 F60.00
G01 X3.4577 Y17.5006 F60.00
G01 X3.4553 Y17.4793 F60.00
G01 X3.4535 Y17.4579 F60.00
G01 X3.4522 Y17.4365 F60.00
G01 X3.4441 Y17.2681 F60.00
G01 X3.4439 Y17.2466 F60.00
G01 X3.4441 Y17.2251 F60.00
G01 X3.4449 Y17.2037 F60.00
G01 X3.4522 Y17.0567 F60.00
G01 X3.4535 Y17.0353 F60.00
G01 X3.4553 Y17.0139 F60.00
G01 X3.4577 Y16.9926 F60.00
G01 X3.4822 Y16.8257 F60.00
G01 X3.4856 Y16.8045 F60.00
G01 X3.4895 Y16.7834 F60.00
G01 X3.4939 Y16.7624 F60.00
G01 X3.4989 Y16.7416 F60.00
G01 X3.5347 Y16.5988 F60.00
G01 X3.5401 Y16.5780 F60.00
G01 X3.5461 Y16.5574 F60.00
G01 X3.5526 Y16.5370 F60.00
G01 X3.5596 Y16.5167 F60.00
G01 X3.6092 Y16.3781 F60.00
G01 X3.6166 Y16.3580 F60.00
G01 X3.6246 Y16.3381 F60.00
G01 X3.6331 Y16.3183 F60.00
G01 X3.6420 Y16.2988 F60.00
G01 X3.7049 Y16.1658 F60.00
G01 X3.7143 Y16.1465 F60.00
G01 X3.7242 Y16.1275 F60.00
G01 X3.7346 Y16.1087 F60.00
G01 X3.7454 Y16.0901 F60.00
G01 X3.8210 Y15.9639 F60.00
G01 X3.8323 Y15.9456 F60.00
G01 X3.8440 Y15.9276 F60.00
G01 X3.8561 Y15.9099 F60.00
G01 X3.8687 Y15.8925 F60.00
G01 X3.9694 Y15.7572 F60.00
G01 X3.9828 Y15.7405 F60.00
G01 X3.9966 Y15.7241 F60.00
G01 X4.0108 Y15.7080 F60.00
G01 X4.1097 Y15.5989 F60.00
G01 X4.1243 Y15.5832 F60.00
G01 X4.1392 Y15.5678 F60.00
G01 X4.1546 Y15.5529 F60.00
G01 X4.2794 Y15.4394 F60.00
G01 X4.2955 Y15.4252 F60.00
G01 X4.3119 Y15.4114 F60.00
G01 X4.3286 Y15.3980 F60.00
G01 X4.3457 Y15.3850 F60.00
G01 X4.4639 Y15.2973 F60.00
G01 X4.4813 Y15.2847 F60.00
G01 X4.4990 Y15.2726 F60.00
G01 X4.5170 Y15.2609 F60.00
G01 X4.5353 Y15.2496 F60.00
G01 X4.6615 Y15.1740 F60.00
G01 X4.6801 Y15.1632 F60.00
G01 X4.6988 Y15.1528 F60.00
G01 X4.7179 Y15.1429 F60.00
G01 X4.7372 Y15.1335 F60.00
G01 X4.8702 Y15.0706 F60.00
G01 X4.8897 Y15.0617 F60.00
G01 X4.9095 Y15.0532 F60.00
G01 X4.9294 Y15.0452 F60.00
G01 X5.0881 Y14.9882 F60.00
G01 X5.1084 Y14.9812 F60.00
G01 X5.1288 Y14.9747 F60.00
G01 X5.1494 Y14.9687 F60.00
G01 X5.1702 Y14.9633 F60.00
G01 X5.3130 Y14.9275 F60.00
G01 X5.3338 Y14.9225 F60.00
G01 X5.3548 Y14.9181 F60.00
G01 X5.3759 Y14.9142 F60.00
G01 X5.5427 Y14.8892 F60.00
G01 X5.5640 Y14.8863 F60.00
G01 X5.5853 Y14.8839 F60.00
G01 X5.6067 Y14.8821 F60.00
G01 X5.7751 Y14.8735 F60.00
G01 X5.7965 Y14.8727 F60.00
G01 X5.8180 Y14.8725 F60.00
G01 X5.8394 Y14.8727 F60.00
G01 X5.8609 Y14.8735 F60.00
G01 X6.0079 Y14.8808 F60.00
G01 X6.0293 Y14.8821 F60.00
G01 X6.0507 Y14.8839 F60.00
G01 X6.0720 Y14.8863 F60.00
G01 X6.0933 Y14.8892 F60.00
G01 X6.2389 Y14.9108 F60.00
G01 X6.2601 Y14.9142 F60.00
G01 X6.2812 Y14.9181 F60.00
G01 X6.3022 Y14.9225 F60.00
G01 X6.3230 Y14.9275 F60.00
G01 X6.4658 Y14.9633 F60.00
G01 X6.4866 Y14.9687 F60.00
G01 X6.5072 Y14.9747 F60.00
G01 X6.5276 Y14.9812 F60.00
G01 X6.6865 Y15.0378 F60.00
G01 X6.7066 Y15.0452 F60.00
G01 X6.7265 Y15.0532 F60.00
G01 X6.7462 Y15.0617 F60.00
G01 X6.7658 Y15.0706 F60.00
G01 X6.8742 Y15.1219 F60.00
G01 X10.2973 Y15.1219 F60.00
G01 X11.0516 Y14.3675 F60.00
G01 X6.8742 Y14.3675 F60.00
G01 X6.7658 Y14.4188 F60.00
G01 X6.7462 Y14.4277 F60.00
G01 X6.7265 Y14.4362 F60.00
G01 X6.7066 Y14.4442 F60.00
G01 X6.6865 Y14.4516 F60.00
G01 X6.5276 Y14.5082 F60.00
G01 X6.5072 Y14.5147 F60.00
G01 X6.4866 Y14.5207 F60.00
G01 X6.4658 Y14.5261 F60.00
G01 X6.3230 Y14.5619 F60.00
G01 X6.3022 Y14.5669 F60.00
G01 X6.2812 Y14.5713 F60.00
G01 X6.2601 Y14.5752 F60.00
G01 X6.2389 Y14.5786 F60.00
G01 X6.0933 Y14.6002 F60.00
G01 X6.0720 Y14.6031 F60.00
G01 X6.0507 Y14.6055 F60.00
G01 X6.0293 Y14.6073 F60.00
G01 X6.0079 Y14.6086 F60.00
G01 X5.8609 Y14.6159 F60.00
G01 X5.8394 Y14.6167 F60.00
G01 X5.8180 Y14.6169 F60.00
G01 X5.7965 Y14.6167 F60.00
G01 X5.7751 Y14.6159 F60.00
G01 X5.6067 Y14.6073 F60.00
G01 X5.5853 Y14.6055 F60.00
G01 X5.5640 Y14.6031 F60.00
G01 X5.5427 Y14.6002 F60.00
G01 X5.3759 Y14.5752 F60.00
G01 X5.3548 Y14.5713 F60.00
G01 X5.3338 Y14.5669 F60.00
G01 X5.3130 Y14.5619 F60.00
G01 X5.1702 Y14.5261 F60.00
G01 X5.1494 Y14.5207 F60.00
G01 X5.1288 Y14.5147 F60.00
G01 X5.1084 Y14.5082 F60.00
G01 X5.0881 Y14.5012 F60.00
G01 X4.9294 Y14.4442 F60.00
G01 X4.9095 Y14.4362 F60.00
G01 X4.8897 Y14.4277 F60.00
G01 X4.8702 Y14.4188 F60.00
G01 X4.7372 Y14.3559 F60.00
G01 X4.7179 Y14.3465 F60.00
G01 X4.6988 Y14.3366 F60.00
G01 X4.6801 Y14.3262 F60.00
G01 X4.6615 Y14.3154 F60.00
G01 X4.5353 Y14.2398 F60.00
G01 X4.5170 Y14.2285 F60.00
G01 X4.4990 Y14.2168 F60.00
G01 X4.4813 Y14.2047 F60.00
G01 X4.4639 Y14.1921 F60.00
G01 X4.3457 Y14.1044 F60.00
G01 X4.3286 Y14.0914 F60.00
G01 X4.3119 Y14.0780 F60.00
G01 X4.2955 Y14.0642 F60.00
G01 X4.2794 Y14.0500 F60.00
G01 X4.1703 Y13.9511 F60.00
G01 X4.1546 Y13.9365 F60.00
G01 X4.1392 Y13.9216 F60.00
G01 X4.1243 Y13.9062 F60.00
G01 X4.1097 Y13.8905 F60.00
G01 X4.0108 Y13.7814 F60.00
G01 X3.9966 Y13.7653 F60.00
G01 X3.9828 Y13.7489 F60.00
G01 X3.9694 Y13.7322 F60.00
G01 X3.9564 Y13.7151 F60.00
G01 X3.8687 Y13.5969 F60.00
G01 X3.8561 Y13.5795 F60.00
G01 X3.8440 Y13.5618 F60.00
G01 X3.8323 Y13.5438 F60.00
G01 X3.7454 Y13.3993 F60.00
G01 X3.7346 Y13.3807 F60.00
G01 X3.7242 Y13.3619 F60.00
G01 X3.7143 Y13.3429 F60.00
G01 X3.7049 Y13.3236 F60.00
G01 X3.6420 Y13.1906 F60.00
G01 X3.6331 Y13.1711 F60.00
G01 X3.6246 Y13.1513 F60.00
G01 X3.6166 Y13.1314 F60.00
G01 X3.6092 Y13.1113 F60.00
G01 X3.5596 Y12.9727 F60.00
G01 X3.5526 Y12.9524 F60.00
G01 X3.5461 Y12.9320 F60.00
G01 X3.5401 Y12.9114 F60.00
G01 X3.5347 Y12.8906 F60.00
G01 X3.4989 Y12.7478 F60.00
G01 X3.4939 Y12.7270 F60.00
G01 X3.4895 Y12.7060 F60.00
G01 X3.4856 Y12.6849 F60.00
G01 X3.4822 Y12.6637 F60.00
G01 X3.4606 Y12.5181 F60.00
G01 X3.4577 Y12.4968 F60.00
G01 X3.4553 Y12.4755 F60.00
G01 X3.4535 Y12.4541 F60.00
G01 X3.4522 Y12.4327 F60.00
G01 X3.4449 Y12.2857 F60.00
G01 X3.4441 Y12.2643 F60.00
G01 X3.4439 Y12.2428 F60.00
G01 X3.4441 Y12.2213 F60.00
G01 X3.4449 Y12.1999 F60.00
G01 X3.4522 Y12.0529 F60.00
G01 X3.4535 Y12.0315 F60.00
G01 X3.4553 Y12.0101 F60.00
G01 X3.4577 Y11.9888 F60.00
G01 X3.4606 Y11.9675 F60.00
G01 X3.4822 Y11.8219 F60.00
G01 X3.4856 Y11.8007 F60.00
G01 X3.4895 Y11.7796 F60.00
G01 X3.4939 Y11.7586 F60.00
G01 X3.4989 Y11.7378 F60.00
G01 X3.5347 Y11.5950 F60.00
G01 X3.5401 Y11.5742 F60.00
G01 X3.5461 Y11.5536 F60.00
G01 X3.5526 Y11.5332 F60.00
G01 X3.5596 Y11.5129 F60.00
G01 X3.6166 Y11.3542 F60.00
G01 X3.6246 Y11.3343 F60.00
G01 X3.6331 Y11.3145 F60.00
G01 X3.6420 Y11.2950 F60.00
G01 X3.7049 Y11.1620 F60.00
G01 X3.7143 Y11.1427 F60.00
G01 X3.7242 Y11.1237 F60.00
G01 X3.7346 Y11.1049 F60.00
G01 X3.8210 Y10.9601 F60.00
G01 X3.8323 Y10.9418 F60.00
G01 X3.8440 Y10.9238 F60.00
G01 X3.8561 Y10.9061 F60.00
G01 X3.9564 Y10.7705 F60.00
G01 X3.9694 Y10.7534 F60.00
G01 X3.9828 Y10.7367 F60.00
G01 X3.9966 Y10.7203 F60.00
G01 X4.0108 Y10.7042 F60.00
G01 X4.1097 Y10.5951 F60.00
G01 X4.1243 Y10.5794 F60.00
G01 X4.1392 Y10.5640 F60.00
G01 X4.1546 Y10.5491 F60.00
G01 X4.1703 Y10.5345 F60.00
G01 X4.2794 Y10.4356 F60.00
G01 X4.2955 Y10.4214 F60.00
G01 X4.3119 Y10.4076 F60.00
G01 X4.3286 Y10.3942 F60.00
G01 X4.3457 Y10.3812 F60.00
G01 X4.4813 Y10.2809 F60.00
G01 X4.4990 Y10.2688 F60.00
G01 X4.5170 Y10.2571 F60.00
G01 X4.5353 Y10.2458 F60.00
G01 X4.6801 Y10.1594 F60.00
G01 X4.6988 Y10.1490 F60.00
G01 X4.7179 Y10.1391 F60.00
G01 X4.7372 Y10.1297 F60.00
G01 X4.8702 Y10.0668 F60.00
G01 X4.8897 Y10.0579 F60.00
G01 X4.9095 Y10.0494 F60.00
G01 X4.9294 Y10.0414 F60.00
G01 X5.0881 Y9.9844 F60.00
G01 X5.1084 Y9.9774 F60.00
G01 X5.1288 Y9.9709 F60.00
G01 X5.1494 Y9.9649 F60.00
G01 X5.1702 Y9.9595 F60.00
G01 X5.3130 Y9.9237 F60.00
G01 X5.3338 Y9.9187 F60.00
G01 X5.3548 Y9.9143 F60.00
G01 X5.3759 Y9.9104 F60.00
G01 X5.3971 Y9.9070 F60.00
G01 X5.5427 Y9.8854 F60.00
G01 X5.5640 Y9.8825 F60.00
G01 X5.5853 Y9.8801 F60.00
G01 X5.6067 Y9.8783 F60.00
G01 X5.6281 Y9.8770 F60.00
G01 X5.7751 Y9.8697 F60.00
G01 X5.7965 Y9.8689 F60.00
G01 X5.8180 Y9.8687 F60.00
G01 X5.8394 Y9.8689 F60.00
G01 X5.8609 Y9.8697 F60.00
G01 X6.0079 Y9.8770 F60.00
G01 X6.0293 Y9.8783 F60.00
G01 X6.0507 Y9.8801 F60.00
G01 X6.0720 Y9.8825 F60.00
G01 X6.0933 Y9.8854 F60.00
G01 X6.2389 Y9.9070 F60.00
G01 X6.2601 Y9.9104 F60.00
G01 X6.2812 Y9.9143 F60.00
G01 X6.3022 Y9.9187 F60.00
G01 X6.3230 Y9.9237 F60.00
G01 X6.4866 Y9.9649 F60.00
G01 X6.5072 Y9.9709 F60.00
G01 X6.5276 Y9.9774 F60.00
G01 X6.5479 Y9.9844 F60.00
G01 X6.7066 Y10.0414 F60.00
G01 X6.7265 Y10.0494 F60.00
G01 X6.7462 Y10.0579 F60.00
G01 X6.8742 Y10.1181 F60.00
G00 Z3.0000
G00 X6.8306 Y10.3099
G01 F60.00
G01 Z-0.0980
G01 F60.00
G01 X22.8736 Y10.3099 F60.00
G01 X23.7553 Y9.4283 F60.00
G01 X23.7795 Y9.4052 F60.00
G01 X23.8704 Y9.3228 F60.00
G01 X23.8958 Y9.3009 F60.00
G01 X23.9222 Y9.2803 F60.00
G01 X24.0208 Y9.2072 F60.00
G01 X24.0482 Y9.1879 F60.00
G01 X24.0764 Y9.1700 F60.00
G01 X24.1817 Y9.1069 F60.00
G01 X24.2109 Y9.0904 F60.00
G01 X24.2408 Y9.0753 F60.00
G01 X24.3517 Y9.0228 F60.00
G01 X24.3823 Y9.0093 F60.00
G01 X24.4136 Y8.9972 F60.00
G01 X24.5291 Y8.9559 F60.00
G01 X24.5609 Y8.9454 F60.00
G01 X24.5932 Y8.9364 F60.00
G01 X24.7122 Y8.9066 F60.00
G01 X24.7449 Y8.8993 F60.00
G01 X24.7779 Y8.8936 F60.00
G01 X24.8993 Y8.8755 F60.00
G01 X24.9325 Y8.8714 F60.00
G01 X24.9659 Y8.8690 F60.00
G01 X25.1053 Y8.8623 F60.00
G01 X27.4683 Y8.8621 F60.00
G01 X27.4982 Y8.8444 F60.00
G01 X27.5277 Y8.8287 F60.00
G01 X27.6537 Y8.7688 F60.00
G01 X27.6843 Y8.7553 F60.00
G01 X27.7156 Y8.7432 F60.00
G01 X27.8311 Y8.7019 F60.00
G01 X27.8470 Y8.6964 F60.00
G01 X27.8790 Y8.6867 F60.00
G01 X28.0142 Y8.6526 F60.00
G01 X28.0469 Y8.6453 F60.00
G01 X28.0799 Y8.6396 F60.00
G01 X28.2013 Y8.6215 F60.00
G01 X28.2345 Y8.6174 F60.00
G01 X28.2512 Y8.6160 F60.00
G01 X28.4073 Y8.6083 F60.00
G01 X31.4212 Y8.6081 F60.00
G01 X31.4547 Y8.6090 F60.00
G01 X31.5773 Y8.6150 F60.00
G01 X31.6107 Y8.6174 F60.00
G01 X31.6439 Y8.6215 F60.00
G01 X31.7653 Y8.6396 F60.00
G01 X31.7818 Y8.6422 F60.00
G01 X31.8147 Y8.6487 F60.00
G01 X31.9500 Y8.6824 F60.00
G01 X31.9823 Y8.6914 F60.00
G01 X31.9982 Y8.6964 F60.00
G01 X32.1453 Y8.7491 F60.00
G01 X32.1609 Y8.7553 F60.00
G01 X32.1915 Y8.7688 F60.00
G01 X32.3024 Y8.8213 F60.00
G01 X32.3323 Y8.8364 F60.00
G01 X32.3615 Y8.8529 F60.00
G01 X32.4667 Y8.9160 F60.00
G01 X32.4950 Y8.9339 F60.00
G01 X32.5088 Y8.9434 F60.00
G01 X32.6210 Y9.0263 F60.00
G01 X32.6343 Y9.0364 F60.00
G01 X32.6602 Y9.0577 F60.00
G01 X32.7760 Y9.1626 F60.00
G01 X32.7996 Y9.1862 F60.00
G01 X32.8110 Y9.1985 F60.00
G01 X32.9045 Y9.3020 F60.00
G01 X32.9258 Y9.3279 F60.00
G01 X32.9359 Y9.3412 F60.00
G01 X33.0090 Y9.4398 F60.00
G01 X33.0283 Y9.4672 F60.00
G01 X33.0462 Y9.4955 F60.00
G01 X33.1178 Y9.6152 F60.00
G01 X33.1258 Y9.6299 F60.00
G01 X33.1409 Y9.6598 F60.00
G01 X33.1934 Y9.7707 F60.00
G01 X33.2069 Y9.8013 F60.00
G01 X33.2190 Y9.8326 F60.00
G01 X33.2603 Y9.9481 F60.00
G01 X33.2708 Y9.9799 F60.00
G01 X33.2798 Y10.0122 F60.00
G01 X33.3096 Y10.1312 F60.00
G01 X33.3169 Y10.1639 F60.00
G01 X33.3226 Y10.1969 F60.00
G01 X33.3407 Y10.3183 F60.00
G01 X33.3447 Y10.3515 F60.00
G01 X33.3472 Y10.3849 F60.00
G01 X33.3532 Y10.5075 F60.00
G01 X33.3541 Y10.5410 F60.00
G01 X33.3532 Y10.5745 F60.00
G01 X33.3472 Y10.6971 F60.00
G01 X33.3447 Y10.7305 F60.00
G01 X33.3407 Y10.7637 F60.00
G01 X33.3226 Y10.8851 F60.00
G01 X33.3169 Y10.9181 F60.00
G01 X33.3096 Y10.9508 F60.00
G01 X33.2798 Y11.0698 F60.00
G01 X33.2708 Y11.1021 F60.00
G01 X33.2603 Y11.1339 F60.00
G01 X33.2190 Y11.2494 F60.00
G01 X33.2069 Y11.2807 F60.00
G01 X33.1934 Y11.3113 F60.00
G01 X33.1409 Y11.4222 F60.00
G01 X33.1258 Y11.4521 F60.00
G01 X33.1093 Y11.4813 F60.00
G01 X33.0462 Y11.5865 F60.00
G01 X33.0283 Y11.6148 F60.00
G01 X33.0090 Y11.6422 F60.00
G01 X32.9359 Y11.7408 F60.00
G01 X32.9153 Y11.7672 F60.00
G01 X32.8934 Y11.7925 F60.00
G01 X32.8110 Y11.8835 F60.00
G01 X32.7879 Y11.9077 F60.00
G01 X32.7637 Y11.9308 F60.00
G01 X32.6727 Y12.0132 F60.00
G01 X32.6474 Y12.0351 F60.00
G01 X32.6210 Y12.0557 F60.00
G01 X32.5224 Y12.1288 F60.00
G01 X32.4950 Y12.1481 F60.00
G01 X32.4667 Y12.1660 F60.00
G01 X32.3470 Y12.2376 F60.00
G01 X32.3323 Y12.2456 F60.00
G01 X32.3024 Y12.2607 F60.00
G01 X32.1915 Y12.3132 F60.00
G01 X32.1609 Y12.3267 F60.00
G01 X32.1296 Y12.3388 F60.00
G01 X32.0141 Y12.3801 F60.00
G01 X31.9823 Y12.3906 F60.00
G01 X31.9500 Y12.3996 F60.00
G01 X31.8310 Y12.4294 F60.00
G01 X31.7983 Y12.4367 F60.00
G01 X31.7653 Y12.4424 F60.00
G01 X31.6439 Y12.4605 F60.00
G01 X31.6107 Y12.4646 F60.00
G01 X31.5940 Y12.4660 F60.00
G01 X31.4547 Y12.4730 F60.00
G01 X31.4212 Y12.4739 F60.00
G01 X29.1257 Y12.4739 F60.00
G01 X29.0958 Y12.4916 F60.00
G01 X29.0663 Y12.5073 F60.00
G01 X28.9251 Y12.5741 F60.00
G01 X28.8941 Y12.5869 F60.00
G01 X28.8784 Y12.5928 F60.00
G01 X28.7629 Y12.6341 F60.00
G01 X28.7311 Y12.6446 F60.00
G01 X28.6988 Y12.6536 F60.00
G01 X28.5798 Y12.6834 F60.00
G01 X28.5471 Y12.6907 F60.00
G01 X28.5141 Y12.6964 F60.00
G01 X28.3927 Y12.7145 F60.00
G01 X28.3761 Y12.7167 F60.00
G01 X28.3428 Y12.7200 F60.00
G01 X28.2035 Y12.7270 F60.00
G01 X28.1700 Y12.7279 F60.00
G01 X25.9226 Y12.7279 F60.00
G01 X25.0290 Y13.6212 F60.00
G01 X24.9257 Y13.7150 F60.00
G01 X24.9004 Y13.7369 F60.00
G01 X24.8740 Y13.7575 F60.00
G01 X24.7754 Y13.8306 F60.00
G01 X24.7480 Y13.8499 F60.00
G01 X24.7197 Y13.8678 F60.00
G01 X24.6145 Y13.9309 F60.00
G01 X24.5853 Y13.9474 F60.00
G01 X24.5554 Y13.9625 F60.00
G01 X24.4445 Y14.0150 F60.00
G01 X24.4139 Y14.0285 F60.00
G01 X24.3826 Y14.0406 F60.00
G01 X24.2512 Y14.0874 F60.00
G01 X24.2192 Y14.0971 F60.00
G01 X24.2030 Y14.1014 F60.00
G01 X24.0840 Y14.1312 F60.00
G01 X24.0677 Y14.1351 F60.00
G01 X24.0348 Y14.1416 F60.00
G01 X23.8803 Y14.1645 F60.00
G01 X23.8470 Y14.1678 F60.00
G01 X23.7748 Y14.1715 F60.00
G01 X23.8580 Y14.2333 F60.00
G01 X23.8844 Y14.2539 F60.00
G01 X23.9097 Y14.2758 F60.00
G01 X24.0130 Y14.3696 F60.00
G01 X24.3478 Y14.7041 F60.00
G01 X33.8850 Y14.7041 F60.00
G01 X33.9185 Y14.7050 F60.00
G01 X34.0411 Y14.7110 F60.00
G01 X34.0745 Y14.7134 F60.00
G01 X34.0911 Y14.7153 F60.00
G01 X34.2456 Y14.7382 F60.00
G01 X34.2785 Y14.7447 F60.00
G01 X34.3069 Y14.7517 F60.00
G01 X37.0309 Y12.0276 F60.00
G01 X37.0339 Y11.9975 F60.00
G01 X37.0361 Y11.9809 F60.00
G01 X37.0419 Y11.9479 F60.00
G01 X37.0453 Y11.9315 F60.00
G01 X37.0492 Y11.9152 F60.00
G01 X37.0581 Y11.8830 F60.00
G01 X37.0686 Y11.8512 F60.00
G01 X37.0745 Y11.8355 F60.00
G01 X37.0873 Y11.8045 F60.00
G01 X37.1016 Y11.7743 F60.00
G01 X37.1093 Y11.7594 F60.00
G01 X37.1258 Y11.7303 F60.00
G01 X37.1437 Y11.7020 F60.00
G01 X37.1532 Y11.6882 F60.00
G01 X37.1732 Y11.6613 F60.00
G01 X37.1944 Y11.6354 F60.00
G01 X37.2169 Y11.6106 F60.00
G01 X37.2406 Y11.5869 F60.00
G01 X37.2528 Y11.5755 F60.00
G01 X37.2782 Y11.5536 F60.00
G01 X37.2913 Y11.5432 F60.00
G01 X37.3182 Y11.5232 F60.00
G01 X37.3460 Y11.5046 F60.00
G01 X37.3603 Y11.4958 F60.00
G01 X37.3747 Y11.4874 F60.00
G01 X37.4043 Y11.4716 F60.00
G01 X37.4193 Y11.4643 F60.00
G01 X37.4499 Y11.4507 F60.00
G01 X37.4655 Y11.4445 F60.00
G01 X37.4970 Y11.4332 F60.00
G01 X37.5290 Y11.4235 F60.00
G01 X37.5615 Y11.4153 F60.00
G01 X37.5779 Y11.4119 F60.00
G01 X37.5944 Y11.4088 F60.00
G01 X37.6275 Y11.4039 F60.00
G01 X37.6608 Y11.4006 F60.00
G01 X37.6943 Y11.3990 F60.00
G01 X37.7609 Y11.3988 F60.00
G01 X37.7852 Y11.3844 F60.00
G01 X37.8147 Y11.3687 F60.00
G01 X37.9407 Y11.3088 F60.00
G01 X37.9713 Y11.2953 F60.00
G01 X38.0026 Y11.2832 F60.00
G01 X38.1181 Y11.2419 F60.00
G01 X38.1340 Y11.2364 F60.00
G01 X38.1660 Y11.2267 F60.00
G01 X38.3012 Y11.1926 F60.00
G01 X38.3339 Y11.1853 F60.00
G01 X38.3504 Y11.1822 F60.00
G01 X38.5049 Y11.1593 F60.00
G01 X38.5215 Y11.1574 F60.00
G01 X38.5549 Y11.1550 F60.00
G01 X38.6775 Y11.1490 F60.00
G01 X38.7110 Y11.1481 F60.00
G01 X43.2444 Y11.1481 F60.00
G01 X43.4507 Y10.9418 F60.00
G01 X43.4578 Y10.9166 F60.00
G01 X43.4628 Y10.9006 F60.00
G01 X43.5186 Y10.7440 F60.00
G01 X43.5307 Y10.7127 F60.00
G01 X43.5443 Y10.6821 F60.00
G01 X43.6082 Y10.5469 F60.00
G01 X43.6233 Y10.5170 F60.00
G01 X43.6398 Y10.4879 F60.00
G01 X43.7167 Y10.3596 F60.00
G01 X43.7254 Y10.3453 F60.00
G01 X43.7441 Y10.3175 F60.00
G01 X43.8430 Y10.1838 F60.00
G01 X43.8636 Y10.1574 F60.00
G01 X43.8854 Y10.1320 F60.00
G01 X43.9859 Y10.0212 F60.00
G01 X43.9973 Y10.0089 F60.00
G01 X44.0209 Y9.9853 F60.00
G01 X44.1566 Y9.8623 F60.00
G01 X44.1694 Y9.8516 F60.00
G01 X44.1958 Y9.8310 F60.00
G01 X44.3159 Y9.7419 F60.00
G01 X44.3433 Y9.7226 F60.00
G01 X44.3716 Y9.7047 F60.00
G01 X44.4998 Y9.6278 F60.00
G01 X44.5290 Y9.6113 F60.00
G01 X44.5589 Y9.5962 F60.00
G01 X44.6941 Y9.5323 F60.00
G01 X44.7247 Y9.5187 F60.00
G01 X44.7559 Y9.5067 F60.00
G01 X44.8968 Y9.4563 F60.00
G01 X44.9286 Y9.4458 F60.00
G01 X44.9608 Y9.4368 F60.00
G01 X45.1059 Y9.4005 F60.00
G01 X45.1386 Y9.3932 F60.00
G01 X45.1716 Y9.3874 F60.00
G01 X45.3361 Y9.3632 F60.00
G01 X45.3694 Y9.3599 F60.00
G01 X45.3861 Y9.3589 F60.00
G01 X45.5355 Y9.3516 F60.00
G01 X45.5690 Y9.3508 F60.00
G01 X45.6025 Y9.3516 F60.00
G01 X45.7519 Y9.3589 F60.00
G01 X45.7852 Y9.3614 F60.00
G01 X45.8185 Y9.3655 F60.00
G01 X45.9664 Y9.3874 F60.00
G01 X45.9994 Y9.3932 F60.00
G01 X46.0321 Y9.4005 F60.00
G01 X46.1772 Y9.4368 F60.00
G01 X46.2094 Y9.4458 F60.00
G01 X46.2412 Y9.4563 F60.00
G01 X46.3977 Y9.5125 F60.00
G01 X46.4287 Y9.5253 F60.00
G01 X46.4439 Y9.5323 F60.00
G01 X46.5791 Y9.5962 F60.00
G01 X46.6090 Y9.6113 F60.00
G01 X46.6381 Y9.6278 F60.00
G01 X46.7664 Y9.7047 F60.00
G01 X46.7807 Y9.7134 F60.00
G01 X46.8085 Y9.7321 F60.00
G01 X46.9555 Y9.8411 F60.00
G01 X46.9686 Y9.8516 F60.00
G01 X46.9940 Y9.8734 F60.00
G01 X47.1048 Y9.9739 F60.00
G01 X47.1290 Y9.9970 F60.00
G01 X47.1521 Y10.0212 F60.00
G01 X47.2526 Y10.1320 F60.00
G01 X47.2744 Y10.1574 F60.00
G01 X47.2950 Y10.1838 F60.00
G01 X47.3841 Y10.3039 F60.00
G01 X47.4034 Y10.3313 F60.00
G01 X47.4213 Y10.3596 F60.00
G01 X47.4982 Y10.4879 F60.00
G01 X47.5147 Y10.5170 F60.00
G01 X47.5298 Y10.5469 F60.00
G01 X47.5937 Y10.6821 F60.00
G01 X47.6073 Y10.7127 F60.00
G01 X47.6193 Y10.7440 F60.00
G01 X47.6697 Y10.8848 F60.00
G01 X47.6802 Y10.9166 F60.00
G01 X47.6892 Y10.9488 F60.00
G01 X47.7255 Y11.0939 F60.00
G01 X47.7328 Y11.1266 F60.00
G01 X47.7386 Y11.1596 F60.00
G01 X47.7605 Y11.3075 F60.00
G01 X47.7646 Y11.3408 F60.00
G01 X47.7671 Y11.3741 F60.00
G01 X47.7744 Y11.5235 F60.00
G01 X47.7752 Y11.5570 F60.00
G01 X47.7750 Y11.5737 F60.00
G01 X47.7671 Y11.7399 F60.00
G01 X47.7646 Y11.7732 F60.00
G01 X47.7605 Y11.8065 F60.00
G01 X47.7386 Y11.9544 F60.00
G01 X47.7328 Y11.9874 F60.00
G01 X47.7255 Y12.0201 F60.00
G01 X47.6892 Y12.1652 F60.00
G01 X47.6802 Y12.1974 F60.00
G01 X47.6697 Y12.2292 F60.00
G01 X47.6193 Y12.3700 F60.00
G01 X47.6073 Y12.4013 F60.00
G01 X47.5937 Y12.4319 F60.00
G01 X47.5298 Y12.5671 F60.00
G01 X47.5147 Y12.5970 F60.00
G01 X47.4982 Y12.6261 F60.00
G01 X47.4213 Y12.7544 F60.00
G01 X47.4034 Y12.7827 F60.00
G01 X47.3841 Y12.8101 F60.00
G01 X47.2950 Y12.9302 F60.00
G01 X47.2744 Y12.9566 F60.00
G01 X47.2526 Y12.9820 F60.00
G01 X47.1521 Y13.0928 F60.00
G01 X47.1290 Y13.1170 F60.00
G01 X47.1048 Y13.1401 F60.00
G01 X46.9940 Y13.2406 F60.00
G01 X46.9686 Y13.2624 F60.00
G01 X46.9422 Y13.2830 F60.00
G01 X46.8221 Y13.3721 F60.00
G01 X46.7947 Y13.3914 F60.00
G01 X46.7664 Y13.4093 F60.00
G01 X46.6381 Y13.4862 F60.00
G01 X46.6090 Y13.5027 F60.00
G01 X46.5791 Y13.5178 F60.00
G01 X46.4287 Y13.5887 F60.00
G01 X46.4133 Y13.5953 F60.00
G01 X46.3820 Y13.6073 F60.00
G01 X46.2412 Y13.6577 F60.00
G01 X46.2094 Y13.6682 F60.00
G01 X46.1841 Y13.6753 F60.00
G01 X45.4117 Y14.4477 F60.00
G01 X45.3875 Y14.4708 F60.00
G01 X45.2840 Y14.5643 F60.00
G01 X45.2712 Y14.5751 F60.00
G01 X45.2448 Y14.5957 F60.00
G01 X45.1462 Y14.6688 F60.00
G01 X45.1188 Y14.6881 F60.00
G01 X45.0905 Y14.7060 F60.00
G01 X44.9853 Y14.7691 F60.00
G01 X44.9561 Y14.7856 F60.00
G01 X44.9262 Y14.8007 F60.00
G01 X44.8153 Y14.8532 F60.00
G01 X44.7847 Y14.8667 F60.00
G01 X44.7534 Y14.8788 F60.00
G01 X44.6379 Y14.9201 F60.00
G01 X44.6061 Y14.9306 F60.00
G01 X44.5738 Y14.9396 F60.00
G01 X44.4548 Y14.9694 F60.00
G01 X44.4221 Y14.9767 F60.00
G01 X44.3891 Y14.9824 F60.00
G01 X44.2677 Y15.0005 F60.00
G01 X44.2345 Y15.0046 F60.00
G01 X44.2011 Y15.0070 F60.00
G01 X44.0617 Y15.0137 F60.00
G01 X39.5116 Y15.0139 F60.00
G01 X37.3419 Y17.1836 F60.00
G01 X37.3417 Y18.1777 F60.00
G01 X37.3350 Y18.3171 F60.00
G01 X37.3325 Y18.3505 F60.00
G01 X37.3285 Y18.3837 F60.00
G01 X37.3078 Y18.5216 F60.00
G01 X37.3012 Y18.5545 F60.00
G01 X37.2974 Y18.5708 F60.00
G01 X37.2676 Y18.6898 F60.00
G01 X37.2586 Y18.7221 F60.00
G01 X37.2481 Y18.7539 F60.00
G01 X37.2068 Y18.8694 F60.00
G01 X37.1947 Y18.9007 F60.00
G01 X37.1812 Y18.9313 F60.00
G01 X37.1287 Y19.0422 F60.00
G01 X37.1136 Y19.0721 F60.00
G01 X37.0971 Y19.1013 F60.00
G01 X37.0340 Y19.2065 F60.00
G01 X37.0161 Y19.2348 F60.00
G01 X36.9968 Y19.2622 F60.00
G01 X36.9237 Y19.3608 F60.00
G01 X36.9031 Y19.3872 F60.00
G01 X36.8812 Y19.4125 F60.00
G01 X36.7988 Y19.5035 F60.00
G01 X36.7874 Y19.5158 F60.00
G01 X36.7638 Y19.5394 F60.00
G01 X36.6605 Y19.6332 F60.00
G01 X36.6352 Y19.6551 F60.00
G01 X36.6088 Y19.6757 F60.00
G01 X36.5102 Y19.7488 F60.00
G01 X36.4966 Y19.7586 F60.00
G01 X36.4688 Y19.7772 F60.00
G01 X36.3493 Y19.8491 F60.00
G01 X36.3201 Y19.8656 F60.00
G01 X36.2902 Y19.8807 F60.00
G01 X36.1793 Y19.9332 F60.00
G01 X36.1487 Y19.9467 F60.00
G01 X36.1174 Y19.9588 F60.00
G01 X36.0019 Y20.0001 F60.00
G01 X35.9701 Y20.0106 F60.00
G01 X35.9378 Y20.0196 F60.00
G01 X35.8188 Y20.0494 F60.00
G01 X35.7861 Y20.0567 F60.00
G01 X35.7696 Y20.0598 F60.00
G01 X35.6317 Y20.0805 F60.00
G01 X35.5985 Y20.0846 F60.00
G01 X35.5651 Y20.0870 F60.00
G01 X35.4425 Y20.0930 F60.00
G01 X35.4090 Y20.0939 F60.00
G01 X35.3755 Y20.0930 F60.00
G01 X35.2529 Y20.0870 F60.00
G01 X35.2195 Y20.0846 F60.00
G01 X35.1863 Y20.0805 F60.00
G01 X35.0649 Y20.0624 F60.00
G01 X35.0319 Y20.0567 F60.00
G01 X34.9992 Y20.0494 F60.00
G01 X34.8640 Y20.0153 F60.00
G01 X34.8479 Y20.0106 F60.00
G01 X34.8161 Y20.0001 F60.00
G01 X34.7006 Y19.9588 F60.00
G01 X34.6693 Y19.9467 F60.00
G01 X34.6387 Y19.9332 F60.00
G01 X34.5278 Y19.8807 F60.00
G01 X34.4979 Y19.8656 F60.00
G01 X34.4832 Y19.8576 F60.00
G01 X34.3492 Y19.7772 F60.00
G01 X34.3214 Y19.7586 F60.00
G01 X34.3078 Y19.7488 F60.00
G01 X34.2092 Y19.6757 F60.00
G01 X34.1828 Y19.6551 F60.00
G01 X34.1574 Y19.6332 F60.00
G01 X34.0665 Y19.5508 F60.00
G01 X34.0423 Y19.5277 F60.00
G01 X33.0844 Y18.5699 F60.00
G01 X23.5305 Y18.5697 F60.00
G01 X23.3911 Y18.5630 F60.00
G01 X23.3577 Y18.5606 F60.00
G01 X23.3245 Y18.5565 F60.00
G01 X23.2031 Y18.5384 F60.00
G01 X23.1701 Y18.5327 F60.00
G01 X23.1374 Y18.5254 F60.00
G01 X23.0184 Y18.4956 F60.00
G01 X22.9861 Y18.4866 F60.00
G01 X22.9543 Y18.4761 F60.00
G01 X22.8388 Y18.4348 F60.00
G01 X22.8075 Y18.4227 F60.00
G01 X22.7769 Y18.4092 F60.00
G01 X22.6660 Y18.3567 F60.00
G01 X22.6361 Y18.3416 F60.00
G01 X22.6069 Y18.3251 F60.00
G01 X22.5016 Y18.2620 F60.00
G01 X22.4734 Y18.2441 F60.00
G01 X22.4460 Y18.2248 F60.00
G01 X22.3474 Y18.1517 F60.00
G01 X22.3341 Y18.1416 F60.00
G01 X22.3082 Y18.1203 F60.00
G01 X22.2047 Y18.0268 F60.00
G01 X22.1805 Y18.0037 F60.00
G01 X21.2798 Y17.1028 F60.00
G01 X21.1749 Y16.9870 F60.00
G01 X21.1536 Y16.9611 F60.00
G01 X21.1435 Y16.9478 F60.00
G01 X21.0704 Y16.8492 F60.00
G01 X21.0511 Y16.8218 F60.00
G01 X21.0332 Y16.7935 F60.00
G01 X20.9701 Y16.6883 F60.00
G01 X20.9536 Y16.6591 F60.00
G01 X20.9385 Y16.6292 F60.00
G01 X20.8860 Y16.5183 F60.00
G01 X20.8725 Y16.4877 F60.00
G01 X20.8604 Y16.4564 F60.00
G01 X20.8191 Y16.3409 F60.00
G01 X20.8086 Y16.3091 F60.00
G01 X20.7996 Y16.2768 F60.00
G01 X20.7698 Y16.1578 F60.00
G01 X20.7625 Y16.1251 F60.00
G01 X20.7568 Y16.0921 F60.00
G01 X20.7387 Y15.9707 F60.00
G01 X20.7346 Y15.9375 F60.00
G01 X20.7322 Y15.9041 F60.00
G01 X20.7262 Y15.7815 F60.00
G01 X20.7253 Y15.7480 F60.00
G01 X20.7262 Y15.7145 F60.00
G01 X20.7322 Y15.5919 F60.00
G01 X20.7346 Y15.5585 F60.00
G01 X20.7387 Y15.5253 F60.00
G01 X20.7568 Y15.4039 F60.00
G01 X20.7625 Y15.3709 F60.00
G01 X20.7698 Y15.3382 F60.00
G01 X20.7996 Y15.2192 F60.00
G01 X20.8086 Y15.1869 F60.00
G01 X20.8136 Y15.1710 F60.00
G01 X20.8604 Y15.0396 F60.00
G01 X20.8725 Y15.0083 F60.00
G01 X20.8860 Y14.9777 F60.00
G01 X20.9459 Y14.8517 F60.00
G01 X20.9536 Y14.8369 F60.00
G01 X20.9701 Y14.8077 F60.00
G01 X21.0332 Y14.7025 F60.00
G01 X21.0511 Y14.6742 F60.00
G01 X21.0704 Y14.6468 F60.00
G01 X21.1435 Y14.5482 F60.00
G01 X21.1641 Y14.5218 F60.00
G01 X21.1859 Y14.4965 F60.00
G01 X21.2684 Y14.4055 F60.00
G01 X21.2915 Y14.3813 F60.00
G01 X21.3157 Y14.3582 F60.00
G01 X21.4066 Y14.2758 F60.00
G01 X21.4320 Y14.2539 F60.00
G01 X21.4584 Y14.2333 F60.00
G01 X21.5361 Y14.1757 F60.00
G01 X13.7981 Y14.1757 F60.00
G01 X13.8758 Y14.2333 F60.00
G01 X13.9022 Y14.2539 F60.00
G01 X13.9275 Y14.2758 F60.00
G01 X14.0308 Y14.3696 F60.00
G01 X14.3656 Y14.7041 F60.00
G01 X16.9432 Y14.7041 F60.00
G01 X16.9767 Y14.7050 F60.00
G01 X17.0993 Y14.7110 F60.00
G01 X17.1327 Y14.7134 F60.00
G01 X17.1659 Y14.7175 F60.00
G01 X17.3038 Y14.7382 F60.00
G01 X17.3367 Y14.7447 F60.00
G01 X17.3530 Y14.7486 F60.00
G01 X17.4720 Y14.7784 F60.00
G01 X17.5043 Y14.7874 F60.00
G01 X17.5361 Y14.7979 F60.00
G01 X17.6516 Y14.8392 F60.00
G01 X17.6829 Y14.8513 F60.00
G01 X17.7135 Y14.8648 F60.00
G01 X17.8395 Y14.9247 F60.00
G01 X17.8543 Y14.9324 F60.00
G01 X17.8835 Y14.9489 F60.00
G01 X17.9887 Y15.0120 F60.00
G01 X18.0170 Y15.0299 F60.00
G01 X18.0444 Y15.0492 F60.00
G01 X18.1430 Y15.1223 F60.00
G01 X18.1694 Y15.1429 F60.00
G01 X18.1947 Y15.1648 F60.00
G01 X18.2857 Y15.2472 F60.00
G01 X18.3099 Y15.2703 F60.00
G01 X18.3330 Y15.2945 F60.00
G01 X18.4265 Y15.3980 F60.00
G01 X18.4373 Y15.4108 F60.00
G01 X18.4579 Y15.4372 F60.00
G01 X18.5310 Y15.5358 F60.00
G01 X18.5503 Y15.5632 F60.00
G01 X18.5682 Y15.5915 F60.00
G01 X18.6313 Y15.6967 F60.00
G01 X18.6478 Y15.7259 F60.00
G01 X18.6629 Y15.7558 F60.00
G01 X18.7154 Y15.8667 F60.00
G01 X18.7289 Y15.8973 F60.00
G01 X18.7410 Y15.9286 F60.00
G01 X18.7823 Y16.0441 F60.00
G01 X18.7928 Y16.0759 F60.00
G01 X18.8018 Y16.1082 F60.00
G01 X18.8316 Y16.2272 F60.00
G01 X18.8389 Y16.2599 F60.00
G01 X18.8446 Y16.2929 F60.00
G01 X18.8627 Y16.4143 F60.00
G01 X18.8667 Y16.4475 F60.00
G01 X18.8692 Y16.4809 F60.00
G01 X18.8752 Y16.6035 F60.00
G01 X18.8761 Y16.6370 F60.00
G01 X18.8752 Y16.6705 F60.00
G01 X18.8692 Y16.7931 F60.00
G01 X18.8667 Y16.8265 F60.00
G01 X18.8627 Y16.8597 F60.00
G01 X18.8446 Y16.9811 F60.00
G01 X18.8389 Y17.0141 F60.00
G01 X18.8316 Y17.0468 F60.00
G01 X18.8018 Y17.1658 F60.00
G01 X18.7928 Y17.1981 F60.00
G01 X18.7823 Y17.2299 F60.00
G01 X18.7410 Y17.3454 F60.00
G01 X18.7289 Y17.3767 F60.00
G01 X18.7154 Y17.4073 F60.00
G01 X18.6629 Y17.5182 F60.00
G01 X18.6478 Y17.5481 F60.00
G01 X18.6313 Y17.5773 F60.00
G01 X18.5682 Y17.6825 F60.00
G01 X18.5503 Y17.7108 F60.00
G01 X18.5310 Y17.7382 F60.00
G01 X18.4579 Y17.8368 F60.00
G01 X18.4373 Y17.8632 F60.00
G01 X18.4154 Y17.8885 F60.00
G01 X18.3330 Y17.9795 F60.00
G01 X18.3099 Y18.0037 F60.00
G01 X18.2857 Y18.0268 F60.00
G01 X18.1947 Y18.1092 F60.00
G01 X18.1694 Y18.1311 F60.00
G01 X18.1430 Y18.1517 F60.00
G01 X18.0444 Y18.2248 F60.00
G01 X18.0170 Y18.2441 F60.00
G01 X17.9887 Y18.2620 F60.00
G01 X17.8835 Y18.3251 F60.00
G01 X17.8543 Y18.3416 F60.00
G01 X17.8244 Y18.3567 F60.00
G01 X17.7135 Y18.4092 F60.00
G01 X17.6983 Y18.4161 F60.00
G01 X17.6673 Y18.4289 F60.00
G01 X17.5202 Y18.4816 F60.00
G01 X17.5043 Y18.4866 F60.00
G01 X17.4720 Y18.4956 F60.00
G01 X17.3530 Y18.5254 F60.00
G01 X17.3203 Y18.5327 F60.00
G01 X17.2873 Y18.5384 F60.00
G01 X17.1659 Y18.5565 F60.00
G01 X17.1327 Y18.5606 F60.00
G01 X17.0993 Y18.5630 F60.00
G01 X16.9599 Y18.5697 F60.00
G01 X13.5483 Y18.5697 F60.00
G01 X13.4089 Y18.5630 F60.00
G01 X13.3755 Y18.5606 F60.00
G01 X13.3423 Y18.5565 F60.00
G01 X13.2209 Y18.5384 F60.00
G01 X13.2044 Y18.5358 F60.00
G01 X13.1715 Y18.5293 F60.00
G01 X13.0362 Y18.4956 F60.00
G01 X13.0039 Y18.4866 F60.00
G01 X12.9880 Y18.4816 F60.00
G01 X12.8409 Y18.4289 F60.00
G01 X12.8099 Y18.4161 F60.00
G01 X12.7655 Y18.3953 F60.00
G01 X12.5303 Y18.6268 F60.00
G01 X12.4289 Y18.7188 F60.00
G01 X12.4036 Y18.7407 F60.00
G01 X12.3772 Y18.7613 F60.00
G01 X12.2786 Y18.8344 F60.00
G01 X12.2512 Y18.8537 F60.00
G01 X12.2229 Y18.8716 F60.00
G01 X12.1032 Y18.9432 F60.00
G01 X12.0885 Y18.9512 F60.00
G01 X12.0586 Y18.9663 F60.00
G01 X11.9477 Y19.0188 F60.00
G01 X11.9171 Y19.0323 F60.00
G01 X11.8858 Y19.0444 F60.00
G01 X11.7544 Y19.0912 F60.00
G01 X11.7385 Y19.0962 F60.00
G01 X11.7062 Y19.1052 F60.00
G01 X11.5872 Y19.1350 F60.00
G01 X11.5545 Y19.1423 F60.00
G01 X11.5215 Y19.1480 F60.00
G01 X11.4001 Y19.1661 F60.00
G01 X11.3669 Y19.1702 F60.00
G01 X11.3335 Y19.1726 F60.00
G01 X11.2109 Y19.1786 F60.00
G01 X11.1774 Y19.1795 F60.00
G01 X6.8306 Y19.1795 F60.00
G01 X6.6837 Y19.2492 F60.00
G01 X6.6531 Y19.2627 F60.00
G01 X6.6219 Y19.2748 F60.00
G01 X6.4833 Y19.3244 F60.00
G01 X6.4515 Y19.3349 F60.00
G01 X6.4192 Y19.3438 F60.00
G01 X6.2764 Y19.3796 F60.00
G01 X6.2437 Y19.3869 F60.00
G01 X6.2107 Y19.3926 F60.00
G01 X6.0651 Y19.4142 F60.00
G01 X6.0319 Y19.4183 F60.00
G01 X5.9985 Y19.4208 F60.00
G01 X5.8515 Y19.4280 F60.00
G01 X5.8180 Y19.4288 F60.00
G01 X5.7845 Y19.4280 F60.00
G01 X5.6208 Y19.4198 F60.00
G01 X5.5875 Y19.4165 F60.00
G01 X5.5709 Y19.4142 F60.00
G01 X5.4253 Y19.3926 F60.00
G01 X5.3923 Y19.3869 F60.00
G01 X5.3596 Y19.3796 F60.00
G01 X5.2168 Y19.3438 F60.00
G01 X5.1845 Y19.3349 F60.00
G01 X5.1527 Y19.3244 F60.00
G01 X5.0141 Y19.2748 F60.00
G01 X4.9829 Y19.2627 F60.00
G01 X4.9523 Y19.2492 F60.00
G01 X4.8192 Y19.1862 F60.00
G01 X4.7893 Y19.1712 F60.00
G01 X4.7602 Y19.1547 F60.00
G01 X4.6339 Y19.0790 F60.00
G01 X4.6056 Y19.0611 F60.00
G01 X4.5782 Y19.0418 F60.00
G01 X4.4600 Y18.9541 F60.00
G01 X4.4336 Y18.9335 F60.00
G01 X4.4082 Y18.9116 F60.00
G01 X4.2992 Y18.8128 F60.00
G01 X4.2749 Y18.7897 F60.00
G01 X4.2518 Y18.7654 F60.00
G01 X4.1530 Y18.6564 F60.00
G01 X4.1311 Y18.6310 F60.00
G01 X4.1105 Y18.6046 F60.00
G01 X4.0228 Y18.4864 F60.00
G01 X4.0035 Y18.4590 F60.00
G01 X3.9856 Y18.4307 F60.00
G01 X3.9099 Y18.3044 F60.00
G01 X3.8934 Y18.2753 F60.00
G01 X3.8784 Y18.2454 F60.00
G01 X3.8154 Y18.1123 F60.00
G01 X3.8019 Y18.0817 F60.00
G01 X3.7898 Y18.0505 F60.00
G01 X3.7402 Y17.9119 F60.00
G01 X3.7297 Y17.8801 F60.00
G01 X3.7208 Y17.8478 F60.00
G01 X3.6850 Y17.7050 F60.00
G01 X3.6777 Y17.6723 F60.00
G01 X3.6720 Y17.6393 F60.00
G01 X3.6504 Y17.4937 F60.00
G01 X3.6463 Y17.4605 F60.00
G01 X3.6438 Y17.4271 F60.00
G01 X3.6366 Y17.2801 F60.00
G01 X3.6358 Y17.2466 F60.00
G01 X3.6366 Y17.2131 F60.00
G01 X3.6438 Y17.0661 F60.00
G01 X3.6463 Y17.0327 F60.00
G01 X3.6504 Y16.9995 F60.00
G01 X3.6720 Y16.8539 F60.00
G01 X3.6777 Y16.8209 F60.00
G01 X3.6850 Y16.7882 F60.00
G01 X3.7208 Y16.6454 F60.00
G01 X3.7297 Y16.6131 F60.00
G01 X3.7402 Y16.5813 F60.00
G01 X3.7898 Y16.4427 F60.00
G01 X3.8019 Y16.4115 F60.00
G01 X3.8154 Y16.3809 F60.00
G01 X3.8784 Y16.2478 F60.00
G01 X3.8934 Y16.2179 F60.00
G01 X3.9099 Y16.1888 F60.00
G01 X3.9856 Y16.0625 F60.00
G01 X4.0035 Y16.0342 F60.00
G01 X4.0228 Y16.0068 F60.00
G01 X4.1105 Y15.8886 F60.00
G01 X4.1311 Y15.8622 F60.00
G01 X4.1530 Y15.8368 F60.00
G01 X4.2518 Y15.7278 F60.00
G01 X4.2749 Y15.7035 F60.00
G01 X4.2992 Y15.6804 F60.00
G01 X4.4208 Y15.5705 F60.00
G01 X4.4467 Y15.5492 F60.00
G01 X4.4600 Y15.5391 F60.00
G01 X4.5782 Y15.4514 F60.00
G01 X4.6056 Y15.4321 F60.00
G01 X4.6339 Y15.4142 F60.00
G01 X4.7602 Y15.3385 F60.00
G01 X4.7893 Y15.3220 F60.00
G01 X4.8192 Y15.3070 F60.00
G01 X4.9675 Y15.2371 F60.00
G01 X4.9984 Y15.2243 F60.00
G01 X5.0141 Y15.2184 F60.00
G01 X5.1527 Y15.1688 F60.00
G01 X5.1845 Y15.1583 F60.00
G01 X5.2168 Y15.1494 F60.00
G01 X5.3596 Y15.1136 F60.00
G01 X5.3923 Y15.1063 F60.00
G01 X5.4253 Y15.1006 F60.00
G01 X5.5709 Y15.0790 F60.00
G01 X5.6041 Y15.0749 F60.00
G01 X5.6375 Y15.0724 F60.00
G01 X5.7845 Y15.0652 F60.00
G01 X5.8180 Y15.0644 F60.00
G01 X5.8515 Y15.0652 F60.00
G01 X5.9985 Y15.0724 F60.00
G01 X6.0319 Y15.0749 F60.00
G01 X6.0651 Y15.0790 F60.00
G01 X6.2107 Y15.1006 F60.00
G01 X6.2437 Y15.1063 F60.00
G01 X6.2764 Y15.1136 F60.00
G01 X6.4192 Y15.1494 F60.00
G01 X6.4515 Y15.1583 F60.00
G01 X6.4833 Y15.1688 F60.00
G01 X6.6219 Y15.2184 F60.00
G01 X6.6531 Y15.2305 F60.00
G01 X6.6685 Y15.2371 F60.00
G01 X6.8306 Y15.3137 F60.00
G01 X10.3768 Y15.3137 F60.00
G01 X11.3212 Y14.3696 F60.00
G01 X11.4244 Y14.2758 F60.00
G01 X11.4498 Y14.2539 F60.00
G01 X11.4762 Y14.2333 F60.00
G01 X11.5539 Y14.1757 F60.00
G01 X6.8306 Y14.1757 F60.00
G01 X6.6685 Y14.2523 F60.00
G01 X6.6376 Y14.2651 F60.00
G01 X6.6219 Y14.2710 F60.00
G01 X6.4833 Y14.3206 F60.00
G01 X6.4515 Y14.3311 F60.00
G01 X6.4192 Y14.3400 F60.00
G01 X6.2764 Y14.3758 F60.00
G01 X6.2437 Y14.3831 F60.00
G01 X6.2107 Y14.3888 F60.00
G01 X6.0651 Y14.4104 F60.00
G01 X6.0319 Y14.4145 F60.00
G01 X5.9985 Y14.4170 F60.00
G01 X5.8515 Y14.4242 F60.00
G01 X5.8180 Y14.4250 F60.00
G01 X5.8013 Y14.4248 F60.00
G01 X5.6375 Y14.4170 F60.00
G01 X5.6041 Y14.4145 F60.00
G01 X5.5709 Y14.4104 F60.00
G01 X5.4253 Y14.3888 F60.00
G01 X5.3923 Y14.3831 F60.00
G01 X5.3596 Y14.3758 F60.00
G01 X5.2168 Y14.3400 F60.00
G01 X5.1845 Y14.3311 F60.00
G01 X5.1527 Y14.3206 F60.00
G01 X5.0141 Y14.2710 F60.00
G01 X4.9829 Y14.2589 F60.00
G01 X4.9675 Y14.2523 F60.00
G01 X4.8192 Y14.1824 F60.00
G01 X4.7893 Y14.1674 F60.00
G01 X4.7602 Y14.1509 F60.00
G01 X4.6339 Y14.0752 F60.00
G01 X4.6056 Y14.0573 F60.00
G01 X4.5782 Y14.0380 F60.00
G01 X4.4600 Y13.9503 F60.00
G01 X4.4336 Y13.9297 F60.00
G01 X4.4082 Y13.9078 F60.00
G01 X4.2992 Y13.8090 F60.00
G01 X4.2749 Y13.7859 F60.00
G01 X4.2518 Y13.7616 F60.00
G01 X4.1530 Y13.6526 F60.00
G01 X4.1311 Y13.6272 F60.00
G01 X4.1105 Y13.6008 F60.00
G01 X4.0228 Y13.4826 F60.00
G01 X4.0035 Y13.4552 F60.00
G01 X3.9856 Y13.4269 F60.00
G01 X3.9099 Y13.3006 F60.00
