(G-CODE GENERATED BY FLATCAM v8.993 - www.flatcam.org - Version Date: 2020/06/05)

(Name: cam.drl_cnc)
(Type: G-code from Excellon)
(Units: MM)

(Created on Thursday, 14 September 2023 at 21:08)

(This preprocessor is used with a motion controller loaded with GRBL firmware.)
(It is configured to be compatible with almost any version of GRBL firmware.)


(TOOLS DIAMETER: )
(Tool: 1 -> Dia: 1.0007599999999999)
(Tool: 2 -> Dia: 1.19888)
(Tool: 3 -> Dia: 1.30048)

(FEEDRATE Z: )
(Tool: 1 -> Feedrate: 10.0)
(Tool: 2 -> Feedrate: 10.0)
(Tool: 3 -> Feedrate: 10.0)

(FEEDRATE RAPIDS: )
(Tool: 1 -> Feedrate Rapids: 1500)
(Tool: 2 -> Feedrate Rapids: 1500)
(Tool: 3 -> Feedrate Rapids: 1500)

(Z_CUT: )
(Tool: 1 -> Z_Cut: -2.1)
(Tool: 2 -> Z_Cut: -2.1)
(Tool: 3 -> Z_Cut: -2.1)

(Tools Offset: )
(Tool: 1 -> Offset Z: -0.0)
(Tool: 2 -> Offset Z: -0.0)
(Tool: 3 -> Offset Z: -0.0)

(Z_MOVE: )
(Tool: 1 -> Z_Move: 3.0)
(Tool: 2 -> Z_Move: 3.0)
(Tool: 3 -> Z_Move: 3.0)

(Z Start: None mm)
(Z End: 2.0 mm)
(Steps per circle: 64)
(Preprocessor Excellon: grbl_11)

(X range:    4.8556 ...   37.7308  mm)
(Y range:    1.6586 ...   32.7304  mm)

(Spindle Speed: 1000000.0 RPM)
G21
G90
G17
G94




G00 Z3.0000

G01 F10.00
M03 S1000000
G00 X34.9470 Y4.8260
G01 Z-2.1000
G01 Z0
G00 Z3.0000
G00 X34.9470 Y9.9060
G01 Z-2.1000
G01 Z0
G00 Z3.0000
G00 X26.1840 Y14.0970
G01 Z-2.1000
G01 Z0
G00 Z3.0000
G00 X26.1840 Y19.5580
G01 Z-2.1000
G01 Z0
G00 Z3.0000
G00 X34.9470 Y22.2250
G01 Z-2.1000
G01 Z0
G00 Z3.0000
G00 X34.9470 Y27.3050
G01 Z-2.1000
G01 Z0
G00 Z3.0000
G00 X27.6572 Y25.4000
G01 Z-2.1000
G01 Z0
G00 Z3.0000
G00 X26.1840 Y31.4960
G01 Z-2.1000
G01 Z0
G00 Z3.0000
G00 X13.1792 Y31.4960
G01 Z-2.1000
G01 Z0
G00 Z3.0000
G00 X5.3560 Y30.4292
G01 Z-2.1000
G01 Z0
G00 Z3.0000
G00 X5.3560 Y25.4254
G01 Z-2.1000
G01 Z0
G00 Z3.0000
G00 X5.3560 Y20.4470
G01 Z-2.1000
G01 Z0
G00 Z3.0000
G00 X13.1792 Y19.5580
G01 Z-2.1000
G01 Z0
G00 Z3.0000
G00 X13.2046 Y14.0970
G01 Z-2.1000
G01 Z0
G00 Z3.0000
G00 X5.3560 Y13.0302
G01 Z-2.1000
G01 Z0
G00 Z3.0000
G00 X5.3560 Y8.0264
G01 Z-2.1000
G01 Z0
G00 Z3.0000
G00 X5.3560 Y3.0480
G01 Z-2.1000
G01 Z0
G00 Z3.0000
G00 X13.2046 Y2.1590
G01 Z-2.1000
G01 Z0
G00 Z3.0000
G00 X26.1840 Y2.1590
G01 Z-2.1000
G01 Z0
G00 Z3.0000
G00 X27.6826 Y8.0010
G01 Z-2.1000
G01 Z0
G00 Z3.0000
G01 F10.00
M03 S1000000
G00 X37.1314 Y14.7320
G01 Z-2.1000
G01 Z0
G00 Z3.0000
G00 X32.0260 Y14.7320
G01 Z-2.1000
G01 Z0
G00 Z3.0000
G00 X32.0260 Y32.1310
G01 Z-2.1000
G01 Z0
G00 Z3.0000
G00 X37.1060 Y32.1310
G01 Z-2.1000
G01 Z0
G00 Z3.0000
G01 F10.00
M03 S1000000
G00 X21.3326 Y3.1750
G01 Z-2.1000
G01 Z0
G00 Z3.0000
G00 X23.7964 Y8.1280
G01 Z-2.1000
G01 Z0
G00 Z3.0000
G00 X21.3326 Y13.0810
G01 Z-2.1000
G01 Z0
G00 Z3.0000
G00 X21.3072 Y20.5740
G01 Z-2.1000
G01 Z0
G00 Z3.0000
G00 X23.7710 Y25.5270
G01 Z-2.1000
G01 Z0
G00 Z3.0000
G00 X21.3072 Y30.4800
G01 Z-2.1000
G01 Z0
G00 Z3.0000
G00 X11.3250 Y30.4800
G01 Z-2.1000
G01 Z0
G00 Z3.0000
G00 X11.3250 Y20.5740
G01 Z-2.1000
G01 Z0
G00 Z3.0000
G00 X11.3250 Y13.0810
G01 Z-2.1000
G01 Z0
G00 Z3.0000
G00 X11.3250 Y3.1750
G01 Z-2.1000
G01 Z0
G00 Z3.0000
M05
G00 Z2.00
G00 X0.0 Y0.0

