(G-CODE GENERATED BY FLATCAM v8.993 - www.flatcam.org - Version Date: 2020/06/05)

(Name: pcb2.gko_cutout_cnc)
(Type: G-code from Geometry)
(Units: MM)

(Created on Thursday, 14 September 2023 at 21:11)

(This preprocessor is used with a motion controller loaded with GRBL firmware.)
(It is configured to be compatible with almost any version of GRBL firmware.)

(TOOL DIAMETER: 2.4 mm)
(Feedrate_XY: 60.0 mm/min)
(Feedrate_Z: 60.0 mm/min)
(Feedrate rapids 1500.0 mm/min)

(Z_Cut: -1.8 mm)
(DepthPerCut: 0.6 mm <=>3 passes)
(Z_Move: 3.0 mm)
(Z Start: None mm)
(Z End: 3.0 mm)
(Steps per circle: 64)
(Preprocessor Geometry: grbl_11)

(X range:   -1.4016 ...   41.5556  mm)
(Y range:   -1.4016 ...   35.3106  mm)

(Spindle Speed: 1000000 RPM)
G21
G90
G17
G94




G01 F60.00
G00 Z3.0000

M03 S1000000
G00 X-1.4016 Y13.8545
G01 F60.00
G01 Z-0.6000
G01 F60.00
G01 X-1.4016 Y-0.1016 F60.00
G01 X-1.3953 Y-0.2290 F60.00
G01 X-1.3766 Y-0.3552 F60.00
G01 X-1.3456 Y-0.4789 F60.00
G01 X-1.3026 Y-0.5990 F60.00
G01 X-1.2480 Y-0.7144 F60.00
G01 X-1.1825 Y-0.8238 F60.00
G01 X-1.1065 Y-0.9263 F60.00
G01 X-1.0208 Y-1.0208 F60.00
G01 X-0.9263 Y-1.1065 F60.00
G01 X-0.8238 Y-1.1825 F60.00
G01 X-0.7144 Y-1.2480 F60.00
G01 X-0.5990 Y-1.3026 F60.00
G01 X-0.4789 Y-1.3456 F60.00
G01 X-0.3552 Y-1.3766 F60.00
G01 X-0.2290 Y-1.3953 F60.00
G01 X-0.1016 Y-1.4016 F60.00
G01 X16.9770 Y-1.4016 F60.00
G00 X16.9770 Y-1.4016
G01 F60.00
G01 Z-1.2000
G01 F60.00
G01 X-0.1016 Y-1.4016 F60.00
G01 X-0.2290 Y-1.3953 F60.00
G01 X-0.3552 Y-1.3766 F60.00
G01 X-0.4789 Y-1.3456 F60.00
G01 X-0.5990 Y-1.3026 F60.00
G01 X-0.7144 Y-1.2480 F60.00
G01 X-0.8238 Y-1.1825 F60.00
G01 X-0.9263 Y-1.1065 F60.00
G01 X-1.0208 Y-1.0208 F60.00
G01 X-1.1065 Y-0.9263 F60.00
G01 X-1.1825 Y-0.8238 F60.00
G01 X-1.2480 Y-0.7144 F60.00
G01 X-1.3026 Y-0.5990 F60.00
G01 X-1.3456 Y-0.4789 F60.00
G01 X-1.3766 Y-0.3552 F60.00
G01 X-1.3953 Y-0.2290 F60.00
G01 X-1.4016 Y-0.1016 F60.00
G01 X-1.4016 Y13.8545 F60.00
G00 X-1.4016 Y13.8545
G01 F60.00
G01 Z-1.8000
G01 F60.00
G01 X-1.4016 Y-0.1016 F60.00
G01 X-1.3953 Y-0.2290 F60.00
G01 X-1.3766 Y-0.3552 F60.00
G01 X-1.3456 Y-0.4789 F60.00
G01 X-1.3026 Y-0.5990 F60.00
G01 X-1.2480 Y-0.7144 F60.00
G01 X-1.1825 Y-0.8238 F60.00
G01 X-1.1065 Y-0.9263 F60.00
G01 X-1.0208 Y-1.0208 F60.00
G01 X-0.9263 Y-1.1065 F60.00
G01 X-0.8238 Y-1.1825 F60.00
G01 X-0.7144 Y-1.2480 F60.00
G01 X-0.5990 Y-1.3026 F60.00
G01 X-0.4789 Y-1.3456 F60.00
G01 X-0.3552 Y-1.3766 F60.00
G01 X-0.2290 Y-1.3953 F60.00
G01 X-0.1016 Y-1.4016 F60.00
G01 X16.9770 Y-1.4016 F60.00
G00 Z3.0000
G00 X23.3770 Y-1.4016
G01 F60.00
G01 Z-0.6000
G01 F60.00
G01 X40.2556 Y-1.4016 F60.00
G00 X40.2556 Y-1.4016
G01 F60.00
G01 Z-1.2000
G01 F60.00
G01 X23.3770 Y-1.4016 F60.00
G00 X23.3770 Y-1.4016
G01 F60.00
G01 Z-1.8000
G01 F60.00
G01 X40.2556 Y-1.4016 F60.00
G00 Z3.0000
G00 X40.2556 Y-1.4016
G01 F60.00
G01 Z-0.6000
G01 F60.00
G01 X40.3830 Y-1.3953 F60.00
G01 X40.5092 Y-1.3766 F60.00
G01 X40.6329 Y-1.3456 F60.00
G01 X40.7530 Y-1.3026 F60.00
G01 X40.8684 Y-1.2480 F60.00
G01 X40.9778 Y-1.1825 F60.00
G01 X41.0803 Y-1.1065 F60.00
G01 X41.1748 Y-1.0208 F60.00
G01 X41.2605 Y-0.9263 F60.00
G01 X41.3365 Y-0.8238 F60.00
G01 X41.4020 Y-0.7144 F60.00
G01 X41.4566 Y-0.5990 F60.00
G01 X41.4996 Y-0.4789 F60.00
G01 X41.5306 Y-0.3552 F60.00
G01 X41.5493 Y-0.2290 F60.00
G01 X41.5556 Y-0.1016 F60.00
G01 X41.5556 Y13.8545 F60.00
G00 X41.5556 Y13.8545
G01 F60.00
G01 Z-1.2000
G01 F60.00
G01 X41.5556 Y-0.1016 F60.00
G01 X41.5493 Y-0.2290 F60.00
G01 X41.5306 Y-0.3552 F60.00
G01 X41.4996 Y-0.4789 F60.00
G01 X41.4566 Y-0.5990 F60.00
G01 X41.4020 Y-0.7144 F60.00
G01 X41.3365 Y-0.8238 F60.00
G01 X41.2605 Y-0.9263 F60.00
G01 X41.1748 Y-1.0208 F60.00
G01 X41.0803 Y-1.1065 F60.00
G01 X40.9778 Y-1.1825 F60.00
G01 X40.8684 Y-1.2480 F60.00
G01 X40.7530 Y-1.3026 F60.00
G01 X40.6329 Y-1.3456 F60.00
G01 X40.5092 Y-1.3766 F60.00
G01 X40.3830 Y-1.3953 F60.00
G01 X40.2556 Y-1.4016 F60.00
G00 X40.2556 Y-1.4016
G01 F60.00
G01 Z-1.8000
G01 F60.00
G01 X40.3830 Y-1.3953 F60.00
G01 X40.5092 Y-1.3766 F60.00
G01 X40.6329 Y-1.3456 F60.00
G01 X40.7530 Y-1.3026 F60.00
G01 X40.8684 Y-1.2480 F60.00
G01 X40.9778 Y-1.1825 F60.00
G01 X41.0803 Y-1.1065 F60.00
G01 X41.1748 Y-1.0208 F60.00
G01 X41.2605 Y-0.9263 F60.00
G01 X41.3365 Y-0.8238 F60.00
G01 X41.4020 Y-0.7144 F60.00
G01 X41.4566 Y-0.5990 F60.00
G01 X41.4996 Y-0.4789 F60.00
G01 X41.5306 Y-0.3552 F60.00
G01 X41.5493 Y-0.2290 F60.00
G01 X41.5556 Y-0.1016 F60.00
G01 X41.5556 Y13.8545 F60.00
G00 Z3.0000
G00 X41.5556 Y20.2545
G01 F60.00
G01 Z-0.6000
G01 F60.00
G01 X41.5556 Y34.0106 F60.00
G01 X41.5493 Y34.1380 F60.00
G01 X41.5306 Y34.2642 F60.00
G01 X41.4996 Y34.3879 F60.00
G01 X41.4566 Y34.5080 F60.00
G01 X41.4020 Y34.6234 F60.00
G01 X41.3365 Y34.7328 F60.00
G01 X41.2605 Y34.8353 F60.00
G01 X41.1748 Y34.9298 F60.00
G01 X41.0803 Y35.0155 F60.00
G01 X40.9778 Y35.0915 F60.00
G01 X40.8684 Y35.1570 F60.00
G01 X40.7530 Y35.2116 F60.00
G01 X40.6329 Y35.2546 F60.00
G01 X40.5092 Y35.2856 F60.00
G01 X40.3830 Y35.3043 F60.00
G01 X40.2556 Y35.3106 F60.00
G01 X23.3770 Y35.3106 F60.00
G00 X23.3770 Y35.3106
G01 F60.00
G01 Z-1.2000
G01 F60.00
G01 X40.2556 Y35.3106 F60.00
G01 X40.3830 Y35.3043 F60.00
G01 X40.5092 Y35.2856 F60.00
G01 X40.6329 Y35.2546 F60.00
G01 X40.7530 Y35.2116 F60.00
G01 X40.8684 Y35.1570 F60.00
G01 X40.9778 Y35.0915 F60.00
G01 X41.0803 Y35.0155 F60.00
G01 X41.1748 Y34.9298 F60.00
G01 X41.2605 Y34.8353 F60.00
G01 X41.3365 Y34.7328 F60.00
G01 X41.4020 Y34.6234 F60.00
G01 X41.4566 Y34.5080 F60.00
G01 X41.4996 Y34.3879 F60.00
G01 X41.5306 Y34.2642 F60.00
G01 X41.5493 Y34.1380 F60.00
G01 X41.5556 Y34.0106 F60.00
G01 X41.5556 Y20.2545 F60.00
G00 X41.5556 Y20.2545
G01 F60.00
G01 Z-1.8000
G01 F60.00
G01 X41.5556 Y34.0106 F60.00
G01 X41.5493 Y34.1380 F60.00
G01 X41.5306 Y34.2642 F60.00
G01 X41.4996 Y34.3879 F60.00
G01 X41.4566 Y34.5080 F60.00
G01 X41.4020 Y34.6234 F60.00
G01 X41.3365 Y34.7328 F60.00
G01 X41.2605 Y34.8353 F60.00
G01 X41.1748 Y34.9298 F60.00
G01 X41.0803 Y35.0155 F60.00
G01 X40.9778 Y35.0915 F60.00
G01 X40.8684 Y35.1570 F60.00
G01 X40.7530 Y35.2116 F60.00
G01 X40.6329 Y35.2546 F60.00
G01 X40.5092 Y35.2856 F60.00
G01 X40.3830 Y35.3043 F60.00
G01 X40.2556 Y35.3106 F60.00
G01 X23.3770 Y35.3106 F60.00
G00 Z3.0000
G00 X16.9770 Y35.3106
G01 F60.00
G01 Z-0.6000
G01 F60.00
G01 X-0.1016 Y35.3106 F60.00
G01 X-0.2290 Y35.3043 F60.00
G01 X-0.3552 Y35.2856 F60.00
G01 X-0.4789 Y35.2546 F60.00
G01 X-0.5990 Y35.2116 F60.00
G01 X-0.7144 Y35.1570 F60.00
G01 X-0.8238 Y35.0915 F60.00
G01 X-0.9263 Y35.0155 F60.00
G01 X-1.0208 Y34.9298 F60.00
G01 X-1.1065 Y34.8353 F60.00
G01 X-1.1825 Y34.7328 F60.00
G01 X-1.2480 Y34.6234 F60.00
G01 X-1.3026 Y34.5080 F60.00
G01 X-1.3456 Y34.3879 F60.00
G01 X-1.3766 Y34.2642 F60.00
G01 X-1.3953 Y34.1380 F60.00
G01 X-1.4016 Y34.0106 F60.00
G01 X-1.4016 Y20.2545 F60.00
G00 X-1.4016 Y20.2545
G01 F60.00
G01 Z-1.2000
G01 F60.00
G01 X-1.4016 Y34.0106 F60.00
G01 X-1.3953 Y34.1380 F60.00
G01 X-1.3766 Y34.2642 F60.00
G01 X-1.3456 Y34.3879 F60.00
G01 X-1.3026 Y34.5080 F60.00
G01 X-1.2480 Y34.6234 F60.00
G01 X-1.1825 Y34.7328 F60.00
G01 X-1.1065 Y34.8353 F60.00
G01 X-1.0208 Y34.9298 F60.00
G01 X-0.9263 Y35.0155 F60.00
G01 X-0.8238 Y35.0915 F60.00
G01 X-0.7144 Y35.1570 F60.00
G01 X-0.5990 Y35.2116 F60.00
G01 X-0.4789 Y35.2546 F60.00
G01 X-0.3552 Y35.2856 F60.00
G01 X-0.2290 Y35.3043 F60.00
G01 X-0.1016 Y35.3106 F60.00
G01 X16.9770 Y35.3106 F60.00
G00 X16.9770 Y35.3106
G01 F60.00
G01 Z-1.8000
G01 F60.00
G01 X-0.1016 Y35.3106 F60.00
G01 X-0.2290 Y35.3043 F60.00
G01 X-0.3552 Y35.2856 F60.00
G01 X-0.4789 Y35.2546 F60.00
G01 X-0.5990 Y35.2116 F60.00
G01 X-0.7144 Y35.1570 F60.00
G01 X-0.8238 Y35.0915 F60.00
G01 X-0.9263 Y35.0155 F60.00
G01 X-1.0208 Y34.9298 F60.00
G01 X-1.1065 Y34.8353 F60.00
G01 X-1.1825 Y34.7328 F60.00
G01 X-1.2480 Y34.6234 F60.00
G01 X-1.3026 Y34.5080 F60.00
G01 X-1.3456 Y34.3879 F60.00
G01 X-1.3766 Y34.2642 F60.00
G01 X-1.3953 Y34.1380 F60.00
G01 X-1.4016 Y34.0106 F60.00
G01 X-1.4016 Y20.2545 F60.00
G00 Z3.0000
M05
G00 Z3.0000
G00 Z3.00
G00 X0.0 Y0.0

