(G-CODE GENERATED BY FLATCAM v8.993 - www.flatcam.org - Version Date: 2020/06/05)

(Name: pcb2.gbl_iso_combined_cnc)
(Type: G-code from Geometry)
(Units: MM)

(Created on Thursday, 14 September 2023 at 21:07)

(This preprocessor is used with a motion controller loaded with GRBL firmware.)
(It is configured to be compatible with almost any version of GRBL firmware.)

(TOOL DIAMETER: 0.2132 mm)
(Feedrate_XY: 60.0 mm/min)
(Feedrate_Z: 60.0 mm/min)
(Feedrate rapids 1500.0 mm/min)

(Z_Cut: -0.098 mm)
(Z_Move: 3.0 mm)
(Z Start: None mm)
(Z End: 15.0 mm)
(Steps per circle: 64)
(Preprocessor Geometry: grbl_11)

(X range:    2.9591 ...   40.7509  mm)
(Y range:   -0.2159 ...   34.5059  mm)

(Spindle Speed: 400000 RPM)
G21
G90
G17
G94




G01 F60.00
G00 Z3.0000

M03 S400000
G00 X7.7543 Y4.8472
G01 F60.00
G01 Z-0.0980
G01 F60.00
G01 X5.3560 Y4.8472 F60.00
G01 X5.3414 Y4.8469 F60.00
G01 X5.1943 Y4.8396 F60.00
G01 X5.1724 Y4.8378 F60.00
G01 X5.0194 Y4.8152 F60.00
G01 X5.0050 Y4.8127 F60.00
G01 X4.9907 Y4.8094 F60.00
G01 X4.8478 Y4.7737 F60.00
G01 X4.8337 Y4.7698 F60.00
G01 X4.8198 Y4.7652 F60.00
G01 X4.6811 Y4.7155 F60.00
G01 X4.6675 Y4.7103 F60.00
G01 X4.6541 Y4.7043 F60.00
G01 X4.5209 Y4.6414 F60.00
G01 X4.5079 Y4.6348 F60.00
G01 X4.4951 Y4.6276 F60.00
G01 X4.3688 Y4.5518 F60.00
G01 X4.3564 Y4.5440 F60.00
G01 X4.3444 Y4.5356 F60.00
G01 X4.2203 Y4.4434 F60.00
G01 X4.2035 Y4.4293 F60.00
G01 X4.0944 Y4.3303 F60.00
G01 X4.0838 Y4.3202 F60.00
G01 X4.0737 Y4.3096 F60.00
G01 X3.9747 Y4.2005 F60.00
G01 X3.9652 Y4.1894 F60.00
G01 X3.9562 Y4.1779 F60.00
G01 X3.8684 Y4.0596 F60.00
G01 X3.8600 Y4.0476 F60.00
G01 X3.8522 Y4.0352 F60.00
G01 X3.7764 Y3.9089 F60.00
G01 X3.7692 Y3.8961 F60.00
G01 X3.7626 Y3.8831 F60.00
G01 X3.6997 Y3.7499 F60.00
G01 X3.6937 Y3.7365 F60.00
G01 X3.6885 Y3.7229 F60.00
G01 X3.6388 Y3.5842 F60.00
G01 X3.6342 Y3.5703 F60.00
G01 X3.6303 Y3.5562 F60.00
G01 X3.5946 Y3.4133 F60.00
G01 X3.5913 Y3.3990 F60.00
G01 X3.5888 Y3.3846 F60.00
G01 X3.5672 Y3.2389 F60.00
G01 X3.5654 Y3.2244 F60.00
G01 X3.5644 Y3.2097 F60.00
G01 X3.5571 Y3.0626 F60.00
G01 X3.5568 Y3.0480 F60.00
G01 X3.5571 Y3.0334 F60.00
G01 X3.5644 Y2.8863 F60.00
G01 X3.5654 Y2.8716 F60.00
G01 X3.5672 Y2.8571 F60.00
G01 X3.5888 Y2.7114 F60.00
G01 X3.5913 Y2.6970 F60.00
G01 X3.5946 Y2.6827 F60.00
G01 X3.6303 Y2.5398 F60.00
G01 X3.6342 Y2.5257 F60.00
G01 X3.6388 Y2.5118 F60.00
G01 X3.6885 Y2.3731 F60.00
G01 X3.6937 Y2.3595 F60.00
G01 X3.6997 Y2.3461 F60.00
G01 X3.7626 Y2.2129 F60.00
G01 X3.7692 Y2.1999 F60.00
G01 X3.7764 Y2.1871 F60.00
G01 X3.8522 Y2.0608 F60.00
G01 X3.8600 Y2.0484 F60.00
G01 X3.8684 Y2.0364 F60.00
G01 X3.9606 Y1.9123 F60.00
G01 X3.9747 Y1.8955 F60.00
G01 X4.0737 Y1.7864 F60.00
G01 X4.0838 Y1.7758 F60.00
G01 X4.0944 Y1.7657 F60.00
G01 X4.2035 Y1.6667 F60.00
G01 X4.2146 Y1.6572 F60.00
G01 X4.2261 Y1.6482 F60.00
G01 X4.3444 Y1.5604 F60.00
G01 X4.3564 Y1.5520 F60.00
G01 X4.3688 Y1.5442 F60.00
G01 X4.4951 Y1.4684 F60.00
G01 X4.5079 Y1.4612 F60.00
G01 X4.5209 Y1.4546 F60.00
G01 X4.6541 Y1.3917 F60.00
G01 X4.6675 Y1.3857 F60.00
G01 X4.6811 Y1.3805 F60.00
G01 X4.8198 Y1.3308 F60.00
G01 X4.8337 Y1.3262 F60.00
G01 X4.8478 Y1.3223 F60.00
G01 X4.9907 Y1.2866 F60.00
G01 X5.0050 Y1.2833 F60.00
G01 X5.0194 Y1.2808 F60.00
G01 X5.1651 Y1.2592 F60.00
G01 X5.1869 Y1.2568 F60.00
G01 X5.3414 Y1.2491 F60.00
G01 X5.3560 Y1.2488 F60.00
G01 X8.3043 Y1.2489 F60.00
G01 X8.4587 Y1.2564 F60.00
G01 X8.4734 Y1.2574 F60.00
G01 X8.4879 Y1.2592 F60.00
G01 X8.6336 Y1.2808 F60.00
G01 X8.6480 Y1.2833 F60.00
G01 X8.6623 Y1.2866 F60.00
G01 X8.8052 Y1.3223 F60.00
G01 X8.8193 Y1.3262 F60.00
G01 X8.8332 Y1.3308 F60.00
G01 X8.9727 Y1.3808 F60.00
G01 X11.3250 Y1.3808 F60.00
G01 X11.3396 Y1.3811 F60.00
G01 X11.4123 Y1.3847 F60.00
G01 X11.9166 Y0.8810 F60.00
G01 X12.0312 Y0.7772 F60.00
G01 X12.0423 Y0.7676 F60.00
G01 X12.0538 Y0.7586 F60.00
G01 X12.1722 Y0.6709 F60.00
G01 X12.1903 Y0.6585 F60.00
G01 X12.3229 Y0.5790 F60.00
G01 X12.3356 Y0.5718 F60.00
G01 X12.3487 Y0.5652 F60.00
G01 X12.4819 Y0.5023 F60.00
G01 X12.4953 Y0.4964 F60.00
G01 X12.5090 Y0.4911 F60.00
G01 X12.6476 Y0.4416 F60.00
G01 X12.6616 Y0.4370 F60.00
G01 X12.6757 Y0.4331 F60.00
G01 X12.8186 Y0.3974 F60.00
G01 X12.8329 Y0.3942 F60.00
G01 X12.8473 Y0.3917 F60.00
G01 X12.9930 Y0.3701 F60.00
G01 X13.0075 Y0.3684 F60.00
G01 X13.0221 Y0.3673 F60.00
G01 X13.1692 Y0.3601 F60.00
G01 X13.1839 Y0.3598 F60.00
G01 X13.1985 Y0.3601 F60.00
G01 X13.3456 Y0.3674 F60.00
G01 X13.3602 Y0.3685 F60.00
G01 X13.3748 Y0.3703 F60.00
G01 X13.5204 Y0.3920 F60.00
G01 X13.5349 Y0.3945 F60.00
G01 X13.5492 Y0.3977 F60.00
G01 X13.6920 Y0.4336 F60.00
G01 X13.7061 Y0.4375 F60.00
G01 X13.7200 Y0.4421 F60.00
G01 X13.8587 Y0.4918 F60.00
G01 X13.8723 Y0.4971 F60.00
G01 X13.8857 Y0.5030 F60.00
G01 X14.0188 Y0.5660 F60.00
G01 X14.0319 Y0.5726 F60.00
G01 X14.0447 Y0.5799 F60.00
G01 X14.1710 Y0.6556 F60.00
G01 X14.1833 Y0.6635 F60.00
G01 X14.1953 Y0.6719 F60.00
G01 X14.3136 Y0.7597 F60.00
G01 X14.3251 Y0.7687 F60.00
G01 X14.3362 Y0.7783 F60.00
G01 X14.4453 Y0.8773 F60.00
G01 X14.4559 Y0.8874 F60.00
G01 X14.4660 Y0.8980 F60.00
G01 X14.5648 Y1.0072 F60.00
G01 X14.5744 Y1.0183 F60.00
G01 X14.5834 Y1.0298 F60.00
G01 X14.6711 Y1.1482 F60.00
G01 X14.6795 Y1.1601 F60.00
G01 X14.6873 Y1.1725 F60.00
G01 X14.7630 Y1.2989 F60.00
G01 X14.7736 Y1.3181 F60.00
G01 X14.8397 Y1.4579 F60.00
G01 X14.8456 Y1.4713 F60.00
G01 X14.8509 Y1.4850 F60.00
G01 X14.9004 Y1.6236 F60.00
G01 X14.9050 Y1.6376 F60.00
G01 X14.9089 Y1.6517 F60.00
G01 X14.9446 Y1.7946 F60.00
G01 X14.9478 Y1.8089 F60.00
G01 X14.9503 Y1.8233 F60.00
G01 X14.9719 Y1.9690 F60.00
G01 X14.9736 Y1.9835 F60.00
G01 X14.9747 Y1.9981 F60.00
G01 X14.9819 Y2.1452 F60.00
G01 X14.9822 Y2.1599 F60.00
G01 X14.9819 Y2.1745 F60.00
G01 X14.9746 Y2.3216 F60.00
G01 X14.9735 Y2.3362 F60.00
G01 X14.9717 Y2.3508 F60.00
G01 X14.9500 Y2.4964 F60.00
G01 X14.9475 Y2.5109 F60.00
G01 X14.9443 Y2.5252 F60.00
G01 X14.9084 Y2.6680 F60.00
G01 X14.9045 Y2.6821 F60.00
G01 X14.8999 Y2.6960 F60.00
G01 X14.8502 Y2.8347 F60.00
G01 X14.8449 Y2.8483 F60.00
G01 X14.8390 Y2.8617 F60.00
G01 X14.7727 Y3.0014 F60.00
G01 X14.7621 Y3.0207 F60.00
G01 X14.6864 Y3.1470 F60.00
G01 X14.6785 Y3.1593 F60.00
G01 X14.6701 Y3.1713 F60.00
G01 X14.5823 Y3.2896 F60.00
G01 X14.5733 Y3.3011 F60.00
G01 X14.5637 Y3.3122 F60.00
G01 X14.4647 Y3.4213 F60.00
G01 X14.4546 Y3.4319 F60.00
G01 X13.4326 Y4.4529 F60.00
G01 X13.4220 Y4.4630 F60.00
G01 X13.3128 Y4.5618 F60.00
G01 X13.3017 Y4.5714 F60.00
G01 X13.2902 Y4.5804 F60.00
G01 X13.1718 Y4.6681 F60.00
G01 X13.1599 Y4.6765 F60.00
G01 X13.1475 Y4.6843 F60.00
G01 X13.0211 Y4.7600 F60.00
G01 X13.0019 Y4.7706 F60.00
G01 X12.8621 Y4.8367 F60.00
G01 X12.8487 Y4.8426 F60.00
G01 X12.8350 Y4.8479 F60.00
G01 X12.6964 Y4.8974 F60.00
G01 X12.6824 Y4.9020 F60.00
G01 X12.6683 Y4.9059 F60.00
G01 X12.5254 Y4.9416 F60.00
G01 X12.5111 Y4.9448 F60.00
G01 X12.4967 Y4.9473 F60.00
G01 X12.3510 Y4.9689 F60.00
G01 X12.3365 Y4.9706 F60.00
G01 X12.3219 Y4.9717 F60.00
G01 X12.1674 Y4.9791 F60.00
G01 X12.1455 Y4.9789 F60.00
G01 X11.9984 Y4.9716 F60.00
G01 X11.9765 Y4.9697 F60.00
G01 X11.8163 Y4.9458 F60.00
G01 X11.7948 Y4.9413 F60.00
G01 X11.7430 Y4.9283 F60.00
G01 X11.6903 Y4.9414 F60.00
G01 X11.6688 Y4.9460 F60.00
G01 X11.5086 Y4.9698 F60.00
G01 X11.4867 Y4.9716 F60.00
G01 X11.3323 Y4.9791 F60.00
G01 X8.4227 Y4.9791 F60.00
G01 X8.2683 Y4.9716 F60.00
G01 X8.2536 Y4.9706 F60.00
G01 X8.2391 Y4.9688 F60.00
G01 X8.0934 Y4.9472 F60.00
G01 X8.0790 Y4.9447 F60.00
G01 X8.0647 Y4.9414 F60.00
G01 X7.9218 Y4.9057 F60.00
G01 X7.9077 Y4.9018 F60.00
G01 X7.8938 Y4.8972 F60.00
G01 X7.7543 Y4.8472 F60.00
G00 Z3.0000
G00 X7.7210 Y5.0391
G01 F60.00
G01 Z-0.0980
G01 F60.00
G01 X5.3560 Y5.0391 F60.00
G01 X5.3319 Y5.0385 F60.00
G01 X5.1848 Y5.0313 F60.00
G01 X5.1608 Y5.0295 F60.00
G01 X5.1489 Y5.0282 F60.00
G01 X4.9913 Y5.0050 F60.00
G01 X4.9676 Y5.0008 F60.00
G01 X4.9441 Y4.9956 F60.00
G01 X4.8012 Y4.9598 F60.00
G01 X4.7780 Y4.9534 F60.00
G01 X4.7552 Y4.9458 F60.00
G01 X4.6165 Y4.8962 F60.00
G01 X4.5940 Y4.8875 F60.00
G01 X4.5720 Y4.8778 F60.00
G01 X4.4389 Y4.8148 F60.00
G01 X4.4174 Y4.8040 F60.00
G01 X4.3965 Y4.7921 F60.00
G01 X4.2701 Y4.7164 F60.00
G01 X4.2498 Y4.7035 F60.00
G01 X4.2301 Y4.6897 F60.00
G01 X4.1118 Y4.6020 F60.00
G01 X4.0929 Y4.5871 F60.00
G01 X4.0746 Y4.5714 F60.00
G01 X3.9655 Y4.4725 F60.00
G01 X3.9481 Y4.4559 F60.00
G01 X3.9315 Y4.4385 F60.00
G01 X3.8326 Y4.3294 F60.00
G01 X3.8169 Y4.3111 F60.00
G01 X3.8020 Y4.2922 F60.00
G01 X3.7143 Y4.1739 F60.00
G01 X3.7005 Y4.1542 F60.00
G01 X3.6876 Y4.1339 F60.00
G01 X3.6119 Y4.0075 F60.00
G01 X3.6000 Y3.9866 F60.00
G01 X3.5892 Y3.9651 F60.00
G01 X3.5262 Y3.8320 F60.00
G01 X3.5165 Y3.8100 F60.00
G01 X3.5078 Y3.7875 F60.00
G01 X3.4582 Y3.6488 F60.00
G01 X3.4506 Y3.6260 F60.00
G01 X3.4442 Y3.6028 F60.00
G01 X3.4084 Y3.4599 F60.00
G01 X3.4032 Y3.4364 F60.00
G01 X3.3990 Y3.4127 F60.00
G01 X3.3774 Y3.2670 F60.00
G01 X3.3745 Y3.2432 F60.00
G01 X3.3727 Y3.2192 F60.00
G01 X3.3655 Y3.0721 F60.00
G01 X3.3649 Y3.0480 F60.00
G01 X3.3655 Y3.0239 F60.00
G01 X3.3727 Y2.8768 F60.00
G01 X3.3745 Y2.8528 F60.00
G01 X3.3774 Y2.8290 F60.00
G01 X3.3990 Y2.6833 F60.00
G01 X3.4032 Y2.6596 F60.00
G01 X3.4084 Y2.6361 F60.00
G01 X3.4442 Y2.4932 F60.00
G01 X3.4506 Y2.4700 F60.00
G01 X3.4582 Y2.4472 F60.00
G01 X3.5078 Y2.3085 F60.00
G01 X3.5165 Y2.2860 F60.00
G01 X3.5262 Y2.2640 F60.00
G01 X3.5892 Y2.1309 F60.00
G01 X3.6000 Y2.1094 F60.00
G01 X3.6119 Y2.0885 F60.00
G01 X3.6876 Y1.9621 F60.00
G01 X3.7005 Y1.9418 F60.00
G01 X3.7143 Y1.9221 F60.00
G01 X3.8020 Y1.8038 F60.00
G01 X3.8169 Y1.7849 F60.00
G01 X3.8326 Y1.7666 F60.00
G01 X3.9315 Y1.6575 F60.00
G01 X3.9481 Y1.6401 F60.00
G01 X3.9655 Y1.6235 F60.00
G01 X4.0746 Y1.5246 F60.00
G01 X4.0929 Y1.5089 F60.00
G01 X4.1118 Y1.4940 F60.00
G01 X4.2301 Y1.4063 F60.00
G01 X4.2498 Y1.3925 F60.00
G01 X4.2701 Y1.3796 F60.00
G01 X4.3965 Y1.3039 F60.00
G01 X4.4174 Y1.2920 F60.00
G01 X4.4389 Y1.2812 F60.00
G01 X4.5720 Y1.2182 F60.00
G01 X4.5940 Y1.2085 F60.00
G01 X4.6165 Y1.1998 F60.00
G01 X4.7552 Y1.1502 F60.00
G01 X4.7780 Y1.1426 F60.00
G01 X4.8012 Y1.1362 F60.00
G01 X4.9441 Y1.1004 F60.00
G01 X4.9676 Y1.0952 F60.00
G01 X4.9913 Y1.0910 F60.00
G01 X5.1370 Y1.0694 F60.00
G01 X5.1608 Y1.0665 F60.00
G01 X5.1728 Y1.0654 F60.00
G01 X5.3319 Y1.0575 F60.00
G01 X5.3560 Y1.0569 F60.00
G01 X8.3090 Y1.0570 F60.00
G01 X8.4682 Y1.0647 F60.00
G01 X8.4922 Y1.0665 F60.00
G01 X8.5160 Y1.0694 F60.00
G01 X8.6617 Y1.0910 F60.00
G01 X8.6854 Y1.0952 F60.00
G01 X8.7089 Y1.1004 F60.00
G01 X8.8518 Y1.1362 F60.00
G01 X8.8750 Y1.1426 F60.00
G01 X8.8978 Y1.1502 F60.00
G01 X9.0060 Y1.1889 F60.00
G01 X11.3367 Y1.1890 F60.00
G01 X11.7758 Y0.7504 F60.00
G01 X11.7932 Y0.7338 F60.00
G01 X11.9024 Y0.6349 F60.00
G01 X11.9206 Y0.6192 F60.00
G01 X11.9396 Y0.6044 F60.00
G01 X12.0579 Y0.5168 F60.00
G01 X12.0776 Y0.5029 F60.00
G01 X12.0980 Y0.4900 F60.00
G01 X12.2243 Y0.4144 F60.00
G01 X12.2453 Y0.4025 F60.00
G01 X12.2668 Y0.3917 F60.00
G01 X12.3999 Y0.3288 F60.00
G01 X12.4219 Y0.3191 F60.00
G01 X12.4444 Y0.3104 F60.00
G01 X12.5831 Y0.2609 F60.00
G01 X12.6059 Y0.2533 F60.00
G01 X12.6291 Y0.2469 F60.00
G01 X12.7720 Y0.2112 F60.00
G01 X12.7955 Y0.2060 F60.00
G01 X12.8192 Y0.2019 F60.00
G01 X12.9649 Y0.1803 F60.00
G01 X12.9888 Y0.1774 F60.00
G01 X13.0128 Y0.1756 F60.00
G01 X13.1599 Y0.1685 F60.00
G01 X13.1840 Y0.1679 F60.00
G01 X13.2080 Y0.1685 F60.00
G01 X13.3551 Y0.1758 F60.00
G01 X13.3791 Y0.1776 F60.00
G01 X13.4030 Y0.1805 F60.00
G01 X13.5487 Y0.2022 F60.00
G01 X13.5724 Y0.2063 F60.00
G01 X13.5959 Y0.2116 F60.00
G01 X13.7387 Y0.2475 F60.00
G01 X13.7619 Y0.2539 F60.00
G01 X13.7848 Y0.2615 F60.00
G01 X13.9234 Y0.3112 F60.00
G01 X13.9459 Y0.3198 F60.00
G01 X13.9679 Y0.3296 F60.00
G01 X14.1010 Y0.3926 F60.00
G01 X14.1225 Y0.4035 F60.00
G01 X14.1434 Y0.4153 F60.00
G01 X14.2697 Y0.4911 F60.00
G01 X14.2900 Y0.5040 F60.00
G01 X14.3097 Y0.5179 F60.00
G01 X14.4279 Y0.6057 F60.00
G01 X14.4469 Y0.6205 F60.00
G01 X14.4651 Y0.6362 F60.00
G01 X14.5742 Y0.7352 F60.00
G01 X14.5916 Y0.7518 F60.00
G01 X14.6082 Y0.7692 F60.00
G01 X14.7071 Y0.8784 F60.00
G01 X14.7228 Y0.8966 F60.00
G01 X14.7376 Y0.9156 F60.00
G01 X14.8252 Y1.0339 F60.00
G01 X14.8391 Y1.0536 F60.00
G01 X14.8520 Y1.0740 F60.00
G01 X14.9276 Y1.2003 F60.00
G01 X14.9395 Y1.2213 F60.00
G01 X14.9503 Y1.2428 F60.00
G01 X15.0132 Y1.3759 F60.00
G01 X15.0229 Y1.3979 F60.00
G01 X15.0316 Y1.4204 F60.00
G01 X15.0811 Y1.5591 F60.00
G01 X15.0887 Y1.5819 F60.00
G01 X15.0951 Y1.6051 F60.00
G01 X15.1308 Y1.7480 F60.00
G01 X15.1360 Y1.7715 F60.00
G01 X15.1401 Y1.7952 F60.00
G01 X15.1617 Y1.9409 F60.00
G01 X15.1646 Y1.9648 F60.00
G01 X15.1664 Y1.9888 F60.00
G01 X15.1735 Y2.1359 F60.00
G01 X15.1741 Y2.1600 F60.00
G01 X15.1735 Y2.1840 F60.00
G01 X15.1662 Y2.3311 F60.00
G01 X15.1644 Y2.3551 F60.00
G01 X15.1615 Y2.3790 F60.00
G01 X15.1398 Y2.5247 F60.00
G01 X15.1357 Y2.5484 F60.00
G01 X15.1304 Y2.5719 F60.00
G01 X15.0945 Y2.7147 F60.00
G01 X15.0881 Y2.7379 F60.00
G01 X15.0805 Y2.7608 F60.00
G01 X15.0308 Y2.8994 F60.00
G01 X15.0222 Y2.9219 F60.00
G01 X15.0124 Y2.9439 F60.00
G01 X14.9441 Y3.0878 F60.00
G01 X14.9327 Y3.1090 F60.00
G01 X14.9267 Y3.1194 F60.00
G01 X14.8509 Y3.2457 F60.00
G01 X14.8380 Y3.2660 F60.00
G01 X14.8241 Y3.2857 F60.00
G01 X14.7363 Y3.4039 F60.00
G01 X14.7215 Y3.4229 F60.00
G01 X14.7058 Y3.4411 F60.00
G01 X14.6068 Y3.5502 F60.00
G01 X14.5902 Y3.5676 F60.00
G01 X13.5682 Y4.5886 F60.00
G01 X13.5508 Y4.6052 F60.00
G01 X13.4416 Y4.7041 F60.00
G01 X13.4234 Y4.7198 F60.00
G01 X13.4044 Y4.7346 F60.00
G01 X13.2861 Y4.8222 F60.00
G01 X13.2664 Y4.8361 F60.00
G01 X13.2460 Y4.8490 F60.00
G01 X13.1197 Y4.9246 F60.00
G01 X13.0987 Y4.9365 F60.00
G01 X13.0772 Y4.9473 F60.00
G01 X12.9441 Y5.0102 F60.00
G01 X12.9221 Y5.0199 F60.00
G01 X12.8996 Y5.0286 F60.00
G01 X12.7609 Y5.0781 F60.00
G01 X12.7381 Y5.0857 F60.00
G01 X12.7149 Y5.0921 F60.00
G01 X12.5720 Y5.1278 F60.00
G01 X12.5485 Y5.1330 F60.00
G01 X12.5248 Y5.1371 F60.00
G01 X12.3791 Y5.1587 F60.00
G01 X12.3552 Y5.1616 F60.00
G01 X12.3312 Y5.1634 F60.00
G01 X12.1721 Y5.1710 F60.00
G01 X12.1480 Y5.1710 F60.00
G01 X12.1360 Y5.1705 F60.00
G01 X11.9889 Y5.1632 F60.00
G01 X11.9649 Y5.1614 F60.00
G01 X11.9410 Y5.1585 F60.00
G01 X11.7953 Y5.1368 F60.00
G01 X11.7716 Y5.1327 F60.00
G01 X11.7429 Y5.1261 F60.00
G01 X11.7134 Y5.1328 F60.00
G01 X11.6897 Y5.1370 F60.00
G01 X11.5440 Y5.1586 F60.00
G01 X11.5202 Y5.1615 F60.00
G01 X11.4962 Y5.1633 F60.00
G01 X11.3370 Y5.1710 F60.00
G01 X8.4180 Y5.1710 F60.00
G01 X8.2588 Y5.1633 F60.00
G01 X8.2348 Y5.1615 F60.00
G01 X8.2110 Y5.1586 F60.00
G01 X8.0653 Y5.1370 F60.00
G01 X8.0416 Y5.1328 F60.00
G01 X8.0181 Y5.1276 F60.00
G01 X7.8752 Y5.0918 F60.00
G01 X7.8520 Y5.0854 F60.00
G01 X7.8292 Y5.0778 F60.00
G01 X7.7210 Y5.0391 F60.00
G00 Z3.0000
G00 X7.6877 Y5.2310
G01 F60.00
G01 Z-0.0980
G01 F60.00
G01 X5.3393 Y5.2308 F60.00
G01 X5.1754 Y5.2229 F60.00
G01 X5.1420 Y5.2205 F60.00
G01 X5.1088 Y5.2164 F60.00
G01 X4.9466 Y5.1921 F60.00
G01 X4.9137 Y5.1856 F60.00
G01 X4.8974 Y5.1817 F60.00
G01 X4.7546 Y5.1459 F60.00
G01 X4.7223 Y5.1370 F60.00
G01 X4.6905 Y5.1265 F60.00
G01 X4.5518 Y5.0769 F60.00
G01 X4.5206 Y5.0648 F60.00
G01 X4.4900 Y5.0512 F60.00
G01 X4.3569 Y4.9883 F60.00
G01 X4.3269 Y4.9732 F60.00
G01 X4.2978 Y4.9567 F60.00
G01 X4.1715 Y4.8810 F60.00
G01 X4.1432 Y4.8631 F60.00
G01 X4.1158 Y4.8438 F60.00
G01 X3.9975 Y4.7561 F60.00
G01 X3.9711 Y4.7355 F60.00
G01 X3.9458 Y4.7136 F60.00
G01 X3.8244 Y4.6033 F60.00
G01 X3.8124 Y4.5916 F60.00
G01 X3.7893 Y4.5674 F60.00
G01 X3.6904 Y4.4582 F60.00
G01 X3.6685 Y4.4329 F60.00
G01 X3.6479 Y4.4065 F60.00
G01 X3.5602 Y4.2882 F60.00
G01 X3.5409 Y4.2608 F60.00
G01 X3.5230 Y4.2325 F60.00
G01 X3.4473 Y4.1062 F60.00
G01 X3.4308 Y4.0771 F60.00
G01 X3.4157 Y4.0471 F60.00
G01 X3.3528 Y3.9140 F60.00
G01 X3.3392 Y3.8834 F60.00
G01 X3.3271 Y3.8522 F60.00
G01 X3.2775 Y3.7135 F60.00
G01 X3.2670 Y3.6817 F60.00
G01 X3.2581 Y3.6494 F60.00
G01 X3.2223 Y3.5066 F60.00
G01 X3.2150 Y3.4739 F60.00
G01 X3.2092 Y3.4409 F60.00
G01 X3.1876 Y3.2952 F60.00
G01 X3.1835 Y3.2620 F60.00
G01 X3.1811 Y3.2286 F60.00
G01 X3.1738 Y3.0815 F60.00
G01 X3.1730 Y3.0480 F60.00
G01 X3.1738 Y3.0145 F60.00
G01 X3.1811 Y2.8674 F60.00
G01 X3.1835 Y2.8340 F60.00
G01 X3.1876 Y2.8008 F60.00
G01 X3.2092 Y2.6551 F60.00
G01 X3.2150 Y2.6221 F60.00
G01 X3.2223 Y2.5894 F60.00
G01 X3.2581 Y2.4466 F60.00
G01 X3.2670 Y2.4143 F60.00
G01 X3.2775 Y2.3825 F60.00
G01 X3.3271 Y2.2438 F60.00
G01 X3.3392 Y2.2126 F60.00
G01 X3.3528 Y2.1820 F60.00
G01 X3.4157 Y2.0489 F60.00
G01 X3.4308 Y2.0189 F60.00
G01 X3.4473 Y1.9898 F60.00
G01 X3.5230 Y1.8635 F60.00
G01 X3.5409 Y1.8352 F60.00
G01 X3.5602 Y1.8078 F60.00
G01 X3.6479 Y1.6895 F60.00
G01 X3.6685 Y1.6631 F60.00
G01 X3.6904 Y1.6378 F60.00
G01 X3.8007 Y1.5164 F60.00
G01 X3.8124 Y1.5044 F60.00
G01 X3.8366 Y1.4813 F60.00
G01 X3.9458 Y1.3824 F60.00
G01 X3.9711 Y1.3605 F60.00
G01 X3.9975 Y1.3399 F60.00
G01 X4.1158 Y1.2522 F60.00
G01 X4.1294 Y1.2424 F60.00
G01 X4.1572 Y1.2238 F60.00
G01 X4.2978 Y1.1393 F60.00
G01 X4.3269 Y1.1228 F60.00
G01 X4.3569 Y1.1077 F60.00
G01 X4.4900 Y1.0448 F60.00
G01 X4.5206 Y1.0312 F60.00
G01 X4.5518 Y1.0191 F60.00
G01 X4.6905 Y0.9695 F60.00
G01 X4.7223 Y0.9590 F60.00
G01 X4.7546 Y0.9501 F60.00
G01 X4.8974 Y0.9143 F60.00
G01 X4.9301 Y0.9070 F60.00
G01 X4.9631 Y0.9012 F60.00
G01 X5.1088 Y0.8796 F60.00
G01 X5.1420 Y0.8755 F60.00
G01 X5.1587 Y0.8741 F60.00
G01 X5.3225 Y0.8658 F60.00
G01 X5.3560 Y0.8650 F60.00
G01 X8.3137 Y0.8652 F60.00
G01 X8.4776 Y0.8731 F60.00
G01 X8.5110 Y0.8755 F60.00
G01 X8.5442 Y0.8796 F60.00
G01 X8.7064 Y0.9039 F60.00
G01 X8.7229 Y0.9070 F60.00
G01 X8.7556 Y0.9143 F60.00
G01 X8.9146 Y0.9543 F60.00
G01 X8.9467 Y0.9641 F60.00
G01 X9.0393 Y0.9970 F60.00
G01 X11.2574 Y0.9970 F60.00
G01 X11.6521 Y0.6030 F60.00
G01 X11.7861 Y0.4816 F60.00
G01 X11.7990 Y0.4709 F60.00
G01 X11.8254 Y0.4503 F60.00
G01 X11.9437 Y0.3626 F60.00
G01 X11.9711 Y0.3433 F60.00
G01 X11.9994 Y0.3254 F60.00
G01 X12.1257 Y0.2498 F60.00
G01 X12.1549 Y0.2333 F60.00
G01 X12.1848 Y0.2182 F60.00
G01 X12.3180 Y0.1553 F60.00
G01 X12.3486 Y0.1418 F60.00
G01 X12.3798 Y0.1297 F60.00
G01 X12.5185 Y0.0802 F60.00
G01 X12.5503 Y0.0697 F60.00
G01 X12.5826 Y0.0608 F60.00
G01 X12.7255 Y0.0251 F60.00
G01 X12.7582 Y0.0178 F60.00
G01 X12.7912 Y0.0120 F60.00
G01 X12.9369 Y-0.0095 F60.00
G01 X12.9535 Y-0.0117 F60.00
G01 X12.9868 Y-0.0150 F60.00
G01 X13.1673 Y-0.0238 F60.00
G01 X13.1841 Y-0.0240 F60.00
G01 X13.2175 Y-0.0231 F60.00
G01 X13.3646 Y-0.0159 F60.00
G01 X13.3980 Y-0.0134 F60.00
G01 X13.4313 Y-0.0093 F60.00
G01 X13.5769 Y0.0124 F60.00
G01 X13.6099 Y0.0182 F60.00
G01 X13.6426 Y0.0255 F60.00
G01 X13.7854 Y0.0614 F60.00
G01 X13.8177 Y0.0703 F60.00
G01 X13.8495 Y0.0808 F60.00
G01 X13.9881 Y0.1305 F60.00
G01 X14.0194 Y0.1426 F60.00
G01 X14.0500 Y0.1562 F60.00
G01 X14.1831 Y0.2192 F60.00
G01 X14.2130 Y0.2343 F60.00
G01 X14.2421 Y0.2508 F60.00
G01 X14.3684 Y0.3266 F60.00
G01 X14.3967 Y0.3445 F60.00
G01 X14.4241 Y0.3638 F60.00
G01 X14.5423 Y0.4516 F60.00
G01 X14.5687 Y0.4722 F60.00
G01 X14.5940 Y0.4941 F60.00
G01 X14.7031 Y0.5930 F60.00
G01 X14.7274 Y0.6162 F60.00
G01 X14.7504 Y0.6404 F60.00
G01 X14.8493 Y0.7496 F60.00
G01 X14.8711 Y0.7750 F60.00
G01 X14.8917 Y0.8014 F60.00
G01 X14.9794 Y0.9197 F60.00
G01 X14.9987 Y0.9471 F60.00
G01 X15.0166 Y0.9754 F60.00
G01 X15.1007 Y1.1162 F60.00
G01 X15.1164 Y1.1458 F60.00
G01 X15.1238 Y1.1608 F60.00
G01 X15.1867 Y1.2940 F60.00
G01 X15.2002 Y1.3246 F60.00
G01 X15.2123 Y1.3558 F60.00
G01 X15.2618 Y1.4945 F60.00
G01 X15.2723 Y1.5263 F60.00
G01 X15.2812 Y1.5586 F60.00
G01 X15.3169 Y1.7015 F60.00
G01 X15.3242 Y1.7342 F60.00
G01 X15.3300 Y1.7672 F60.00
G01 X15.3515 Y1.9129 F60.00
G01 X15.3556 Y1.9461 F60.00
G01 X15.3580 Y1.9795 F60.00
G01 X15.3652 Y2.1266 F60.00
G01 X15.3660 Y2.1601 F60.00
G01 X15.3651 Y2.1935 F60.00
G01 X15.3579 Y2.3406 F60.00
G01 X15.3554 Y2.3740 F60.00
G01 X15.3513 Y2.4073 F60.00
G01 X15.3296 Y2.5529 F60.00
G01 X15.3238 Y2.5859 F60.00
G01 X15.3165 Y2.6186 F60.00
G01 X15.2806 Y2.7614 F60.00
G01 X15.2717 Y2.7937 F60.00
G01 X15.2612 Y2.8255 F60.00
G01 X15.2115 Y2.9641 F60.00
G01 X15.2056 Y2.9798 F60.00
G01 X15.1928 Y3.0108 F60.00
G01 X15.1228 Y3.1591 F60.00
G01 X15.1077 Y3.1890 F60.00
G01 X15.0996 Y3.2037 F60.00
G01 X15.0154 Y3.3444 F60.00
G01 X14.9975 Y3.3727 F60.00
G01 X14.9782 Y3.4001 F60.00
G01 X14.8904 Y3.5183 F60.00
G01 X14.8698 Y3.5447 F60.00
G01 X14.8479 Y3.5700 F60.00
G01 X14.7490 Y3.6791 F60.00
G01 X14.7258 Y3.7034 F60.00
G01 X13.7038 Y4.7244 F60.00
G01 X13.6796 Y4.7474 F60.00
G01 X13.5704 Y4.8463 F60.00
G01 X13.5450 Y4.8681 F60.00
G01 X13.5186 Y4.8887 F60.00
G01 X13.4003 Y4.9764 F60.00
G01 X13.3729 Y4.9957 F60.00
G01 X13.3589 Y5.0048 F60.00
G01 X13.2038 Y5.0977 F60.00
G01 X13.1742 Y5.1134 F60.00
G01 X13.1592 Y5.1208 F60.00
G01 X13.0260 Y5.1837 F60.00
G01 X12.9954 Y5.1972 F60.00
G01 X12.9642 Y5.2093 F60.00
G01 X12.8255 Y5.2588 F60.00
G01 X12.7937 Y5.2693 F60.00
G01 X12.7614 Y5.2782 F60.00
G01 X12.6185 Y5.3139 F60.00
G01 X12.5858 Y5.3212 F60.00
G01 X12.5528 Y5.3270 F60.00
G01 X12.4071 Y5.3485 F60.00
G01 X12.3905 Y5.3507 F60.00
G01 X12.3572 Y5.3540 F60.00
G01 X12.1767 Y5.3628 F60.00
G01 X12.1432 Y5.3628 F60.00
G01 X12.1265 Y5.3621 F60.00
G01 X11.9794 Y5.3549 F60.00
G01 X11.9460 Y5.3524 F60.00
G01 X11.9127 Y5.3483 F60.00
G01 X11.7671 Y5.3266 F60.00
G01 X11.7430 Y5.3225 F60.00
G01 X11.7179 Y5.3268 F60.00
G01 X11.5722 Y5.3484 F60.00
G01 X11.5390 Y5.3525 F60.00
G01 X11.5056 Y5.3549 F60.00
G01 X11.3585 Y5.3622 F60.00
G01 X11.3250 Y5.3630 F60.00
G01 X8.4133 Y5.3628 F60.00
G01 X8.2494 Y5.3549 F60.00
G01 X8.2160 Y5.3525 F60.00
G01 X8.1828 Y5.3484 F60.00
G01 X8.0206 Y5.3241 F60.00
G01 X8.0041 Y5.3210 F60.00
G01 X7.9714 Y5.3137 F60.00
G01 X7.8124 Y5.2737 F60.00
G01 X7.7803 Y5.2639 F60.00
G01 X7.6877 Y5.2310 F60.00
G00 Z3.0000
G00 X7.6544 Y5.4229
G01 F60.00
G01 Z-0.0980
G01 F60.00
G01 X5.3560 Y5.4229 F60.00
G01 X5.3345 Y5.4226 F60.00
G01 X5.1660 Y5.4146 F60.00
G01 X5.1446 Y5.4133 F60.00
G01 X5.1232 Y5.4114 F60.00
G01 X5.1019 Y5.4091 F60.00
G01 X5.0806 Y5.4062 F60.00
G01 X4.9138 Y5.3812 F60.00
G01 X4.8927 Y5.3772 F60.00
G01 X4.8717 Y5.3728 F60.00
G01 X4.8508 Y5.3678 F60.00
G01 X4.7080 Y5.3320 F60.00
G01 X4.6872 Y5.3266 F60.00
G01 X4.6666 Y5.3206 F60.00
G01 X4.6462 Y5.3141 F60.00
G01 X4.6259 Y5.3071 F60.00
G01 X4.4872 Y5.2575 F60.00
G01 X4.4671 Y5.2501 F60.00
G01 X4.4472 Y5.2421 F60.00
G01 X4.4275 Y5.2336 F60.00
G01 X4.4080 Y5.2247 F60.00
G01 X4.2748 Y5.1617 F60.00
G01 X4.2555 Y5.1523 F60.00
G01 X4.2365 Y5.1424 F60.00
G01 X4.2177 Y5.1321 F60.00
G01 X4.1992 Y5.1213 F60.00
G01 X4.0728 Y5.0456 F60.00
G01 X4.0546 Y5.0343 F60.00
G01 X4.0366 Y5.0226 F60.00
G01 X4.0189 Y5.0105 F60.00
G01 X4.0015 Y4.9979 F60.00
G01 X3.8832 Y4.9102 F60.00
G01 X3.8661 Y4.8972 F60.00
G01 X3.8494 Y4.8838 F60.00
G01 X3.8330 Y4.8700 F60.00
G01 X3.8169 Y4.8558 F60.00
G01 X3.7078 Y4.7569 F60.00
G01 X3.6921 Y4.7423 F60.00
G01 X3.6767 Y4.7273 F60.00
G01 X3.6617 Y4.7119 F60.00
G01 X3.6471 Y4.6962 F60.00
G01 X3.5482 Y4.5871 F60.00
G01 X3.5340 Y4.5710 F60.00
G01 X3.5202 Y4.5546 F60.00
G01 X3.5068 Y4.5379 F60.00
G01 X3.4938 Y4.5208 F60.00
G01 X3.4061 Y4.4025 F60.00
G01 X3.3935 Y4.3851 F60.00
G01 X3.3814 Y4.3674 F60.00
G01 X3.3697 Y4.3494 F60.00
G01 X3.3584 Y4.3312 F60.00
G01 X3.2827 Y4.2048 F60.00
G01 X3.2719 Y4.1863 F60.00
G01 X3.2616 Y4.1675 F60.00
G01 X3.2517 Y4.1485 F60.00
G01 X3.2423 Y4.1292 F60.00
G01 X3.1793 Y3.9960 F60.00
G01 X3.1704 Y3.9765 F60.00
G01 X3.1619 Y3.9568 F60.00
G01 X3.1539 Y3.9369 F60.00
G01 X3.1465 Y3.9168 F60.00
G01 X3.0969 Y3.7781 F60.00
G01 X3.0899 Y3.7578 F60.00
G01 X3.0834 Y3.7374 F60.00
G01 X3.0774 Y3.7168 F60.00
G01 X3.0720 Y3.6960 F60.00
G01 X3.0362 Y3.5532 F60.00
G01 X3.0312 Y3.5323 F60.00
G01 X3.0268 Y3.5113 F60.00
G01 X3.0228 Y3.4902 F60.00
G01 X3.0194 Y3.4690 F60.00
G01 X2.9978 Y3.3234 F60.00
G01 X2.9949 Y3.3021 F60.00
G01 X2.9926 Y3.2808 F60.00
G01 X2.9907 Y3.2594 F60.00
G01 X2.9894 Y3.2380 F60.00
G01 X2.9822 Y3.0909 F60.00
G01 X2.9814 Y3.0695 F60.00
G01 X2.9811 Y3.0480 F60.00
G01 X2.9814 Y3.0265 F60.00
G01 X2.9822 Y3.0051 F60.00
G01 X2.9894 Y2.8580 F60.00
G01 X2.9907 Y2.8366 F60.00
G01 X2.9926 Y2.8152 F60.00
G01 X2.9949 Y2.7939 F60.00
G01 X2.9978 Y2.7726 F60.00
G01 X3.0194 Y2.6270 F60.00
G01 X3.0228 Y2.6058 F60.00
G01 X3.0268 Y2.5847 F60.00
G01 X3.0312 Y2.5637 F60.00
G01 X3.0362 Y2.5428 F60.00
G01 X3.0720 Y2.4000 F60.00
G01 X3.0774 Y2.3792 F60.00
G01 X3.0834 Y2.3586 F60.00
G01 X3.0899 Y2.3382 F60.00
G01 X3.0969 Y2.3179 F60.00
G01 X3.1465 Y2.1792 F60.00
G01 X3.1539 Y2.1591 F60.00
G01 X3.1619 Y2.1392 F60.00
G01 X3.1704 Y2.1195 F60.00
G01 X3.1793 Y2.1000 F60.00
G01 X3.2423 Y1.9668 F60.00
G01 X3.2517 Y1.9475 F60.00
G01 X3.2616 Y1.9285 F60.00
G01 X3.2719 Y1.9097 F60.00
G01 X3.2827 Y1.8912 F60.00
G01 X3.3584 Y1.7648 F60.00
G01 X3.3697 Y1.7466 F60.00
G01 X3.3814 Y1.7286 F60.00
G01 X3.3935 Y1.7109 F60.00
G01 X3.4061 Y1.6935 F60.00
G01 X3.4938 Y1.5752 F60.00
G01 X3.5068 Y1.5581 F60.00
G01 X3.5202 Y1.5414 F60.00
G01 X3.5340 Y1.5250 F60.00
G01 X3.5482 Y1.5089 F60.00
G01 X3.6471 Y1.3998 F60.00
G01 X3.6617 Y1.3841 F60.00
G01 X3.6767 Y1.3687 F60.00
G01 X3.6921 Y1.3537 F60.00
G01 X3.7078 Y1.3391 F60.00
G01 X3.8169 Y1.2402 F60.00
G01 X3.8330 Y1.2260 F60.00
G01 X3.8494 Y1.2122 F60.00
G01 X3.8661 Y1.1988 F60.00
G01 X3.8832 Y1.1858 F60.00
G01 X4.0015 Y1.0981 F60.00
G01 X4.0189 Y1.0855 F60.00
G01 X4.0366 Y1.0734 F60.00
G01 X4.0546 Y1.0617 F60.00
G01 X4.0728 Y1.0504 F60.00
G01 X4.1992 Y0.9747 F60.00
G01 X4.2177 Y0.9639 F60.00
G01 X4.2365 Y0.9536 F60.00
G01 X4.2555 Y0.9437 F60.00
G01 X4.2748 Y0.9343 F60.00
G01 X4.4080 Y0.8713 F60.00
G01 X4.4275 Y0.8624 F60.00
G01 X4.4472 Y0.8539 F60.00
G01 X4.4671 Y0.8459 F60.00
G01 X4.6259 Y0.7889 F60.00
G01 X4.6462 Y0.7819 F60.00
G01 X4.6666 Y0.7754 F60.00
G01 X4.6872 Y0.7694 F60.00
G01 X4.7080 Y0.7640 F60.00
G01 X4.8508 Y0.7282 F60.00
G01 X4.8717 Y0.7232 F60.00
G01 X4.8927 Y0.7188 F60.00
G01 X4.9138 Y0.7148 F60.00
G01 X5.0806 Y0.6898 F60.00
G01 X5.1019 Y0.6869 F60.00
G01 X5.1232 Y0.6846 F60.00
G01 X5.1446 Y0.6827 F60.00
G01 X5.3131 Y0.6742 F60.00
G01 X5.3345 Y0.6734 F60.00
G01 X5.3560 Y0.6731 F60.00
G01 X8.2970 Y0.6731 F60.00
G01 X8.3185 Y0.6734 F60.00
G01 X8.4870 Y0.6814 F60.00
G01 X8.5084 Y0.6827 F60.00
G01 X8.5298 Y0.6846 F60.00
G01 X8.5511 Y0.6869 F60.00
G01 X8.5724 Y0.6898 F60.00
G01 X8.7392 Y0.7148 F60.00
G01 X8.7603 Y0.7188 F60.00
G01 X8.7813 Y0.7232 F60.00
G01 X8.8022 Y0.7282 F60.00
G01 X8.9658 Y0.7694 F60.00
G01 X8.9864 Y0.7754 F60.00
G01 X9.0068 Y0.7819 F60.00
G01 X9.0726 Y0.8051 F60.00
G01 X11.1780 Y0.8051 F60.00
G01 X11.5045 Y0.4789 F60.00
G01 X11.5199 Y0.4639 F60.00
G01 X11.6448 Y0.3505 F60.00
G01 X11.6609 Y0.3363 F60.00
G01 X11.6773 Y0.3225 F60.00
G01 X11.6941 Y0.3091 F60.00
G01 X11.7111 Y0.2961 F60.00
G01 X11.8295 Y0.2084 F60.00
G01 X11.8469 Y0.1959 F60.00
G01 X11.8646 Y0.1837 F60.00
G01 X11.8825 Y0.1720 F60.00
G01 X11.9008 Y0.1608 F60.00
G01 X12.0272 Y0.0851 F60.00
G01 X12.0457 Y0.0743 F60.00
G01 X12.0645 Y0.0640 F60.00
G01 X12.0836 Y0.0541 F60.00
G01 X12.1029 Y0.0447 F60.00
G01 X12.2555 Y-0.0271 F60.00
G01 X12.2753 Y-0.0355 F60.00
G01 X12.2952 Y-0.0435 F60.00
G01 X12.3153 Y-0.0510 F60.00
G01 X12.4540 Y-0.1005 F60.00
G01 X12.4743 Y-0.1075 F60.00
G01 X12.4947 Y-0.1139 F60.00
G01 X12.5153 Y-0.1199 F60.00
G01 X12.5361 Y-0.1254 F60.00
G01 X12.6790 Y-0.1611 F60.00
G01 X12.6998 Y-0.1660 F60.00
G01 X12.7208 Y-0.1705 F60.00
G01 X12.7419 Y-0.1744 F60.00
G01 X12.7631 Y-0.1778 F60.00
G01 X12.9301 Y-0.2022 F60.00
G01 X12.9514 Y-0.2045 F60.00
G01 X12.9728 Y-0.2064 F60.00
G01 X12.9942 Y-0.2077 F60.00
G01 X13.1627 Y-0.2156 F60.00
G01 X13.1842 Y-0.2159 F60.00
G01 X13.2056 Y-0.2156 F60.00
G01 X13.2271 Y-0.2148 F60.00
G01 X13.3741 Y-0.2075 F60.00
G01 X13.3956 Y-0.2062 F60.00
G01 X13.4169 Y-0.2043 F60.00
G01 X13.4383 Y-0.2019 F60.00
G01 X13.6052 Y-0.1774 F60.00
G01 X13.6264 Y-0.1739 F60.00
G01 X13.6475 Y-0.1700 F60.00
G01 X13.6684 Y-0.1656 F60.00
G01 X13.6893 Y-0.1606 F60.00
G01 X13.8322 Y-0.1247 F60.00
G01 X13.8529 Y-0.1193 F60.00
G01 X13.8735 Y-0.1133 F60.00
G01 X13.8939 Y-0.1068 F60.00
G01 X13.9142 Y-0.0998 F60.00
G01 X14.0529 Y-0.0501 F60.00
G01 X14.0730 Y-0.0426 F60.00
G01 X14.0929 Y-0.0346 F60.00
G01 X14.1126 Y-0.0262 F60.00
G01 X14.1321 Y-0.0172 F60.00
G01 X14.2652 Y0.0458 F60.00
G01 X14.2845 Y0.0552 F60.00
G01 X14.3035 Y0.0651 F60.00
G01 X14.3223 Y0.0755 F60.00
G01 X14.3408 Y0.0863 F60.00
G01 X14.4671 Y0.1620 F60.00
G01 X14.4854 Y0.1733 F60.00
G01 X14.5034 Y0.1850 F60.00
G01 X14.5211 Y0.1972 F60.00
G01 X14.5384 Y0.2097 F60.00
G01 X14.6567 Y0.2975 F60.00
G01 X14.6738 Y0.3105 F60.00
G01 X14.6905 Y0.3239 F60.00
G01 X14.7069 Y0.3378 F60.00
G01 X14.7230 Y0.3520 F60.00
G01 X14.8320 Y0.4509 F60.00
G01 X14.8478 Y0.4655 F60.00
G01 X14.8631 Y0.4805 F60.00
G01 X14.8781 Y0.4959 F60.00
G01 X14.8927 Y0.5116 F60.00
G01 X14.9915 Y0.6208 F60.00
G01 X15.0057 Y0.6369 F60.00
G01 X15.0195 Y0.6533 F60.00
G01 X15.0329 Y0.6701 F60.00
G01 X15.0459 Y0.6871 F60.00
G01 X15.1336 Y0.8055 F60.00
G01 X15.1461 Y0.8229 F60.00
G01 X15.1583 Y0.8406 F60.00
G01 X15.1700 Y0.8585 F60.00
G01 X15.1812 Y0.8768 F60.00
G01 X15.2677 Y1.0217 F60.00
G01 X15.2780 Y1.0405 F60.00
G01 X15.2879 Y1.0596 F60.00
G01 X15.2973 Y1.0789 F60.00
G01 X15.3602 Y1.2120 F60.00
G01 X15.3691 Y1.2315 F60.00
G01 X15.3775 Y1.2513 F60.00
G01 X15.3855 Y1.2712 F60.00
G01 X15.3930 Y1.2913 F60.00
G01 X15.4425 Y1.4300 F60.00
G01 X15.4495 Y1.4503 F60.00
G01 X15.4559 Y1.4707 F60.00
G01 X15.4619 Y1.4913 F60.00
G01 X15.5031 Y1.6550 F60.00
G01 X15.5080 Y1.6758 F60.00
G01 X15.5125 Y1.6968 F60.00
G01 X15.5164 Y1.7179 F60.00
G01 X15.5198 Y1.7391 F60.00
G01 X15.5413 Y1.8848 F60.00
G01 X15.5442 Y1.9061 F60.00
G01 X15.5465 Y1.9274 F60.00
G01 X15.5484 Y1.9488 F60.00
G01 X15.5497 Y1.9702 F60.00
G01 X15.5568 Y2.1173 F60.00
G01 X15.5576 Y2.1387 F60.00
G01 X15.5579 Y2.1602 F60.00
G01 X15.5576 Y2.1816 F60.00
G01 X15.5568 Y2.2031 F60.00
G01 X15.5495 Y2.3501 F60.00
G01 X15.5482 Y2.3716 F60.00
G01 X15.5463 Y2.3929 F60.00
G01 X15.5439 Y2.4143 F60.00
G01 X15.5410 Y2.4355 F60.00
G01 X15.5194 Y2.5812 F60.00
G01 X15.5159 Y2.6024 F60.00
G01 X15.5120 Y2.6235 F60.00
G01 X15.5076 Y2.6444 F60.00
G01 X15.5026 Y2.6653 F60.00
G01 X15.4667 Y2.8082 F60.00
G01 X15.4613 Y2.8289 F60.00
G01 X15.4553 Y2.8495 F60.00
G01 X15.4488 Y2.8699 F60.00
G01 X15.4418 Y2.8902 F60.00
G01 X15.3921 Y3.0289 F60.00
G01 X15.3846 Y3.0490 F60.00
G01 X15.3766 Y3.0689 F60.00
G01 X15.3682 Y3.0886 F60.00
G01 X15.3592 Y3.1081 F60.00
G01 X15.2962 Y3.2412 F60.00
G01 X15.2868 Y3.2605 F60.00
G01 X15.2769 Y3.2795 F60.00
G01 X15.2665 Y3.2983 F60.00
G01 X15.2557 Y3.3168 F60.00
G01 X15.1800 Y3.4431 F60.00
G01 X15.1687 Y3.4614 F60.00
G01 X15.1570 Y3.4794 F60.00
G01 X15.1448 Y3.4971 F60.00
G01 X15.1323 Y3.5144 F60.00
G01 X15.0445 Y3.6327 F60.00
G01 X15.0315 Y3.6498 F60.00
G01 X15.0181 Y3.6665 F60.00
G01 X15.0042 Y3.6829 F60.00
G01 X14.9900 Y3.6990 F60.00
G01 X14.8765 Y3.8238 F60.00
G01 X14.8615 Y3.8391 F60.00
G01 X13.8395 Y4.8601 F60.00
G01 X13.8241 Y4.8751 F60.00
G01 X13.8084 Y4.8897 F60.00
G01 X13.6992 Y4.9885 F60.00
G01 X13.6831 Y5.0027 F60.00
G01 X13.6667 Y5.0165 F60.00
G01 X13.6499 Y5.0299 F60.00
G01 X13.6329 Y5.0429 F60.00
G01 X13.5145 Y5.1306 F60.00
G01 X13.4971 Y5.1431 F60.00
G01 X13.4794 Y5.1553 F60.00
G01 X13.4615 Y5.1670 F60.00
G01 X13.3168 Y5.2539 F60.00
G01 X13.2983 Y5.2647 F60.00
G01 X13.2795 Y5.2750 F60.00
G01 X13.2604 Y5.2849 F60.00
G01 X13.2411 Y5.2943 F60.00
G01 X13.1080 Y5.3572 F60.00
G01 X13.0885 Y5.3661 F60.00
G01 X13.0687 Y5.3745 F60.00
G01 X13.0488 Y5.3825 F60.00
G01 X13.0287 Y5.3900 F60.00
G01 X12.8900 Y5.4395 F60.00
G01 X12.8697 Y5.4465 F60.00
G01 X12.8493 Y5.4529 F60.00
G01 X12.8287 Y5.4589 F60.00
G01 X12.8079 Y5.4644 F60.00
G01 X12.6650 Y5.5001 F60.00
G01 X12.6442 Y5.5050 F60.00
G01 X12.6232 Y5.5095 F60.00
G01 X12.6021 Y5.5134 F60.00
G01 X12.5809 Y5.5168 F60.00
G01 X12.4352 Y5.5383 F60.00
G01 X12.4139 Y5.5412 F60.00
G01 X12.3926 Y5.5435 F60.00
G01 X12.3712 Y5.5454 F60.00
G01 X12.2027 Y5.5538 F60.00
G01 X12.1813 Y5.5546 F60.00
G01 X12.1598 Y5.5549 F60.00
G01 X12.1384 Y5.5546 F60.00
G01 X12.1169 Y5.5538 F60.00
G01 X11.9484 Y5.5452 F60.00
G01 X11.9271 Y5.5433 F60.00
G01 X11.9057 Y5.5409 F60.00
G01 X11.8845 Y5.5380 F60.00
G01 X11.7431 Y5.5170 F60.00
G01 X11.6004 Y5.5382 F60.00
G01 X11.5791 Y5.5411 F60.00
G01 X11.5578 Y5.5434 F60.00
G01 X11.5364 Y5.5453 F60.00
G01 X11.5150 Y5.5466 F60.00
G01 X11.3679 Y5.5538 F60.00
G01 X11.3465 Y5.5546 F60.00
G01 X11.3250 Y5.5549 F60.00
G01 X8.4300 Y5.5549 F60.00
G01 X8.4085 Y5.5546 F60.00
G01 X8.2400 Y5.5466 F60.00
G01 X8.2186 Y5.5453 F60.00
G01 X8.1972 Y5.5434 F60.00
G01 X8.1759 Y5.5411 F60.00
G01 X8.1546 Y5.5382 F60.00
G01 X7.9878 Y5.5132 F60.00
G01 X7.9667 Y5.5092 F60.00
G01 X7.9457 Y5.5048 F60.00
G01 X7.9248 Y5.4998 F60.00
G01 X7.7612 Y5.4586 F60.00
G01 X7.7406 Y5.4526 F60.00
G01 X7.7202 Y5.4461 F60.00
G01 X7.6544 Y5.4229 F60.00
G00 Z3.0000
G00 X11.4873 Y1.5810
G01 F60.00
G01 Z-0.0980
G01 F60.00
G01 X12.0470 Y1.0219 F60.00
G01 X12.1639 Y0.9160 F60.00
G01 X12.2864 Y0.8251 F60.00
G01 X12.2951 Y0.8193 F60.00
G01 X12.4260 Y0.7411 F60.00
G01 X12.5662 Y0.6747 F60.00
G01 X12.5735 Y0.6718 F60.00
G01 X12.7172 Y0.6206 F60.00
G01 X12.8702 Y0.5824 F60.00
G01 X13.0262 Y0.5593 F60.00
G01 X13.1786 Y0.5518 F60.00
G01 X13.1890 Y0.5518 F60.00
G01 X13.3361 Y0.5591 F60.00
G01 X13.3465 Y0.5601 F60.00
G01 X13.4973 Y0.5827 F60.00
G01 X13.6453 Y0.6197 F60.00
G01 X13.6528 Y0.6219 F60.00
G01 X13.7988 Y0.6743 F60.00
G01 X13.9414 Y0.7418 F60.00
G01 X14.0766 Y0.8230 F60.00
G01 X14.2033 Y0.9170 F60.00
G01 X14.3201 Y1.0230 F60.00
G01 X14.4260 Y1.1399 F60.00
G01 X14.5199 Y1.2667 F60.00
G01 X14.6009 Y1.4020 F60.00
G01 X14.6683 Y1.5446 F60.00
G01 X14.7214 Y1.6932 F60.00
G01 X14.7596 Y1.8462 F60.00
G01 X14.7827 Y2.0022 F60.00
G01 X14.7903 Y2.1598 F60.00
G01 X14.7825 Y2.3173 F60.00
G01 X14.7593 Y2.4733 F60.00
G01 X14.7223 Y2.6213 F60.00
G01 X14.7201 Y2.6288 F60.00
G01 X14.6677 Y2.7748 F60.00
G01 X14.6002 Y2.9174 F60.00
G01 X14.5190 Y3.0526 F60.00
G01 X14.4282 Y3.1752 F60.00
G01 X14.4233 Y3.1813 F60.00
G01 X14.3190 Y3.2961 F60.00
G01 X13.2970 Y4.3171 F60.00
G01 X13.1840 Y4.4196 F60.00
G01 X13.1760 Y4.4262 F60.00
G01 X13.0576 Y4.5139 F60.00
G01 X13.0489 Y4.5197 F60.00
G01 X12.9180 Y4.5979 F60.00
G01 X12.7754 Y4.6653 F60.00
G01 X12.6268 Y4.7184 F60.00
G01 X12.4789 Y4.7555 F60.00
G01 X12.4687 Y4.7575 F60.00
G01 X12.3230 Y4.7790 F60.00
G01 X12.3152 Y4.7799 F60.00
G01 X12.1602 Y4.7873 F60.00
G01 X12.0053 Y4.7798 F60.00
G01 X11.9975 Y4.7789 F60.00
G01 X11.8467 Y4.7563 F60.00
G01 X11.7430 Y4.7304 F60.00
G01 X11.6386 Y4.7565 F60.00
G01 X11.4877 Y4.7790 F60.00
G01 X11.4773 Y4.7800 F60.00
G01 X11.3276 Y4.7873 F60.00
G01 X8.4274 Y4.7873 F60.00
G01 X8.2725 Y4.7796 F60.00
G01 X8.1164 Y4.7565 F60.00
G01 X7.9634 Y4.7181 F60.00
G01 X7.8198 Y4.6669 F60.00
G01 X7.8125 Y4.6640 F60.00
G01 X7.7942 Y4.6553 F60.00
G01 X5.3560 Y4.6553 F60.00
G01 X5.1985 Y4.6476 F60.00
G01 X5.0450 Y4.6249 F60.00
G01 X5.0373 Y4.6233 F60.00
G01 X4.8945 Y4.5875 F60.00
G01 X4.8844 Y4.5845 F60.00
G01 X4.7409 Y4.5330 F60.00
G01 X4.5983 Y4.4656 F60.00
G01 X4.4674 Y4.3873 F60.00
G01 X4.4587 Y4.3814 F60.00
G01 X4.3363 Y4.2905 F60.00
G01 X4.2194 Y4.1846 F60.00
G01 X4.1135 Y4.0677 F60.00
G01 X4.0226 Y3.9453 F60.00
G01 X4.0167 Y3.9366 F60.00
G01 X3.9384 Y3.8057 F60.00
G01 X3.8731 Y3.6679 F60.00
G01 X3.8691 Y3.6582 F60.00
G01 X3.8179 Y3.5146 F60.00
G01 X3.7801 Y3.3641 F60.00
G01 X3.7786 Y3.3564 F60.00
G01 X3.7564 Y3.2055 F60.00
G01 X3.7487 Y3.0480 F60.00
G01 X3.7564 Y2.8905 F60.00
G01 X3.7795 Y2.7344 F60.00
G01 X3.8179 Y2.5814 F60.00
G01 X3.8710 Y2.4329 F60.00
G01 X3.9384 Y2.2903 F60.00
G01 X4.0195 Y2.1550 F60.00
G01 X4.1135 Y2.0283 F60.00
G01 X4.2194 Y1.9114 F60.00
G01 X4.3363 Y1.8055 F60.00
G01 X4.4630 Y1.7115 F60.00
G01 X4.5983 Y1.6304 F60.00
G01 X4.7409 Y1.5630 F60.00
G01 X4.8894 Y1.5099 F60.00
G01 X5.0399 Y1.4721 F60.00
G01 X5.0476 Y1.4706 F60.00
G01 X5.1985 Y1.4484 F60.00
G01 X5.3560 Y1.4407 F60.00
G01 X8.2996 Y1.4407 F60.00
G01 X8.4545 Y1.4484 F60.00
G01 X8.6106 Y1.4715 F60.00
G01 X8.7636 Y1.5099 F60.00
G01 X8.9072 Y1.5611 F60.00
G01 X8.9145 Y1.5640 F60.00
G01 X8.9328 Y1.5727 F60.00
G01 X11.3250 Y1.5727 F60.00
G01 X11.4773 Y1.5800 F60.00
G01 X11.4873 Y1.5810 F60.00
G00 Z3.0000
G00 X14.0584 Y10.0381
G01 F60.00
G01 Z-0.0980
G01 F60.00
G01 X5.3560 Y10.0381 F60.00
G01 X5.3319 Y10.0375 F60.00
G01 X5.1848 Y10.0303 F60.00
G01 X5.1608 Y10.0285 F60.00
G01 X5.1370 Y10.0256 F60.00
G01 X4.9913 Y10.0040 F60.00
G01 X4.9794 Y10.0021 F60.00
G01 X4.9558 Y9.9974 F60.00
G01 X4.8012 Y9.9588 F60.00
G01 X4.7780 Y9.9524 F60.00
G01 X4.7552 Y9.9448 F60.00
G01 X4.6165 Y9.8952 F60.00
G01 X4.5940 Y9.8865 F60.00
G01 X4.5720 Y9.8768 F60.00
G01 X4.4389 Y9.8138 F60.00
G01 X4.4174 Y9.8030 F60.00
G01 X4.3965 Y9.7911 F60.00
G01 X4.2701 Y9.7154 F60.00
G01 X4.2498 Y9.7025 F60.00
G01 X4.2301 Y9.6887 F60.00
G01 X4.1118 Y9.6010 F60.00
G01 X4.0929 Y9.5861 F60.00
G01 X4.0746 Y9.5704 F60.00
G01 X3.9655 Y9.4715 F60.00
G01 X3.9481 Y9.4549 F60.00
G01 X3.9315 Y9.4375 F60.00
G01 X3.8326 Y9.3284 F60.00
G01 X3.8169 Y9.3101 F60.00
G01 X3.8020 Y9.2912 F60.00
G01 X3.7143 Y9.1729 F60.00
G01 X3.7005 Y9.1532 F60.00
G01 X3.6876 Y9.1329 F60.00
G01 X3.6119 Y9.0065 F60.00
G01 X3.6000 Y8.9856 F60.00
G01 X3.5892 Y8.9641 F60.00
G01 X3.5262 Y8.8310 F60.00
G01 X3.5165 Y8.8090 F60.00
G01 X3.5078 Y8.7865 F60.00
G01 X3.4582 Y8.6478 F60.00
G01 X3.4506 Y8.6250 F60.00
G01 X3.4442 Y8.6018 F60.00
G01 X3.4084 Y8.4589 F60.00
G01 X3.4032 Y8.4354 F60.00
G01 X3.3990 Y8.4117 F60.00
G01 X3.3774 Y8.2660 F60.00
G01 X3.3745 Y8.2422 F60.00
G01 X3.3727 Y8.2182 F60.00
G01 X3.3655 Y8.0711 F60.00
G01 X3.3649 Y8.0470 F60.00
G01 X3.3655 Y8.0229 F60.00
G01 X3.3727 Y7.8758 F60.00
G01 X3.3745 Y7.8518 F60.00
G01 X3.3774 Y7.8280 F60.00
G01 X3.3990 Y7.6823 F60.00
G01 X3.4009 Y7.6704 F60.00
G01 X3.4056 Y7.6468 F60.00
G01 X3.4442 Y7.4922 F60.00
G01 X3.4506 Y7.4690 F60.00
G01 X3.4582 Y7.4462 F60.00
G01 X3.5078 Y7.3075 F60.00
G01 X3.5165 Y7.2850 F60.00
G01 X3.5262 Y7.2630 F60.00
G01 X3.5892 Y7.1299 F60.00
G01 X3.6000 Y7.1084 F60.00
G01 X3.6119 Y7.0875 F60.00
G01 X3.6876 Y6.9611 F60.00
G01 X3.7005 Y6.9408 F60.00
G01 X3.7143 Y6.9211 F60.00
G01 X3.8020 Y6.8028 F60.00
G01 X3.8169 Y6.7839 F60.00
G01 X3.8326 Y6.7656 F60.00
G01 X3.9315 Y6.6565 F60.00
G01 X3.9481 Y6.6391 F60.00
G01 X3.9655 Y6.6225 F60.00
G01 X4.0746 Y6.5236 F60.00
G01 X4.0929 Y6.5079 F60.00
G01 X4.1118 Y6.4930 F60.00
G01 X4.2301 Y6.4053 F60.00
G01 X4.2498 Y6.3915 F60.00
G01 X4.2701 Y6.3786 F60.00
G01 X4.3965 Y6.3029 F60.00
G01 X4.4174 Y6.2910 F60.00
G01 X4.4389 Y6.2802 F60.00
G01 X4.5720 Y6.2172 F60.00
G01 X4.5940 Y6.2075 F60.00
G01 X4.6165 Y6.1988 F60.00
G01 X4.7552 Y6.1492 F60.00
G01 X4.7780 Y6.1416 F60.00
G01 X4.8012 Y6.1352 F60.00
G01 X4.9441 Y6.0994 F60.00
G01 X4.9676 Y6.0942 F60.00
G01 X4.9913 Y6.0900 F60.00
G01 X5.1370 Y6.0684 F60.00
G01 X5.1489 Y6.0668 F60.00
G01 X5.1728 Y6.0644 F60.00
G01 X5.3319 Y6.0565 F60.00
G01 X5.3560 Y6.0559 F60.00
G01 X14.5450 Y6.0559 F60.00
G01 X14.5691 Y6.0565 F60.00
G01 X14.7162 Y6.0637 F60.00
G01 X14.7402 Y6.0655 F60.00
G01 X14.7640 Y6.0684 F60.00
G01 X14.9097 Y6.0900 F60.00
G01 X14.9334 Y6.0942 F60.00
G01 X14.9569 Y6.0994 F60.00
G01 X15.1136 Y6.1389 F60.00
G01 X25.1023 Y6.1389 F60.00
G01 X25.2022 Y6.1032 F60.00
G01 X25.2135 Y6.0993 F60.00
G01 X25.2366 Y6.0923 F60.00
G01 X25.3911 Y6.0534 F60.00
G01 X25.4028 Y6.0506 F60.00
G01 X25.4264 Y6.0459 F60.00
G01 X25.5840 Y6.0224 F60.00
G01 X25.6078 Y6.0195 F60.00
G01 X25.6318 Y6.0177 F60.00
G01 X25.7789 Y6.0105 F60.00
G01 X25.8030 Y6.0099 F60.00
G01 X27.6610 Y6.0099 F60.00
G01 X27.6851 Y6.0105 F60.00
G01 X27.8322 Y6.0177 F60.00
G01 X27.8562 Y6.0195 F60.00
G01 X27.8800 Y6.0224 F60.00
G01 X28.0257 Y6.0440 F60.00
G01 X28.0494 Y6.0482 F60.00
G01 X28.0729 Y6.0534 F60.00
G01 X28.2158 Y6.0892 F60.00
G01 X28.2390 Y6.0956 F60.00
G01 X28.2618 Y6.1032 F60.00
G01 X28.4005 Y6.1528 F60.00
G01 X28.4230 Y6.1615 F60.00
G01 X28.4450 Y6.1712 F60.00
G01 X28.5781 Y6.2342 F60.00
G01 X28.5996 Y6.2450 F60.00
G01 X28.6205 Y6.2569 F60.00
G01 X28.7469 Y6.3326 F60.00
G01 X28.7672 Y6.3455 F60.00
G01 X28.7869 Y6.3593 F60.00
G01 X28.9052 Y6.4470 F60.00
G01 X28.9241 Y6.4619 F60.00
G01 X28.9424 Y6.4776 F60.00
G01 X29.0515 Y6.5765 F60.00
G01 X29.0689 Y6.5931 F60.00
G01 X29.0855 Y6.6105 F60.00
G01 X29.1844 Y6.7196 F60.00
G01 X29.2001 Y6.7379 F60.00
G01 X29.2150 Y6.7568 F60.00
G01 X29.3027 Y6.8751 F60.00
G01 X29.3165 Y6.8948 F60.00
G01 X29.3294 Y6.9151 F60.00
G01 X29.4051 Y7.0415 F60.00
G01 X29.4170 Y7.0624 F60.00
G01 X29.4278 Y7.0839 F60.00
G01 X29.4908 Y7.2170 F60.00
G01 X29.5005 Y7.2390 F60.00
G01 X29.5092 Y7.2615 F60.00
G01 X29.5588 Y7.4002 F60.00
G01 X29.5664 Y7.4230 F60.00
G01 X29.5728 Y7.4462 F60.00
G01 X29.6086 Y7.5891 F60.00
G01 X29.6138 Y7.6126 F60.00
G01 X29.6180 Y7.6363 F60.00
G01 X29.6396 Y7.7820 F60.00
G01 X29.6425 Y7.8058 F60.00
G01 X29.6443 Y7.8298 F60.00
G01 X29.6515 Y7.9769 F60.00
G01 X29.6521 Y8.0010 F60.00
G01 X29.6515 Y8.0251 F60.00
G01 X29.6443 Y8.1722 F60.00
G01 X29.6425 Y8.1962 F60.00
G01 X29.6396 Y8.2200 F60.00
G01 X29.6180 Y8.3657 F60.00
G01 X29.6138 Y8.3894 F60.00
G01 X29.6086 Y8.4129 F60.00
G01 X29.5728 Y8.5558 F60.00
G01 X29.5664 Y8.5790 F60.00
G01 X29.5588 Y8.6018 F60.00
G01 X29.5092 Y8.7405 F60.00
G01 X29.5005 Y8.7630 F60.00
G01 X29.4908 Y8.7850 F60.00
G01 X29.4278 Y8.9181 F60.00
G01 X29.4170 Y8.9396 F60.00
G01 X29.4051 Y8.9605 F60.00
G01 X29.3294 Y9.0869 F60.00
G01 X29.3165 Y9.1072 F60.00
G01 X29.3027 Y9.1269 F60.00
G01 X29.2150 Y9.2452 F60.00
G01 X29.2001 Y9.2641 F60.00
G01 X29.1844 Y9.2824 F60.00
G01 X29.0855 Y9.3915 F60.00
G01 X29.0689 Y9.4089 F60.00
G01 X29.0515 Y9.4255 F60.00
G01 X28.9424 Y9.5244 F60.00
G01 X28.9241 Y9.5401 F60.00
G01 X28.9052 Y9.5550 F60.00
G01 X28.7869 Y9.6427 F60.00
G01 X28.7672 Y9.6565 F60.00
G01 X28.7469 Y9.6694 F60.00
G01 X28.6205 Y9.7451 F60.00
G01 X28.5996 Y9.7570 F60.00
G01 X28.5781 Y9.7678 F60.00
G01 X28.4450 Y9.8308 F60.00
G01 X28.4230 Y9.8405 F60.00
G01 X28.4005 Y9.8492 F60.00
G01 X28.2618 Y9.8988 F60.00
G01 X28.2390 Y9.9064 F60.00
G01 X28.2158 Y9.9128 F60.00
G01 X28.0729 Y9.9486 F60.00
G01 X28.0494 Y9.9538 F60.00
G01 X28.0257 Y9.9580 F60.00
G01 X27.8800 Y9.9796 F60.00
G01 X27.8562 Y9.9825 F60.00
G01 X27.8322 Y9.9843 F60.00
G01 X27.6730 Y9.9920 F60.00
G01 X26.3747 Y9.9921 F60.00
G01 X26.2748 Y10.0278 F60.00
G01 X26.2635 Y10.0317 F60.00
G01 X26.2404 Y10.0387 F60.00
G01 X26.0859 Y10.0776 F60.00
G01 X26.0624 Y10.0828 F60.00
G01 X26.0506 Y10.0851 F60.00
G01 X25.8930 Y10.1086 F60.00
G01 X25.8692 Y10.1115 F60.00
G01 X25.8452 Y10.1133 F60.00
G01 X25.6981 Y10.1205 F60.00
G01 X25.6740 Y10.1211 F60.00
G01 X14.6270 Y10.1211 F60.00
G01 X14.6029 Y10.1205 F60.00
G01 X14.4558 Y10.1133 F60.00
G01 X14.4318 Y10.1115 F60.00
G01 X14.4080 Y10.1086 F60.00
G01 X14.2623 Y10.0870 F60.00
G01 X14.2386 Y10.0828 F60.00
G01 X14.2151 Y10.0776 F60.00
G01 X14.0584 Y10.0381 F60.00
G00 Z3.0000
G00 X14.0338 Y10.2300
G01 F60.00
G01 Z-0.0980
G01 F60.00
G01 X5.3560 Y10.2300 F60.00
G01 X5.3225 Y10.2292 F60.00
G01 X5.1754 Y10.2219 F60.00
G01 X5.1420 Y10.2195 F60.00
G01 X5.1088 Y10.2154 F60.00
G01 X4.9631 Y10.1938 F60.00
G01 X4.9301 Y10.1880 F60.00
G01 X4.8974 Y10.1807 F60.00
G01 X4.7546 Y10.1449 F60.00
G01 X4.7223 Y10.1360 F60.00
G01 X4.6905 Y10.1255 F60.00
G01 X4.5518 Y10.0759 F60.00
G01 X4.5206 Y10.0638 F60.00
G01 X4.4900 Y10.0502 F60.00
G01 X4.3569 Y9.9873 F60.00
G01 X4.3269 Y9.9722 F60.00
G01 X4.2978 Y9.9557 F60.00
G01 X4.1715 Y9.8800 F60.00
G01 X4.1432 Y9.8621 F60.00
G01 X4.1158 Y9.8428 F60.00
G01 X3.9975 Y9.7551 F60.00
G01 X3.9711 Y9.7345 F60.00
G01 X3.9458 Y9.7126 F60.00
G01 X3.8366 Y9.6137 F60.00
G01 X3.8124 Y9.5906 F60.00
G01 X3.7893 Y9.5664 F60.00
G01 X3.6904 Y9.4572 F60.00
G01 X3.6685 Y9.4319 F60.00
G01 X3.6479 Y9.4055 F60.00
G01 X3.5602 Y9.2872 F60.00
G01 X3.5409 Y9.2598 F60.00
G01 X3.5230 Y9.2315 F60.00
G01 X3.4389 Y9.0907 F60.00
G01 X3.4308 Y9.0761 F60.00
G01 X3.4157 Y9.0461 F60.00
G01 X3.3528 Y8.9130 F60.00
G01 X3.3392 Y8.8824 F60.00
G01 X3.3271 Y8.8512 F60.00
G01 X3.2775 Y8.7125 F60.00
G01 X3.2670 Y8.6807 F60.00
G01 X3.2581 Y8.6484 F60.00
G01 X3.2223 Y8.5056 F60.00
G01 X3.2150 Y8.4729 F60.00
G01 X3.2092 Y8.4399 F60.00
G01 X3.1876 Y8.2942 F60.00
G01 X3.1835 Y8.2610 F60.00
G01 X3.1811 Y8.2276 F60.00
G01 X3.1738 Y8.0805 F60.00
G01 X3.1730 Y8.0470 F60.00
G01 X3.1738 Y8.0135 F60.00
G01 X3.1811 Y7.8664 F60.00
G01 X3.1835 Y7.8330 F60.00
G01 X3.1876 Y7.7998 F60.00
G01 X3.2092 Y7.6541 F60.00
G01 X3.2150 Y7.6211 F60.00
G01 X3.2223 Y7.5884 F60.00
G01 X3.2581 Y7.4456 F60.00
G01 X3.2623 Y7.4294 F60.00
G01 X3.2721 Y7.3973 F60.00
G01 X3.3271 Y7.2428 F60.00
G01 X3.3392 Y7.2116 F60.00
G01 X3.3528 Y7.1810 F60.00
G01 X3.4157 Y7.0479 F60.00
G01 X3.4308 Y7.0179 F60.00
G01 X3.4473 Y6.9888 F60.00
G01 X3.5230 Y6.8625 F60.00
G01 X3.5409 Y6.8342 F60.00
G01 X3.5602 Y6.8068 F60.00
G01 X3.6479 Y6.6885 F60.00
G01 X3.6685 Y6.6621 F60.00
G01 X3.6904 Y6.6368 F60.00
G01 X3.7893 Y6.5276 F60.00
G01 X3.8124 Y6.5034 F60.00
G01 X3.8366 Y6.4803 F60.00
G01 X3.9458 Y6.3814 F60.00
G01 X3.9711 Y6.3595 F60.00
G01 X3.9975 Y6.3389 F60.00
G01 X4.1158 Y6.2512 F60.00
G01 X4.1432 Y6.2319 F60.00
G01 X4.1715 Y6.2140 F60.00
G01 X4.2978 Y6.1383 F60.00
G01 X4.3269 Y6.1218 F60.00
G01 X4.3569 Y6.1067 F60.00
G01 X4.4900 Y6.0438 F60.00
G01 X4.5206 Y6.0302 F60.00
G01 X4.5518 Y6.0181 F60.00
G01 X4.6905 Y5.9685 F60.00
G01 X4.7223 Y5.9580 F60.00
G01 X4.7546 Y5.9491 F60.00
G01 X4.8974 Y5.9133 F60.00
G01 X4.9301 Y5.9060 F60.00
G01 X4.9631 Y5.9002 F60.00
G01 X5.1088 Y5.8786 F60.00
G01 X5.1420 Y5.8745 F60.00
G01 X5.1587 Y5.8731 F60.00
G01 X5.3225 Y5.8648 F60.00
G01 X5.3560 Y5.8640 F60.00
G01 X14.5450 Y5.8640 F60.00
G01 X14.5785 Y5.8648 F60.00
G01 X14.7256 Y5.8721 F60.00
G01 X14.7590 Y5.8745 F60.00
G01 X14.7922 Y5.8786 F60.00
G01 X14.9379 Y5.9002 F60.00
G01 X14.9709 Y5.9060 F60.00
G01 X15.0036 Y5.9133 F60.00
G01 X15.1382 Y5.9470 F60.00
G01 X25.0691 Y5.9470 F60.00
G01 X25.1533 Y5.9171 F60.00
G01 X25.1854 Y5.9073 F60.00
G01 X25.3607 Y5.8634 F60.00
G01 X25.3771 Y5.8600 F60.00
G01 X25.4101 Y5.8542 F60.00
G01 X25.5558 Y5.8326 F60.00
G01 X25.5890 Y5.8285 F60.00
G01 X25.6224 Y5.8261 F60.00
G01 X25.7695 Y5.8188 F60.00
G01 X25.8030 Y5.8180 F60.00
G01 X27.6610 Y5.8180 F60.00
G01 X27.6945 Y5.8188 F60.00
G01 X27.8416 Y5.8261 F60.00
G01 X27.8750 Y5.8285 F60.00
G01 X27.9082 Y5.8326 F60.00
G01 X28.0539 Y5.8542 F60.00
G01 X28.0869 Y5.8600 F60.00
G01 X28.1196 Y5.8673 F60.00
G01 X28.2786 Y5.9073 F60.00
G01 X28.2947 Y5.9120 F60.00
G01 X28.3265 Y5.9225 F60.00
G01 X28.4652 Y5.9721 F60.00
G01 X28.4964 Y5.9842 F60.00
G01 X28.5270 Y5.9978 F60.00
G01 X28.6601 Y6.0607 F60.00
G01 X28.6901 Y6.0758 F60.00
G01 X28.7192 Y6.0923 F60.00
G01 X28.8455 Y6.1680 F60.00
G01 X28.8738 Y6.1859 F60.00
G01 X28.9012 Y6.2052 F60.00
G01 X29.0195 Y6.2929 F60.00
G01 X29.0459 Y6.3135 F60.00
G01 X29.0712 Y6.3354 F60.00
G01 X29.1804 Y6.4343 F60.00
G01 X29.2046 Y6.4574 F60.00
G01 X29.2277 Y6.4816 F60.00
G01 X29.3266 Y6.5908 F60.00
G01 X29.3485 Y6.6161 F60.00
G01 X29.3691 Y6.6425 F60.00
G01 X29.4568 Y6.7608 F60.00
G01 X29.4761 Y6.7882 F60.00
G01 X29.4940 Y6.8165 F60.00
G01 X29.5697 Y6.9428 F60.00
G01 X29.5862 Y6.9719 F60.00
G01 X29.6013 Y7.0019 F60.00
G01 X29.6712 Y7.1502 F60.00
G01 X29.6840 Y7.1812 F60.00
G01 X29.6899 Y7.1968 F60.00
G01 X29.7395 Y7.3355 F60.00
G01 X29.7500 Y7.3673 F60.00
G01 X29.7589 Y7.3996 F60.00
G01 X29.7947 Y7.5424 F60.00
G01 X29.8020 Y7.5751 F60.00
G01 X29.8051 Y7.5916 F60.00
G01 X29.8294 Y7.7538 F60.00
G01 X29.8335 Y7.7870 F60.00
G01 X29.8359 Y7.8204 F60.00
G01 X29.8432 Y7.9675 F60.00
G01 X29.8440 Y8.0010 F60.00
G01 X29.8432 Y8.0345 F60.00
G01 X29.8359 Y8.1816 F60.00
G01 X29.8335 Y8.2150 F60.00
G01 X29.8294 Y8.2482 F60.00
G01 X29.8078 Y8.3939 F60.00
G01 X29.8020 Y8.4269 F60.00
G01 X29.7947 Y8.4596 F60.00
G01 X29.7589 Y8.6024 F60.00
G01 X29.7500 Y8.6347 F60.00
G01 X29.7395 Y8.6665 F60.00
G01 X29.6899 Y8.8052 F60.00
G01 X29.6778 Y8.8364 F60.00
G01 X29.6642 Y8.8670 F60.00
G01 X29.6013 Y9.0001 F60.00
G01 X29.5862 Y9.0301 F60.00
G01 X29.5697 Y9.0592 F60.00
G01 X29.4940 Y9.1855 F60.00
G01 X29.4761 Y9.2138 F60.00
G01 X29.4568 Y9.2412 F60.00
G01 X29.3691 Y9.3595 F60.00
G01 X29.3485 Y9.3859 F60.00
G01 X29.3266 Y9.4112 F60.00
G01 X29.2277 Y9.5204 F60.00
G01 X29.2046 Y9.5446 F60.00
G01 X29.1804 Y9.5677 F60.00
G01 X29.0712 Y9.6666 F60.00
G01 X29.0459 Y9.6885 F60.00
G01 X29.0195 Y9.7091 F60.00
G01 X28.9012 Y9.7968 F60.00
G01 X28.8738 Y9.8161 F60.00
G01 X28.8455 Y9.8340 F60.00
G01 X28.7192 Y9.9097 F60.00
G01 X28.6901 Y9.9262 F60.00
G01 X28.6601 Y9.9413 F60.00
G01 X28.5270 Y10.0042 F60.00
G01 X28.4964 Y10.0178 F60.00
G01 X28.4652 Y10.0299 F60.00
G01 X28.3265 Y10.0795 F60.00
G01 X28.2947 Y10.0900 F60.00
G01 X28.2624 Y10.0989 F60.00
G01 X28.1196 Y10.1347 F60.00
G01 X28.1033 Y10.1386 F60.00
G01 X28.0704 Y10.1451 F60.00
G01 X27.9082 Y10.1694 F60.00
G01 X27.8750 Y10.1735 F60.00
G01 X27.8416 Y10.1759 F60.00
G01 X27.6777 Y10.1838 F60.00
G01 X26.4079 Y10.1840 F60.00
G01 X26.3237 Y10.2139 F60.00
G01 X26.2916 Y10.2237 F60.00
G01 X26.1326 Y10.2637 F60.00
G01 X26.1163 Y10.2676 F60.00
G01 X26.0834 Y10.2741 F60.00
G01 X25.9212 Y10.2984 F60.00
G01 X25.8880 Y10.3025 F60.00
G01 X25.8546 Y10.3049 F60.00
G01 X25.7075 Y10.3122 F60.00
G01 X25.6740 Y10.3130 F60.00
G01 X14.6270 Y10.3130 F60.00
G01 X14.5935 Y10.3122 F60.00
G01 X14.4464 Y10.3049 F60.00
G01 X14.4130 Y10.3025 F60.00
G01 X14.3798 Y10.2984 F60.00
G01 X14.2341 Y10.2768 F60.00
G01 X14.2011 Y10.2710 F60.00
G01 X14.1684 Y10.2637 F60.00
G01 X14.0338 Y10.2300 F60.00
G00 Z3.0000
G00 X14.0102 Y10.4219
G01 F60.00
G01 Z-0.0980
G01 F60.00
G01 X5.3560 Y10.4219 F60.00
G01 X5.3345 Y10.4216 F60.00
G01 X5.3131 Y10.4208 F60.00
G01 X5.1660 Y10.4136 F60.00
G01 X5.1446 Y10.4123 F60.00
G01 X5.1232 Y10.4104 F60.00
G01 X5.1019 Y10.4081 F60.00
G01 X5.0806 Y10.4052 F60.00
G01 X4.9350 Y10.3836 F60.00
G01 X4.9138 Y10.3802 F60.00
G01 X4.8927 Y10.3762 F60.00
G01 X4.8717 Y10.3718 F60.00
G01 X4.8508 Y10.3668 F60.00
G01 X4.6872 Y10.3256 F60.00
G01 X4.6666 Y10.3196 F60.00
G01 X4.6462 Y10.3131 F60.00
G01 X4.6259 Y10.3061 F60.00
G01 X4.4872 Y10.2565 F60.00
G01 X4.4671 Y10.2491 F60.00
G01 X4.4472 Y10.2411 F60.00
G01 X4.4275 Y10.2326 F60.00
G01 X4.4080 Y10.2237 F60.00
G01 X4.2748 Y10.1607 F60.00
G01 X4.2555 Y10.1513 F60.00
G01 X4.2365 Y10.1414 F60.00
G01 X4.2177 Y10.1311 F60.00
G01 X4.1992 Y10.1203 F60.00
G01 X4.0728 Y10.0446 F60.00
G01 X4.0546 Y10.0333 F60.00
G01 X4.0366 Y10.0216 F60.00
G01 X4.0189 Y10.0095 F60.00
G01 X4.0015 Y9.9969 F60.00
G01 X3.8832 Y9.9092 F60.00
G01 X3.8661 Y9.8962 F60.00
G01 X3.8494 Y9.8828 F60.00
G01 X3.8330 Y9.8690 F60.00
G01 X3.8169 Y9.8548 F60.00
G01 X3.7078 Y9.7559 F60.00
G01 X3.6921 Y9.7413 F60.00
G01 X3.6767 Y9.7263 F60.00
G01 X3.6617 Y9.7109 F60.00
G01 X3.6471 Y9.6952 F60.00
G01 X3.5482 Y9.5861 F60.00
G01 X3.5340 Y9.5700 F60.00
G01 X3.5202 Y9.5536 F60.00
G01 X3.5068 Y9.5369 F60.00
G01 X3.4938 Y9.5198 F60.00
G01 X3.4061 Y9.4015 F60.00
G01 X3.3935 Y9.3841 F60.00
G01 X3.3814 Y9.3664 F60.00
G01 X3.3697 Y9.3484 F60.00
G01 X3.3584 Y9.3302 F60.00
G01 X3.2827 Y9.2038 F60.00
G01 X3.2719 Y9.1853 F60.00
G01 X3.2616 Y9.1665 F60.00
G01 X3.2517 Y9.1475 F60.00
G01 X3.2423 Y9.1282 F60.00
G01 X3.1793 Y8.9950 F60.00
G01 X3.1704 Y8.9755 F60.00
G01 X3.1619 Y8.9558 F60.00
G01 X3.1539 Y8.9359 F60.00
G01 X3.1465 Y8.9158 F60.00
G01 X3.0969 Y8.7771 F60.00
G01 X3.0899 Y8.7568 F60.00
G01 X3.0834 Y8.7364 F60.00
G01 X3.0774 Y8.7158 F60.00
G01 X3.0720 Y8.6950 F60.00
G01 X3.0362 Y8.5522 F60.00
G01 X3.0312 Y8.5313 F60.00
G01 X3.0268 Y8.5103 F60.00
G01 X3.0228 Y8.4892 F60.00
G01 X3.0194 Y8.4680 F60.00
G01 X2.9978 Y8.3224 F60.00
G01 X2.9949 Y8.3011 F60.00
G01 X2.9926 Y8.2798 F60.00
G01 X2.9907 Y8.2584 F60.00
G01 X2.9894 Y8.2370 F60.00
G01 X2.9822 Y8.0899 F60.00
G01 X2.9814 Y8.0685 F60.00
G01 X2.9811 Y8.0470 F60.00
G01 X2.9814 Y8.0255 F60.00
G01 X2.9822 Y8.0041 F60.00
G01 X2.9894 Y7.8570 F60.00
G01 X2.9907 Y7.8356 F60.00
G01 X2.9926 Y7.8142 F60.00
G01 X2.9949 Y7.7929 F60.00
G01 X2.9978 Y7.7716 F60.00
G01 X3.0194 Y7.6260 F60.00
G01 X3.0228 Y7.6048 F60.00
G01 X3.0268 Y7.5837 F60.00
G01 X3.0312 Y7.5627 F60.00
G01 X3.0362 Y7.5418 F60.00
G01 X3.0774 Y7.3782 F60.00
G01 X3.0834 Y7.3576 F60.00
G01 X3.0899 Y7.3372 F60.00
G01 X3.0969 Y7.3169 F60.00
G01 X3.1465 Y7.1782 F60.00
G01 X3.1539 Y7.1581 F60.00
G01 X3.1619 Y7.1382 F60.00
G01 X3.1704 Y7.1185 F60.00
G01 X3.1793 Y7.0990 F60.00
G01 X3.2423 Y6.9658 F60.00
G01 X3.2517 Y6.9465 F60.00
G01 X3.2616 Y6.9275 F60.00
G01 X3.2719 Y6.9087 F60.00
G01 X3.2827 Y6.8902 F60.00
G01 X3.3584 Y6.7638 F60.00
G01 X3.3697 Y6.7456 F60.00
G01 X3.3814 Y6.7276 F60.00
G01 X3.3935 Y6.7099 F60.00
G01 X3.4061 Y6.6925 F60.00
G01 X3.4938 Y6.5742 F60.00
G01 X3.5068 Y6.5571 F60.00
G01 X3.5202 Y6.5404 F60.00
G01 X3.5340 Y6.5240 F60.00
G01 X3.5482 Y6.5079 F60.00
G01 X3.6471 Y6.3988 F60.00
G01 X3.6617 Y6.3831 F60.00
G01 X3.6767 Y6.3677 F60.00
G01 X3.6921 Y6.3527 F60.00
G01 X3.7078 Y6.3381 F60.00
G01 X3.8169 Y6.2392 F60.00
G01 X3.8330 Y6.2250 F60.00
G01 X3.8494 Y6.2112 F60.00
G01 X3.8661 Y6.1978 F60.00
G01 X3.8832 Y6.1848 F60.00
G01 X4.0015 Y6.0971 F60.00
G01 X4.0189 Y6.0845 F60.00
G01 X4.0366 Y6.0724 F60.00
G01 X4.0546 Y6.0607 F60.00
G01 X4.0728 Y6.0494 F60.00
G01 X4.1992 Y5.9737 F60.00
G01 X4.2177 Y5.9629 F60.00
G01 X4.2365 Y5.9526 F60.00
G01 X4.2555 Y5.9427 F60.00
G01 X4.2748 Y5.9333 F60.00
G01 X4.4080 Y5.8703 F60.00
G01 X4.4275 Y5.8614 F60.00
G01 X4.4472 Y5.8529 F60.00
G01 X4.4671 Y5.8449 F60.00
G01 X4.4872 Y5.8375 F60.00
G01 X4.6259 Y5.7879 F60.00
G01 X4.6462 Y5.7809 F60.00
G01 X4.6666 Y5.7744 F60.00
G01 X4.6872 Y5.7684 F60.00
G01 X4.7080 Y5.7630 F60.00
G01 X4.8508 Y5.7272 F60.00
G01 X4.8717 Y5.7222 F60.00
G01 X4.8927 Y5.7178 F60.00
G01 X4.9138 Y5.7138 F60.00
G01 X4.9350 Y5.7104 F60.00
G01 X5.0806 Y5.6888 F60.00
G01 X5.1019 Y5.6859 F60.00
G01 X5.1232 Y5.6836 F60.00
G01 X5.1446 Y5.6817 F60.00
G01 X5.3131 Y5.6732 F60.00
G01 X5.3345 Y5.6724 F60.00
G01 X5.3560 Y5.6721 F60.00
G01 X14.5450 Y5.6721 F60.00
G01 X14.5665 Y5.6724 F60.00
G01 X14.5879 Y5.6732 F60.00
G01 X14.7350 Y5.6804 F60.00
G01 X14.7564 Y5.6817 F60.00
G01 X14.7778 Y5.6836 F60.00
G01 X14.7991 Y5.6859 F60.00
G01 X14.9660 Y5.7104 F60.00
G01 X14.9872 Y5.7138 F60.00
G01 X15.0083 Y5.7178 F60.00
G01 X15.0293 Y5.7222 F60.00
G01 X15.0502 Y5.7272 F60.00
G01 X15.1618 Y5.7551 F60.00
G01 X25.0358 Y5.7551 F60.00
G01 X25.0932 Y5.7349 F60.00
G01 X25.1136 Y5.7284 F60.00
G01 X25.1342 Y5.7224 F60.00
G01 X25.2978 Y5.6812 F60.00
G01 X25.3187 Y5.6762 F60.00
G01 X25.3397 Y5.6718 F60.00
G01 X25.3608 Y5.6678 F60.00
G01 X25.3820 Y5.6644 F60.00
G01 X25.5276 Y5.6428 F60.00
G01 X25.5489 Y5.6399 F60.00
G01 X25.5702 Y5.6376 F60.00
G01 X25.5916 Y5.6357 F60.00
G01 X25.6130 Y5.6344 F60.00
G01 X25.7601 Y5.6272 F60.00
G01 X25.7815 Y5.6264 F60.00
G01 X25.8030 Y5.6261 F60.00
G01 X27.6610 Y5.6261 F60.00
G01 X27.6825 Y5.6264 F60.00
G01 X27.7039 Y5.6272 F60.00
G01 X27.8510 Y5.6344 F60.00
G01 X27.8724 Y5.6357 F60.00
G01 X27.8938 Y5.6376 F60.00
G01 X27.9151 Y5.6399 F60.00
G01 X27.9364 Y5.6428 F60.00
G01 X28.0820 Y5.6644 F60.00
G01 X28.1032 Y5.6678 F60.00
G01 X28.1243 Y5.6718 F60.00
G01 X28.1453 Y5.6762 F60.00
G01 X28.1662 Y5.6812 F60.00
G01 X28.3298 Y5.7224 F60.00
G01 X28.3504 Y5.7284 F60.00
G01 X28.3708 Y5.7349 F60.00
G01 X28.3911 Y5.7419 F60.00
G01 X28.5298 Y5.7915 F60.00
G01 X28.5499 Y5.7989 F60.00
G01 X28.5698 Y5.8069 F60.00
G01 X28.5895 Y5.8154 F60.00
G01 X28.6090 Y5.8243 F60.00
G01 X28.7422 Y5.8873 F60.00
G01 X28.7615 Y5.8967 F60.00
G01 X28.7805 Y5.9066 F60.00
G01 X28.7993 Y5.9169 F60.00
G01 X28.8178 Y5.9277 F60.00
G01 X28.9442 Y6.0034 F60.00
G01 X28.9624 Y6.0147 F60.00
G01 X28.9804 Y6.0264 F60.00
G01 X28.9981 Y6.0385 F60.00
G01 X29.0155 Y6.0511 F60.00
G01 X29.1338 Y6.1388 F60.00
G01 X29.1509 Y6.1518 F60.00
G01 X29.1676 Y6.1652 F60.00
G01 X29.1840 Y6.1790 F60.00
G01 X29.2001 Y6.1932 F60.00
G01 X29.3092 Y6.2921 F60.00
G01 X29.3249 Y6.3067 F60.00
G01 X29.3403 Y6.3217 F60.00
G01 X29.3553 Y6.3371 F60.00
G01 X29.3699 Y6.3528 F60.00
G01 X29.4688 Y6.4619 F60.00
G01 X29.4830 Y6.4780 F60.00
G01 X29.4968 Y6.4944 F60.00
G01 X29.5102 Y6.5111 F60.00
G01 X29.5232 Y6.5282 F60.00
G01 X29.6109 Y6.6465 F60.00
G01 X29.6235 Y6.6639 F60.00
G01 X29.6356 Y6.6816 F60.00
G01 X29.6473 Y6.6996 F60.00
G01 X29.6586 Y6.7178 F60.00
G01 X29.7343 Y6.8442 F60.00
G01 X29.7451 Y6.8627 F60.00
G01 X29.7554 Y6.8815 F60.00
G01 X29.7653 Y6.9005 F60.00
G01 X29.7747 Y6.9198 F60.00
G01 X29.8466 Y7.0725 F60.00
G01 X29.8551 Y7.0922 F60.00
G01 X29.8631 Y7.1121 F60.00
G01 X29.8705 Y7.1322 F60.00
G01 X29.9201 Y7.2709 F60.00
G01 X29.9271 Y7.2912 F60.00
G01 X29.9336 Y7.3116 F60.00
G01 X29.9396 Y7.3322 F60.00
G01 X29.9808 Y7.4958 F60.00
G01 X29.9858 Y7.5167 F60.00
G01 X29.9902 Y7.5377 F60.00
G01 X29.9942 Y7.5588 F60.00
G01 X30.0192 Y7.7256 F60.00
G01 X30.0221 Y7.7469 F60.00
G01 X30.0244 Y7.7682 F60.00
G01 X30.0263 Y7.7896 F60.00
G01 X30.0276 Y7.8110 F60.00
G01 X30.0348 Y7.9581 F60.00
G01 X30.0356 Y7.9795 F60.00
G01 X30.0359 Y8.0010 F60.00
G01 X30.0356 Y8.0225 F60.00
G01 X30.0348 Y8.0439 F60.00
G01 X30.0276 Y8.1910 F60.00
G01 X30.0263 Y8.2124 F60.00
G01 X30.0244 Y8.2338 F60.00
G01 X30.0221 Y8.2551 F60.00
G01 X30.0192 Y8.2764 F60.00
G01 X29.9976 Y8.4220 F60.00
G01 X29.9942 Y8.4432 F60.00
G01 X29.9902 Y8.4643 F60.00
G01 X29.9858 Y8.4853 F60.00
G01 X29.9808 Y8.5062 F60.00
G01 X29.9450 Y8.6490 F60.00
G01 X29.9396 Y8.6698 F60.00
G01 X29.9336 Y8.6904 F60.00
G01 X29.9271 Y8.7108 F60.00
G01 X29.9201 Y8.7311 F60.00
G01 X29.8705 Y8.8698 F60.00
G01 X29.8631 Y8.8899 F60.00
G01 X29.8551 Y8.9098 F60.00
G01 X29.8466 Y8.9295 F60.00
G01 X29.8377 Y8.9490 F60.00
G01 X29.7747 Y9.0822 F60.00
G01 X29.7653 Y9.1015 F60.00
G01 X29.7554 Y9.1205 F60.00
G01 X29.7451 Y9.1393 F60.00
G01 X29.7343 Y9.1578 F60.00
G01 X29.6586 Y9.2842 F60.00
G01 X29.6473 Y9.3024 F60.00
G01 X29.6356 Y9.3204 F60.00
G01 X29.6235 Y9.3381 F60.00
G01 X29.6109 Y9.3555 F60.00
G01 X29.5232 Y9.4738 F60.00
G01 X29.5102 Y9.4909 F60.00
G01 X29.4968 Y9.5076 F60.00
G01 X29.4830 Y9.5240 F60.00
G01 X29.4688 Y9.5401 F60.00
G01 X29.3699 Y9.6492 F60.00
G01 X29.3553 Y9.6649 F60.00
G01 X29.3403 Y9.6803 F60.00
G01 X29.3249 Y9.6953 F60.00
G01 X29.3092 Y9.7099 F60.00
G01 X29.2001 Y9.8088 F60.00
G01 X29.1840 Y9.8230 F60.00
G01 X29.1676 Y9.8368 F60.00
G01 X29.1509 Y9.8502 F60.00
G01 X29.1338 Y9.8632 F60.00
G01 X29.0155 Y9.9509 F60.00
G01 X28.9981 Y9.9635 F60.00
G01 X28.9804 Y9.9756 F60.00
G01 X28.9624 Y9.9873 F60.00
G01 X28.9442 Y9.9986 F60.00
G01 X28.8178 Y10.0743 F60.00
G01 X28.7993 Y10.0851 F60.00
G01 X28.7805 Y10.0954 F60.00
G01 X28.7615 Y10.1053 F60.00
G01 X28.7422 Y10.1147 F60.00
G01 X28.6090 Y10.1777 F60.00
G01 X28.5895 Y10.1866 F60.00
G01 X28.5698 Y10.1951 F60.00
G01 X28.5499 Y10.2031 F60.00
G01 X28.5298 Y10.2105 F60.00
G01 X28.3911 Y10.2601 F60.00
G01 X28.3708 Y10.2671 F60.00
G01 X28.3504 Y10.2736 F60.00
G01 X28.3298 Y10.2796 F60.00
G01 X28.3090 Y10.2850 F60.00
G01 X28.1662 Y10.3208 F60.00
G01 X28.1453 Y10.3258 F60.00
G01 X28.1243 Y10.3302 F60.00
G01 X28.1032 Y10.3342 F60.00
G01 X27.9364 Y10.3592 F60.00
G01 X27.9151 Y10.3621 F60.00
G01 X27.8938 Y10.3644 F60.00
G01 X27.8724 Y10.3663 F60.00
G01 X27.8510 Y10.3676 F60.00
G01 X27.6825 Y10.3756 F60.00
G01 X27.6610 Y10.3759 F60.00
G01 X26.4412 Y10.3759 F60.00
G01 X26.3838 Y10.3961 F60.00
G01 X26.3634 Y10.4026 F60.00
G01 X26.3428 Y10.4086 F60.00
G01 X26.1792 Y10.4498 F60.00
G01 X26.1583 Y10.4548 F60.00
G01 X26.1373 Y10.4592 F60.00
G01 X26.1162 Y10.4632 F60.00
G01 X25.9494 Y10.4882 F60.00
G01 X25.9281 Y10.4911 F60.00
G01 X25.9068 Y10.4934 F60.00
G01 X25.8854 Y10.4953 F60.00
G01 X25.8640 Y10.4966 F60.00
G01 X25.7169 Y10.5038 F60.00
G01 X25.6955 Y10.5046 F60.00
G01 X25.6740 Y10.5049 F60.00
G01 X14.6270 Y10.5049 F60.00
G01 X14.6055 Y10.5046 F60.00
G01 X14.5841 Y10.5038 F60.00
G01 X14.4370 Y10.4966 F60.00
G01 X14.4156 Y10.4953 F60.00
G01 X14.3942 Y10.4934 F60.00
G01 X14.3729 Y10.4911 F60.00
G01 X14.2060 Y10.4666 F60.00
G01 X14.1848 Y10.4632 F60.00
G01 X14.1637 Y10.4592 F60.00
G01 X14.1427 Y10.4548 F60.00
G01 X14.1218 Y10.4498 F60.00
G01 X14.0102 Y10.4219 F60.00
G00 Z3.0000
G00 X12.7988 Y12.4897
G01 F60.00
G01 Z-0.0980
G01 F60.00
G01 X13.1882 Y12.4898 F60.00
G01 X13.3405 Y12.4974 F60.00
G01 X13.4914 Y12.5196 F60.00
G01 X13.4991 Y12.5211 F60.00
G01 X13.6496 Y12.5589 F60.00
G01 X13.7981 Y12.6120 F60.00
G01 X13.9407 Y12.6794 F60.00
G01 X14.0760 Y12.7605 F60.00
G01 X14.2027 Y12.8545 F60.00
G01 X14.3196 Y12.9604 F60.00
G01 X14.4255 Y13.0773 F60.00
G01 X14.5195 Y13.2040 F60.00
G01 X14.6006 Y13.3393 F60.00
G01 X14.6680 Y13.4819 F60.00
G01 X14.7211 Y13.6304 F60.00
G01 X14.7589 Y13.7809 F60.00
G01 X14.7604 Y13.7886 F60.00
G01 X14.7826 Y13.9395 F60.00
G01 X14.7903 Y14.0970 F60.00
G01 X14.7826 Y14.2545 F60.00
G01 X14.7595 Y14.4106 F60.00
G01 X14.7211 Y14.5636 F60.00
G01 X14.6680 Y14.7121 F60.00
G01 X14.6006 Y14.8547 F60.00
G01 X14.5195 Y14.9900 F60.00
G01 X14.4255 Y15.1167 F60.00
G01 X14.3196 Y15.2336 F60.00
G01 X14.2027 Y15.3395 F60.00
G01 X14.0760 Y15.4335 F60.00
G01 X13.9407 Y15.5146 F60.00
G01 X13.7981 Y15.5820 F60.00
G01 X13.6496 Y15.6351 F60.00
G01 X13.4991 Y15.6729 F60.00
G01 X13.4914 Y15.6744 F60.00
G01 X13.3405 Y15.6966 F60.00
G01 X13.1856 Y15.7043 F60.00
G01 X12.3410 Y15.7043 F60.00
G01 X12.1887 Y15.6970 F60.00
G01 X12.1783 Y15.6960 F60.00
G01 X12.0326 Y15.6744 F60.00
G01 X12.0223 Y15.6723 F60.00
G01 X11.8744 Y15.6351 F60.00
G01 X11.7283 Y15.5830 F60.00
G01 X11.7211 Y15.5799 F60.00
G01 X11.5833 Y15.5146 F60.00
G01 X11.4480 Y15.4335 F60.00
G01 X11.3213 Y15.3395 F60.00
G01 X11.2082 Y15.2372 F60.00
G01 X11.2026 Y15.2317 F60.00
G01 X11.0985 Y15.1167 F60.00
G01 X11.0076 Y14.9943 F60.00
G01 X11.0031 Y14.9878 F60.00
G01 X10.9260 Y14.8593 F60.00
G01 X10.9222 Y14.8524 F60.00
G01 X10.8570 Y14.7145 F60.00
G01 X10.8541 Y14.7072 F60.00
G01 X10.8352 Y14.6543 F60.00
G01 X5.3560 Y14.6543 F60.00
G01 X5.2037 Y14.6470 F60.00
G01 X5.1933 Y14.6460 F60.00
G01 X5.0424 Y14.6235 F60.00
G01 X4.8945 Y14.5865 F60.00
G01 X4.8844 Y14.5835 F60.00
G01 X4.7458 Y14.5339 F60.00
G01 X4.7361 Y14.5299 F60.00
G01 X4.5983 Y14.4646 F60.00
G01 X4.4630 Y14.3835 F60.00
G01 X4.3363 Y14.2895 F60.00
G01 X4.2232 Y14.1872 F60.00
G01 X4.2158 Y14.1798 F60.00
G01 X4.1135 Y14.0667 F60.00
G01 X4.0195 Y13.9400 F60.00
G01 X3.9410 Y13.8093 F60.00
G01 X3.9361 Y13.8000 F60.00
G01 X3.8710 Y13.6621 F60.00
G01 X3.8179 Y13.5136 F60.00
G01 X3.7807 Y13.3657 F60.00
G01 X3.7786 Y13.3554 F60.00
G01 X3.7570 Y13.2097 F60.00
G01 X3.7562 Y13.2019 F60.00
G01 X3.7487 Y13.0470 F60.00
G01 X3.7564 Y12.8895 F60.00
G01 X3.7795 Y12.7334 F60.00
G01 X3.8179 Y12.5804 F60.00
G01 X3.8710 Y12.4319 F60.00
G01 X3.9384 Y12.2893 F60.00
G01 X4.0195 Y12.1540 F60.00
G01 X4.1135 Y12.0273 F60.00
G01 X4.2194 Y11.9104 F60.00
G01 X4.3363 Y11.8045 F60.00
G01 X4.4630 Y11.7105 F60.00
G01 X4.5983 Y11.6294 F60.00
G01 X4.7409 Y11.5620 F60.00
G01 X4.8894 Y11.5089 F60.00
G01 X5.0424 Y11.4705 F60.00
G01 X5.1933 Y11.4480 F60.00
G01 X5.2011 Y11.4472 F60.00
G01 X5.3560 Y11.4397 F60.00
G01 X11.2930 Y11.4397 F60.00
G01 X11.4453 Y11.4470 F60.00
G01 X11.4557 Y11.4480 F60.00
G01 X11.6066 Y11.4705 F60.00
G01 X11.7545 Y11.5075 F60.00
G01 X11.7646 Y11.5105 F60.00
G01 X11.9081 Y11.5620 F60.00
G01 X12.0460 Y11.6271 F60.00
G01 X12.0553 Y11.6320 F60.00
G01 X12.1860 Y11.7105 F60.00
G01 X12.3106 Y11.8029 F60.00
G01 X12.3167 Y11.8079 F60.00
G01 X12.4258 Y11.9068 F60.00
G01 X12.4332 Y11.9142 F60.00
G01 X12.5355 Y12.0273 F60.00
G01 X12.6280 Y12.1518 F60.00
G01 X12.6323 Y12.1584 F60.00
G01 X12.7080 Y12.2847 F60.00
G01 X12.7118 Y12.2916 F60.00
G01 X12.7770 Y12.4295 F60.00
G01 X12.7799 Y12.4368 F60.00
G01 X12.7988 Y12.4897 F60.00
G00 Z3.0000
G00 X10.7070 Y14.8462
G01 F60.00
G01 Z-0.0980
G01 F60.00
G01 X5.3487 Y14.8461 F60.00
G01 X5.1943 Y14.8386 F60.00
G01 X5.1796 Y14.8376 F60.00
G01 X5.1651 Y14.8358 F60.00
G01 X5.0194 Y14.8142 F60.00
G01 X5.0050 Y14.8117 F60.00
G01 X4.9907 Y14.8084 F60.00
G01 X4.8478 Y14.7727 F60.00
G01 X4.8267 Y14.7665 F60.00
G01 X4.6811 Y14.7145 F60.00
G01 X4.6675 Y14.7093 F60.00
G01 X4.6541 Y14.7033 F60.00
G01 X4.5209 Y14.6404 F60.00
G01 X4.5079 Y14.6338 F60.00
G01 X4.4951 Y14.6266 F60.00
G01 X4.3688 Y14.5508 F60.00
G01 X4.3564 Y14.5430 F60.00
G01 X4.3444 Y14.5346 F60.00
G01 X4.2261 Y14.4468 F60.00
G01 X4.2146 Y14.4378 F60.00
G01 X4.2035 Y14.4283 F60.00
G01 X4.0944 Y14.3293 F60.00
G01 X4.0838 Y14.3192 F60.00
G01 X4.0737 Y14.3086 F60.00
G01 X3.9747 Y14.1995 F60.00
G01 X3.9652 Y14.1884 F60.00
G01 X3.9562 Y14.1769 F60.00
G01 X3.8684 Y14.0586 F60.00
G01 X3.8600 Y14.0466 F60.00
G01 X3.8522 Y14.0342 F60.00
G01 X3.7764 Y13.9079 F60.00
G01 X3.7692 Y13.8951 F60.00
G01 X3.7626 Y13.8821 F60.00
G01 X3.6997 Y13.7489 F60.00
G01 X3.6937 Y13.7355 F60.00
G01 X3.6885 Y13.7219 F60.00
G01 X3.6388 Y13.5832 F60.00
G01 X3.6342 Y13.5693 F60.00
G01 X3.6303 Y13.5552 F60.00
G01 X3.5946 Y13.4123 F60.00
G01 X3.5913 Y13.3980 F60.00
G01 X3.5888 Y13.3836 F60.00
G01 X3.5672 Y13.2379 F60.00
G01 X3.5654 Y13.2234 F60.00
G01 X3.5644 Y13.2087 F60.00
G01 X3.5571 Y13.0616 F60.00
G01 X3.5568 Y13.0470 F60.00
G01 X3.5571 Y13.0324 F60.00
G01 X3.5644 Y12.8853 F60.00
G01 X3.5654 Y12.8706 F60.00
G01 X3.5672 Y12.8561 F60.00
G01 X3.5888 Y12.7104 F60.00
G01 X3.5913 Y12.6960 F60.00
G01 X3.5946 Y12.6817 F60.00
G01 X3.6303 Y12.5388 F60.00
G01 X3.6365 Y12.5177 F60.00
G01 X3.6885 Y12.3721 F60.00
G01 X3.6937 Y12.3585 F60.00
G01 X3.6997 Y12.3451 F60.00
G01 X3.7626 Y12.2119 F60.00
G01 X3.7692 Y12.1989 F60.00
G01 X3.7764 Y12.1861 F60.00
G01 X3.8522 Y12.0598 F60.00
G01 X3.8600 Y12.0474 F60.00
G01 X3.8684 Y12.0354 F60.00
G01 X3.9562 Y11.9171 F60.00
G01 X3.9652 Y11.9056 F60.00
G01 X3.9747 Y11.8945 F60.00
G01 X4.0737 Y11.7854 F60.00
G01 X4.0838 Y11.7748 F60.00
G01 X4.0944 Y11.7647 F60.00
G01 X4.2035 Y11.6657 F60.00
G01 X4.2146 Y11.6562 F60.00
G01 X4.2261 Y11.6472 F60.00
G01 X4.3444 Y11.5594 F60.00
G01 X4.3564 Y11.5510 F60.00
G01 X4.3688 Y11.5432 F60.00
G01 X4.4951 Y11.4674 F60.00
G01 X4.5079 Y11.4602 F60.00
G01 X4.5209 Y11.4536 F60.00
G01 X4.6541 Y11.3907 F60.00
G01 X4.6675 Y11.3847 F60.00
G01 X4.6811 Y11.3795 F60.00
G01 X4.8198 Y11.3298 F60.00
G01 X4.8337 Y11.3252 F60.00
G01 X4.8478 Y11.3213 F60.00
G01 X4.9907 Y11.2856 F60.00
G01 X5.0122 Y11.2810 F60.00
G01 X5.1651 Y11.2582 F60.00
G01 X5.1796 Y11.2564 F60.00
G01 X5.1943 Y11.2554 F60.00
G01 X5.3414 Y11.2481 F60.00
G01 X5.3560 Y11.2478 F60.00
G01 X11.2930 Y11.2478 F60.00
G01 X11.3076 Y11.2481 F60.00
G01 X11.4547 Y11.2554 F60.00
G01 X11.4694 Y11.2564 F60.00
G01 X11.4839 Y11.2582 F60.00
G01 X11.6296 Y11.2798 F60.00
G01 X11.6440 Y11.2823 F60.00
G01 X11.6583 Y11.2856 F60.00
G01 X11.8012 Y11.3213 F60.00
G01 X11.8153 Y11.3252 F60.00
G01 X11.8292 Y11.3298 F60.00
G01 X11.9679 Y11.3795 F60.00
G01 X11.9815 Y11.3847 F60.00
G01 X11.9949 Y11.3907 F60.00
G01 X12.1281 Y11.4536 F60.00
G01 X12.1411 Y11.4602 F60.00
G01 X12.1539 Y11.4674 F60.00
G01 X12.2802 Y11.5432 F60.00
G01 X12.2986 Y11.5551 F60.00
G01 X12.4229 Y11.6472 F60.00
G01 X12.4344 Y11.6562 F60.00
G01 X12.4455 Y11.6657 F60.00
G01 X12.5546 Y11.7647 F60.00
G01 X12.5652 Y11.7748 F60.00
G01 X12.5753 Y11.7854 F60.00
G01 X12.6791 Y11.9000 F60.00
G01 X12.6928 Y11.9171 F60.00
G01 X12.7806 Y12.0354 F60.00
G01 X12.7930 Y12.0535 F60.00
G01 X12.8726 Y12.1861 F60.00
G01 X12.8798 Y12.1989 F60.00
G01 X12.8864 Y12.2119 F60.00
G01 X12.9270 Y12.2978 F60.00
G01 X13.1903 Y12.2979 F60.00
G01 X13.3447 Y12.3054 F60.00
G01 X13.3594 Y12.3064 F60.00
G01 X13.3739 Y12.3082 F60.00
G01 X13.5196 Y12.3298 F60.00
G01 X13.5340 Y12.3323 F60.00
G01 X13.5483 Y12.3356 F60.00
G01 X13.6912 Y12.3713 F60.00
G01 X13.7053 Y12.3752 F60.00
G01 X13.7192 Y12.3798 F60.00
G01 X13.8579 Y12.4295 F60.00
G01 X13.8715 Y12.4347 F60.00
G01 X13.8849 Y12.4407 F60.00
G01 X14.0181 Y12.5036 F60.00
G01 X14.0311 Y12.5102 F60.00
G01 X14.0439 Y12.5174 F60.00
G01 X14.1702 Y12.5932 F60.00
G01 X14.1826 Y12.6010 F60.00
G01 X14.1946 Y12.6094 F60.00
G01 X14.3129 Y12.6972 F60.00
G01 X14.3244 Y12.7062 F60.00
G01 X14.3355 Y12.7157 F60.00
G01 X14.4446 Y12.8147 F60.00
G01 X14.4552 Y12.8248 F60.00
G01 X14.4653 Y12.8354 F60.00
G01 X14.5643 Y12.9445 F60.00
G01 X14.5738 Y12.9556 F60.00
G01 X14.5828 Y12.9671 F60.00
G01 X14.6706 Y13.0854 F60.00
G01 X14.6790 Y13.0974 F60.00
G01 X14.6868 Y13.1098 F60.00
G01 X14.7626 Y13.2361 F60.00
G01 X14.7698 Y13.2489 F60.00
G01 X14.7764 Y13.2619 F60.00
G01 X14.8393 Y13.3951 F60.00
G01 X14.8453 Y13.4085 F60.00
G01 X14.8505 Y13.4221 F60.00
G01 X14.9002 Y13.5608 F60.00
G01 X14.9048 Y13.5747 F60.00
G01 X14.9087 Y13.5888 F60.00
G01 X14.9444 Y13.7317 F60.00
G01 X14.9477 Y13.7460 F60.00
G01 X14.9502 Y13.7604 F60.00
G01 X14.9718 Y13.9061 F60.00
G01 X14.9736 Y13.9206 F60.00
G01 X14.9746 Y13.9353 F60.00
G01 X14.9819 Y14.0824 F60.00
G01 X14.9822 Y14.0970 F60.00
G01 X14.9819 Y14.1116 F60.00
G01 X14.9746 Y14.2587 F60.00
G01 X14.9736 Y14.2734 F60.00
G01 X14.9718 Y14.2879 F60.00
G01 X14.9502 Y14.4336 F60.00
G01 X14.9477 Y14.4480 F60.00
G01 X14.9444 Y14.4623 F60.00
G01 X14.9087 Y14.6052 F60.00
G01 X14.9048 Y14.6193 F60.00
G01 X14.9002 Y14.6332 F60.00
G01 X14.8505 Y14.7719 F60.00
G01 X14.8453 Y14.7855 F60.00
G01 X14.8393 Y14.7989 F60.00
G01 X14.7764 Y14.9321 F60.00
G01 X14.7698 Y14.9451 F60.00
G01 X14.7626 Y14.9579 F60.00
G01 X14.6868 Y15.0842 F60.00
G01 X14.6790 Y15.0966 F60.00
G01 X14.6706 Y15.1086 F60.00
G01 X14.5828 Y15.2269 F60.00
G01 X14.5738 Y15.2384 F60.00
G01 X14.5643 Y15.2495 F60.00
G01 X14.4653 Y15.3586 F60.00
G01 X14.4552 Y15.3692 F60.00
G01 X14.4446 Y15.3793 F60.00
G01 X14.3355 Y15.4783 F60.00
G01 X14.3244 Y15.4878 F60.00
G01 X14.3129 Y15.4968 F60.00
G01 X14.1946 Y15.5846 F60.00
G01 X14.1826 Y15.5930 F60.00
G01 X14.1702 Y15.6008 F60.00
G01 X14.0439 Y15.6766 F60.00
G01 X14.0311 Y15.6838 F60.00
G01 X14.0181 Y15.6904 F60.00
G01 X13.8849 Y15.7533 F60.00
G01 X13.8715 Y15.7593 F60.00
G01 X13.8579 Y15.7645 F60.00
G01 X13.7192 Y15.8142 F60.00
G01 X13.7053 Y15.8188 F60.00
G01 X13.6912 Y15.8227 F60.00
G01 X13.5483 Y15.8584 F60.00
G01 X13.5340 Y15.8617 F60.00
G01 X13.5196 Y15.8642 F60.00
G01 X13.3739 Y15.8858 F60.00
G01 X13.3594 Y15.8876 F60.00
G01 X13.3447 Y15.8886 F60.00
G01 X13.1976 Y15.8959 F60.00
G01 X13.1830 Y15.8962 F60.00
G01 X12.3410 Y15.8962 F60.00
G01 X12.3264 Y15.8959 F60.00
G01 X12.1793 Y15.8886 F60.00
G01 X12.1646 Y15.8876 F60.00
G01 X12.1501 Y15.8858 F60.00
G01 X12.0044 Y15.8642 F60.00
G01 X11.9900 Y15.8617 F60.00
G01 X11.9757 Y15.8584 F60.00
G01 X11.8328 Y15.8227 F60.00
G01 X11.8117 Y15.8165 F60.00
G01 X11.6661 Y15.7645 F60.00
G01 X11.6525 Y15.7593 F60.00
G01 X11.6391 Y15.7533 F60.00
G01 X11.5059 Y15.6904 F60.00
G01 X11.4929 Y15.6838 F60.00
G01 X11.4801 Y15.6766 F60.00
G01 X11.3538 Y15.6008 F60.00
G01 X11.3414 Y15.5930 F60.00
G01 X11.3294 Y15.5846 F60.00
G01 X11.2111 Y15.4968 F60.00
G01 X11.1940 Y15.4831 F60.00
G01 X11.0794 Y15.3793 F60.00
G01 X11.0688 Y15.3692 F60.00
G01 X11.0587 Y15.3586 F60.00
G01 X10.9597 Y15.2495 F60.00
G01 X10.9456 Y15.2327 F60.00
G01 X10.8534 Y15.1086 F60.00
G01 X10.8410 Y15.0905 F60.00
G01 X10.7614 Y14.9579 F60.00
G01 X10.7542 Y14.9451 F60.00
G01 X10.7476 Y14.9321 F60.00
G01 X10.7070 Y14.8462 F60.00
G00 Z3.0000
G00 X10.5864 Y15.0381
G01 F60.00
G01 Z-0.0980
G01 F60.00
G01 X5.3440 Y15.0380 F60.00
G01 X5.1848 Y15.0303 F60.00
G01 X5.1608 Y15.0285 F60.00
G01 X5.1370 Y15.0256 F60.00
G01 X4.9913 Y15.0040 F60.00
G01 X4.9676 Y14.9998 F60.00
G01 X4.9441 Y14.9946 F60.00
G01 X4.8012 Y14.9588 F60.00
G01 X4.7780 Y14.9524 F60.00
G01 X4.7552 Y14.9448 F60.00
G01 X4.6052 Y14.8910 F60.00
G01 X4.5940 Y14.8865 F60.00
G01 X4.5720 Y14.8768 F60.00
G01 X4.4389 Y14.8138 F60.00
G01 X4.4174 Y14.8030 F60.00
G01 X4.3965 Y14.7911 F60.00
G01 X4.2701 Y14.7154 F60.00
G01 X4.2498 Y14.7025 F60.00
G01 X4.2301 Y14.6887 F60.00
G01 X4.1118 Y14.6010 F60.00
G01 X4.0929 Y14.5861 F60.00
G01 X4.0746 Y14.5704 F60.00
G01 X3.9655 Y14.4715 F60.00
G01 X3.9481 Y14.4549 F60.00
G01 X3.9315 Y14.4375 F60.00
G01 X3.8326 Y14.3284 F60.00
G01 X3.8169 Y14.3101 F60.00
G01 X3.8020 Y14.2912 F60.00
G01 X3.7143 Y14.1729 F60.00
G01 X3.7005 Y14.1532 F60.00
G01 X3.6876 Y14.1329 F60.00
G01 X3.6119 Y14.0065 F60.00
G01 X3.6000 Y13.9856 F60.00
G01 X3.5892 Y13.9641 F60.00
G01 X3.5262 Y13.8310 F60.00
G01 X3.5165 Y13.8090 F60.00
G01 X3.5078 Y13.7865 F60.00
G01 X3.4582 Y13.6478 F60.00
G01 X3.4506 Y13.6250 F60.00
G01 X3.4442 Y13.6018 F60.00
G01 X3.4084 Y13.4589 F60.00
G01 X3.4032 Y13.4354 F60.00
G01 X3.3990 Y13.4117 F60.00
G01 X3.3774 Y13.2660 F60.00
G01 X3.3745 Y13.2422 F60.00
G01 X3.3727 Y13.2182 F60.00
G01 X3.3655 Y13.0711 F60.00
G01 X3.3649 Y13.0470 F60.00
G01 X3.3655 Y13.0229 F60.00
G01 X3.3727 Y12.8758 F60.00
G01 X3.3745 Y12.8518 F60.00
G01 X3.3774 Y12.8280 F60.00
G01 X3.3990 Y12.6823 F60.00
G01 X3.4032 Y12.6586 F60.00
G01 X3.4084 Y12.6351 F60.00
G01 X3.4442 Y12.4922 F60.00
G01 X3.4506 Y12.4690 F60.00
G01 X3.4582 Y12.4462 F60.00
G01 X3.5120 Y12.2962 F60.00
G01 X3.5212 Y12.2740 F60.00
G01 X3.5262 Y12.2630 F60.00
G01 X3.5892 Y12.1299 F60.00
G01 X3.6000 Y12.1084 F60.00
G01 X3.6119 Y12.0875 F60.00
G01 X3.6876 Y11.9611 F60.00
G01 X3.7005 Y11.9408 F60.00
G01 X3.7143 Y11.9211 F60.00
G01 X3.8020 Y11.8028 F60.00
G01 X3.8169 Y11.7839 F60.00
G01 X3.8326 Y11.7656 F60.00
G01 X3.9315 Y11.6565 F60.00
G01 X3.9481 Y11.6391 F60.00
G01 X3.9655 Y11.6225 F60.00
G01 X4.0746 Y11.5236 F60.00
G01 X4.0929 Y11.5079 F60.00
G01 X4.1118 Y11.4930 F60.00
G01 X4.2301 Y11.4053 F60.00
G01 X4.2498 Y11.3915 F60.00
G01 X4.2701 Y11.3786 F60.00
G01 X4.3965 Y11.3029 F60.00
G01 X4.4174 Y11.2910 F60.00
G01 X4.4389 Y11.2802 F60.00
G01 X4.5720 Y11.2172 F60.00
G01 X4.5940 Y11.2075 F60.00
G01 X4.6165 Y11.1988 F60.00
G01 X4.7552 Y11.1492 F60.00
G01 X4.7780 Y11.1416 F60.00
G01 X4.8012 Y11.1352 F60.00
G01 X4.9441 Y11.0994 F60.00
G01 X4.9676 Y11.0942 F60.00
G01 X4.9913 Y11.0900 F60.00
G01 X5.1370 Y11.0684 F60.00
G01 X5.1608 Y11.0655 F60.00
G01 X5.1848 Y11.0637 F60.00
G01 X5.3319 Y11.0565 F60.00
G01 X5.3560 Y11.0559 F60.00
G01 X11.2930 Y11.0559 F60.00
G01 X11.3171 Y11.0565 F60.00
G01 X11.4642 Y11.0637 F60.00
G01 X11.4882 Y11.0655 F60.00
G01 X11.5120 Y11.0684 F60.00
G01 X11.6577 Y11.0900 F60.00
G01 X11.6814 Y11.0942 F60.00
G01 X11.7049 Y11.0994 F60.00
G01 X11.8478 Y11.1352 F60.00
G01 X11.8710 Y11.1416 F60.00
G01 X11.8938 Y11.1492 F60.00
G01 X12.0325 Y11.1988 F60.00
G01 X12.0550 Y11.2075 F60.00
G01 X12.0770 Y11.2172 F60.00
G01 X12.2101 Y11.2802 F60.00
G01 X12.2316 Y11.2910 F60.00
G01 X12.2525 Y11.3029 F60.00
G01 X12.3789 Y11.3786 F60.00
G01 X12.3992 Y11.3915 F60.00
G01 X12.4189 Y11.4053 F60.00
G01 X12.5372 Y11.4930 F60.00
G01 X12.5561 Y11.5079 F60.00
G01 X12.5744 Y11.5236 F60.00
G01 X12.6835 Y11.6225 F60.00
G01 X12.7009 Y11.6391 F60.00
G01 X12.7175 Y11.6565 F60.00
G01 X12.8164 Y11.7656 F60.00
G01 X12.8321 Y11.7839 F60.00
G01 X12.8470 Y11.8028 F60.00
G01 X12.9347 Y11.9211 F60.00
G01 X12.9485 Y11.9408 F60.00
G01 X12.9614 Y11.9611 F60.00
G01 X13.0371 Y12.0875 F60.00
G01 X13.0476 Y12.1059 F60.00
G01 X13.1950 Y12.1060 F60.00
G01 X13.3542 Y12.1137 F60.00
G01 X13.3782 Y12.1155 F60.00
G01 X13.3901 Y12.1168 F60.00
G01 X13.5477 Y12.1400 F60.00
G01 X13.5714 Y12.1442 F60.00
G01 X13.5949 Y12.1494 F60.00
G01 X13.7494 Y12.1883 F60.00
G01 X13.7610 Y12.1916 F60.00
G01 X13.7838 Y12.1992 F60.00
G01 X13.9225 Y12.2488 F60.00
G01 X13.9450 Y12.2575 F60.00
G01 X13.9670 Y12.2672 F60.00
G01 X14.1001 Y12.3302 F60.00
G01 X14.1216 Y12.3410 F60.00
G01 X14.1425 Y12.3529 F60.00
G01 X14.2791 Y12.4349 F60.00
G01 X14.2991 Y12.4483 F60.00
G01 X14.3089 Y12.4553 F60.00
G01 X14.4272 Y12.5430 F60.00
G01 X14.4461 Y12.5579 F60.00
G01 X14.4644 Y12.5736 F60.00
G01 X14.5735 Y12.6725 F60.00
G01 X14.5909 Y12.6891 F60.00
G01 X14.6075 Y12.7065 F60.00
G01 X14.7064 Y12.8156 F60.00
G01 X14.7221 Y12.8339 F60.00
G01 X14.7370 Y12.8528 F60.00
G01 X14.8247 Y12.9711 F60.00
G01 X14.8385 Y12.9908 F60.00
G01 X14.8514 Y13.0111 F60.00
G01 X14.9271 Y13.1375 F60.00
G01 X14.9390 Y13.1584 F60.00
G01 X14.9498 Y13.1799 F60.00
G01 X15.0128 Y13.3130 F60.00
G01 X15.0225 Y13.3350 F60.00
G01 X15.0270 Y13.3462 F60.00
G01 X15.0808 Y13.4962 F60.00
G01 X15.0884 Y13.5190 F60.00
G01 X15.0948 Y13.5422 F60.00
G01 X15.1306 Y13.6851 F60.00
G01 X15.1358 Y13.7086 F60.00
G01 X15.1400 Y13.7323 F60.00
G01 X15.1616 Y13.8780 F60.00
G01 X15.1645 Y13.9018 F60.00
G01 X15.1663 Y13.9258 F60.00
G01 X15.1735 Y14.0729 F60.00
G01 X15.1741 Y14.0970 F60.00
G01 X15.1735 Y14.1211 F60.00
G01 X15.1663 Y14.2682 F60.00
G01 X15.1645 Y14.2922 F60.00
G01 X15.1616 Y14.3160 F60.00
G01 X15.1400 Y14.4617 F60.00
G01 X15.1358 Y14.4854 F60.00
G01 X15.1306 Y14.5089 F60.00
G01 X15.0948 Y14.6518 F60.00
G01 X15.0884 Y14.6750 F60.00
G01 X15.0808 Y14.6978 F60.00
G01 X15.0312 Y14.8365 F60.00
G01 X15.0225 Y14.8590 F60.00
G01 X15.0128 Y14.8810 F60.00
G01 X14.9498 Y15.0141 F60.00
G01 X14.9390 Y15.0356 F60.00
G01 X14.9271 Y15.0565 F60.00
G01 X14.8514 Y15.1829 F60.00
G01 X14.8385 Y15.2032 F60.00
G01 X14.8247 Y15.2229 F60.00
G01 X14.7370 Y15.3412 F60.00
G01 X14.7221 Y15.3601 F60.00
G01 X14.7064 Y15.3784 F60.00
G01 X14.6075 Y15.4875 F60.00
G01 X14.5909 Y15.5049 F60.00
G01 X14.5735 Y15.5215 F60.00
G01 X14.4644 Y15.6204 F60.00
G01 X14.4461 Y15.6361 F60.00
G01 X14.4272 Y15.6510 F60.00
G01 X14.3089 Y15.7387 F60.00
G01 X14.2892 Y15.7525 F60.00
G01 X14.2689 Y15.7654 F60.00
G01 X14.1425 Y15.8411 F60.00
G01 X14.1216 Y15.8530 F60.00
G01 X14.1001 Y15.8638 F60.00
G01 X13.9670 Y15.9268 F60.00
G01 X13.9560 Y15.9318 F60.00
G01 X13.9338 Y15.9410 F60.00
G01 X13.7838 Y15.9948 F60.00
G01 X13.7610 Y16.0024 F60.00
G01 X13.7378 Y16.0088 F60.00
G01 X13.5949 Y16.0446 F60.00
G01 X13.5714 Y16.0498 F60.00
G01 X13.5477 Y16.0540 F60.00
G01 X13.4020 Y16.0756 F60.00
G01 X13.3782 Y16.0785 F60.00
G01 X13.3542 Y16.0803 F60.00
G01 X13.1950 Y16.0880 F60.00
G01 X12.3410 Y16.0881 F60.00
G01 X12.3169 Y16.0875 F60.00
G01 X12.1698 Y16.0803 F60.00
G01 X12.1458 Y16.0785 F60.00
G01 X12.1220 Y16.0756 F60.00
G01 X11.9763 Y16.0540 F60.00
G01 X11.9526 Y16.0498 F60.00
G01 X11.9291 Y16.0446 F60.00
G01 X11.7746 Y16.0057 F60.00
G01 X11.7630 Y16.0024 F60.00
G01 X11.7402 Y15.9948 F60.00
G01 X11.6015 Y15.9452 F60.00
G01 X11.5790 Y15.9365 F60.00
G01 X11.5570 Y15.9268 F60.00
G01 X11.4239 Y15.8638 F60.00
G01 X11.4024 Y15.8530 F60.00
G01 X11.3815 Y15.8411 F60.00
G01 X11.2551 Y15.7654 F60.00
G01 X11.2348 Y15.7525 F60.00
G01 X11.2151 Y15.7387 F60.00
G01 X11.0968 Y15.6510 F60.00
G01 X11.0779 Y15.6361 F60.00
G01 X11.0596 Y15.6204 F60.00
G01 X10.9505 Y15.5215 F60.00
G01 X10.9331 Y15.5049 F60.00
G01 X10.9165 Y15.4875 F60.00
G01 X10.8176 Y15.3784 F60.00
G01 X10.8019 Y15.3601 F60.00
G01 X10.7870 Y15.3412 F60.00
G01 X10.6993 Y15.2229 F60.00
G01 X10.6855 Y15.2032 F60.00
G01 X10.6726 Y15.1829 F60.00
G01 X10.5969 Y15.0565 F60.00
G01 X10.5864 Y15.0381 F60.00
G00 Z3.0000
G00 X10.4771 Y15.2300
G01 F60.00
G01 Z-0.0980
G01 F60.00
G01 X5.3393 Y15.2298 F60.00
G01 X5.1754 Y15.2219 F60.00
G01 X5.1420 Y15.2195 F60.00
G01 X5.1088 Y15.2154 F60.00
G01 X4.9631 Y15.1938 F60.00
G01 X4.9301 Y15.1880 F60.00
G01 X4.8974 Y15.1807 F60.00
G01 X4.7546 Y15.1449 F60.00
G01 X4.7223 Y15.1360 F60.00
G01 X4.6905 Y15.1255 F60.00
G01 X4.5518 Y15.0759 F60.00
G01 X4.5206 Y15.0638 F60.00
G01 X4.4900 Y15.0502 F60.00
G01 X4.3569 Y14.9873 F60.00
G01 X4.3269 Y14.9722 F60.00
G01 X4.2978 Y14.9557 F60.00
G01 X4.1715 Y14.8800 F60.00
G01 X4.1432 Y14.8621 F60.00
G01 X4.1158 Y14.8428 F60.00
G01 X3.9975 Y14.7551 F60.00
G01 X3.9711 Y14.7345 F60.00
G01 X3.9458 Y14.7126 F60.00
G01 X3.8366 Y14.6137 F60.00
G01 X3.8124 Y14.5906 F60.00
G01 X3.7893 Y14.5664 F60.00
G01 X3.6904 Y14.4572 F60.00
G01 X3.6685 Y14.4319 F60.00
G01 X3.6479 Y14.4055 F60.00
G01 X3.5602 Y14.2872 F60.00
G01 X3.5409 Y14.2598 F60.00
G01 X3.5230 Y14.2315 F60.00
G01 X3.4473 Y14.1052 F60.00
G01 X3.4308 Y14.0761 F60.00
G01 X3.4157 Y14.0461 F60.00
G01 X3.3528 Y13.9130 F60.00
G01 X3.3392 Y13.8824 F60.00
G01 X3.3271 Y13.8512 F60.00
G01 X3.2775 Y13.7125 F60.00
G01 X3.2670 Y13.6807 F60.00
G01 X3.2581 Y13.6484 F60.00
G01 X3.2223 Y13.5056 F60.00
G01 X3.2150 Y13.4729 F60.00
G01 X3.2092 Y13.4399 F60.00
G01 X3.1876 Y13.2942 F60.00
G01 X3.1835 Y13.2610 F60.00
G01 X3.1811 Y13.2276 F60.00
G01 X3.1738 Y13.0805 F60.00
G01 X3.1730 Y13.0470 F60.00
G01 X3.1738 Y13.0135 F60.00
G01 X3.1811 Y12.8664 F60.00
G01 X3.1835 Y12.8330 F60.00
G01 X3.1876 Y12.7998 F60.00
G01 X3.2092 Y12.6541 F60.00
G01 X3.2150 Y12.6211 F60.00
G01 X3.2223 Y12.5884 F60.00
G01 X3.2581 Y12.4456 F60.00
G01 X3.2670 Y12.4133 F60.00
G01 X3.2775 Y12.3815 F60.00
G01 X3.3271 Y12.2428 F60.00
G01 X3.3392 Y12.2116 F60.00
G01 X3.3528 Y12.1810 F60.00
G01 X3.4157 Y12.0479 F60.00
G01 X3.4308 Y12.0179 F60.00
G01 X3.4473 Y11.9888 F60.00
G01 X3.5230 Y11.8625 F60.00
G01 X3.5409 Y11.8342 F60.00
G01 X3.5602 Y11.8068 F60.00
G01 X3.6479 Y11.6885 F60.00
G01 X3.6685 Y11.6621 F60.00
G01 X3.6904 Y11.6368 F60.00
G01 X3.7893 Y11.5276 F60.00
G01 X3.8124 Y11.5034 F60.00
G01 X3.8366 Y11.4803 F60.00
G01 X3.9458 Y11.3814 F60.00
G01 X3.9711 Y11.3595 F60.00
G01 X3.9975 Y11.3389 F60.00
G01 X4.1158 Y11.2512 F60.00
G01 X4.1432 Y11.2319 F60.00
G01 X4.1715 Y11.2140 F60.00
G01 X4.2978 Y11.1383 F60.00
G01 X4.3269 Y11.1218 F60.00
G01 X4.3569 Y11.1067 F60.00
G01 X4.4900 Y11.0438 F60.00
G01 X4.5206 Y11.0302 F60.00
G01 X4.5518 Y11.0181 F60.00
G01 X4.6905 Y10.9685 F60.00
G01 X4.7223 Y10.9580 F60.00
G01 X4.7546 Y10.9491 F60.00
G01 X4.8974 Y10.9133 F60.00
G01 X4.9301 Y10.9060 F60.00
G01 X4.9466 Y10.9029 F60.00
G01 X5.1088 Y10.8786 F60.00
G01 X5.1420 Y10.8745 F60.00
G01 X5.1754 Y10.8721 F60.00
G01 X5.3225 Y10.8648 F60.00
G01 X5.3560 Y10.8640 F60.00
G01 X11.2930 Y10.8640 F60.00
G01 X11.3265 Y10.8648 F60.00
G01 X11.4736 Y10.8721 F60.00
G01 X11.5070 Y10.8745 F60.00
G01 X11.5402 Y10.8786 F60.00
G01 X11.6859 Y10.9002 F60.00
G01 X11.7189 Y10.9060 F60.00
G01 X11.7516 Y10.9133 F60.00
G01 X11.8944 Y10.9491 F60.00
G01 X11.9267 Y10.9580 F60.00
G01 X11.9585 Y10.9685 F60.00
G01 X12.0972 Y11.0181 F60.00
G01 X12.1284 Y11.0302 F60.00
G01 X12.1590 Y11.0438 F60.00
G01 X12.2921 Y11.1067 F60.00
G01 X12.3072 Y11.1141 F60.00
G01 X12.3367 Y11.1299 F60.00
G01 X12.4918 Y11.2228 F60.00
G01 X12.5196 Y11.2414 F60.00
G01 X12.5332 Y11.2512 F60.00
G01 X12.6515 Y11.3389 F60.00
G01 X12.6779 Y11.3595 F60.00
G01 X12.7032 Y11.3814 F60.00
G01 X12.8124 Y11.4803 F60.00
G01 X12.8246 Y11.4917 F60.00
G01 X12.8483 Y11.5154 F60.00
G01 X12.9586 Y11.6368 F60.00
G01 X12.9805 Y11.6621 F60.00
G01 X12.9909 Y11.6752 F60.00
G01 X13.0986 Y11.8204 F60.00
G01 X13.1172 Y11.8482 F60.00
G01 X13.1569 Y11.9140 F60.00
G01 X13.1997 Y11.9142 F60.00
G01 X13.2165 Y11.9148 F60.00
G01 X13.3636 Y11.9221 F60.00
G01 X13.3970 Y11.9245 F60.00
G01 X13.4302 Y11.9286 F60.00
G01 X13.5759 Y11.9502 F60.00
G01 X13.6089 Y11.9560 F60.00
G01 X13.6416 Y11.9633 F60.00
G01 X13.7844 Y11.9991 F60.00
G01 X13.8167 Y12.0080 F60.00
G01 X13.8485 Y12.0185 F60.00
G01 X13.9872 Y12.0681 F60.00
G01 X14.0184 Y12.0802 F60.00
G01 X14.0490 Y12.0938 F60.00
G01 X14.1821 Y12.1567 F60.00
G01 X14.2121 Y12.1718 F60.00
G01 X14.2412 Y12.1883 F60.00
G01 X14.3818 Y12.2728 F60.00
G01 X14.4096 Y12.2914 F60.00
G01 X14.4232 Y12.3012 F60.00
G01 X14.5415 Y12.3889 F60.00
G01 X14.5679 Y12.4095 F60.00
G01 X14.5932 Y12.4314 F60.00
G01 X14.7024 Y12.5303 F60.00
G01 X14.7266 Y12.5534 F60.00
G01 X14.7497 Y12.5776 F60.00
G01 X14.8486 Y12.6868 F60.00
G01 X14.8705 Y12.7121 F60.00
G01 X14.8911 Y12.7385 F60.00
G01 X14.9788 Y12.8568 F60.00
G01 X14.9981 Y12.8842 F60.00
G01 X15.0160 Y12.9125 F60.00
G01 X15.0917 Y13.0388 F60.00
G01 X15.1082 Y13.0679 F60.00
G01 X15.1233 Y13.0979 F60.00
G01 X15.1862 Y13.2310 F60.00
G01 X15.1998 Y13.2616 F60.00
G01 X15.2119 Y13.2928 F60.00
G01 X15.2615 Y13.4315 F60.00
G01 X15.2720 Y13.4633 F60.00
G01 X15.2809 Y13.4956 F60.00
G01 X15.3167 Y13.6384 F60.00
G01 X15.3240 Y13.6711 F60.00
G01 X15.3298 Y13.7041 F60.00
G01 X15.3514 Y13.8498 F60.00
G01 X15.3555 Y13.8830 F60.00
G01 X15.3579 Y13.9164 F60.00
G01 X15.3652 Y14.0635 F60.00
G01 X15.3660 Y14.0970 F60.00
G01 X15.3652 Y14.1305 F60.00
G01 X15.3579 Y14.2776 F60.00
G01 X15.3555 Y14.3110 F60.00
G01 X15.3514 Y14.3442 F60.00
G01 X15.3298 Y14.4899 F60.00
G01 X15.3240 Y14.5229 F60.00
G01 X15.3167 Y14.5556 F60.00
G01 X15.2809 Y14.6984 F60.00
G01 X15.2720 Y14.7307 F60.00
G01 X15.2615 Y14.7625 F60.00
G01 X15.2119 Y14.9012 F60.00
G01 X15.1998 Y14.9324 F60.00
G01 X15.1862 Y14.9630 F60.00
G01 X15.1233 Y15.0961 F60.00
G01 X15.1082 Y15.1261 F60.00
G01 X15.0917 Y15.1552 F60.00
G01 X15.0160 Y15.2815 F60.00
G01 X14.9981 Y15.3098 F60.00
G01 X14.9788 Y15.3372 F60.00
G01 X14.8911 Y15.4555 F60.00
G01 X14.8705 Y15.4819 F60.00
G01 X14.8486 Y15.5072 F60.00
G01 X14.7497 Y15.6164 F60.00
G01 X14.7266 Y15.6406 F60.00
G01 X14.7024 Y15.6637 F60.00
G01 X14.5932 Y15.7626 F60.00
G01 X14.5679 Y15.7845 F60.00
G01 X14.5415 Y15.8051 F60.00
G01 X14.4232 Y15.8928 F60.00
G01 X14.3958 Y15.9121 F60.00
G01 X14.3675 Y15.9300 F60.00
G01 X14.2412 Y16.0057 F60.00
G01 X14.2121 Y16.0222 F60.00
G01 X14.1821 Y16.0373 F60.00
G01 X14.0490 Y16.1002 F60.00
G01 X14.0184 Y16.1138 F60.00
G01 X13.9872 Y16.1259 F60.00
G01 X13.8485 Y16.1755 F60.00
G01 X13.8167 Y16.1860 F60.00
G01 X13.7844 Y16.1949 F60.00
G01 X13.6416 Y16.2307 F60.00
G01 X13.6253 Y16.2346 F60.00
G01 X13.5924 Y16.2411 F60.00
G01 X13.4302 Y16.2654 F60.00
G01 X13.3970 Y16.2695 F60.00
G01 X13.3636 Y16.2719 F60.00
G01 X13.2165 Y16.2792 F60.00
G01 X13.1830 Y16.2800 F60.00
G01 X12.3243 Y16.2798 F60.00
G01 X12.1604 Y16.2719 F60.00
G01 X12.1437 Y16.2709 F60.00
G01 X12.1104 Y16.2676 F60.00
G01 X11.9316 Y16.2411 F60.00
G01 X11.9151 Y16.2380 F60.00
G01 X11.8824 Y16.2307 F60.00
G01 X11.7396 Y16.1949 F60.00
G01 X11.7073 Y16.1860 F60.00
G01 X11.6755 Y16.1755 F60.00
G01 X11.5368 Y16.1259 F60.00
G01 X11.5056 Y16.1138 F60.00
G01 X11.4750 Y16.1002 F60.00
G01 X11.3419 Y16.0373 F60.00
G01 X11.3119 Y16.0222 F60.00
G01 X11.2828 Y16.0057 F60.00
G01 X11.1565 Y15.9300 F60.00
G01 X11.1422 Y15.9212 F60.00
G01 X11.1144 Y15.9026 F60.00
G01 X10.9825 Y15.8051 F60.00
G01 X10.9561 Y15.7845 F60.00
G01 X10.9308 Y15.7626 F60.00
G01 X10.8216 Y15.6637 F60.00
G01 X10.8094 Y15.6523 F60.00
G01 X10.7857 Y15.6286 F60.00
G01 X10.6754 Y15.5072 F60.00
G01 X10.6535 Y15.4819 F60.00
G01 X10.6431 Y15.4688 F60.00
G01 X10.5354 Y15.3236 F60.00
G01 X10.5168 Y15.2958 F60.00
G01 X10.4771 Y15.2300 F60.00
G00 Z3.0000
G00 X10.3701 Y15.4219
G01 F60.00
G01 Z-0.0980
G01 F60.00
G01 X5.3560 Y15.4219 F60.00
G01 X5.3345 Y15.4216 F60.00
G01 X5.3131 Y15.4208 F60.00
G01 X5.1660 Y15.4136 F60.00
G01 X5.1446 Y15.4123 F60.00
G01 X5.1232 Y15.4104 F60.00
G01 X5.1019 Y15.4081 F60.00
G01 X4.9350 Y15.3836 F60.00
G01 X4.9138 Y15.3802 F60.00
G01 X4.8927 Y15.3762 F60.00
G01 X4.8717 Y15.3718 F60.00
G01 X4.8508 Y15.3668 F60.00
G01 X4.7080 Y15.3310 F60.00
G01 X4.6872 Y15.3256 F60.00
G01 X4.6666 Y15.3196 F60.00
G01 X4.6462 Y15.3131 F60.00
G01 X4.6259 Y15.3061 F60.00
G01 X4.4872 Y15.2565 F60.00
G01 X4.4671 Y15.2491 F60.00
G01 X4.4472 Y15.2411 F60.00
G01 X4.4275 Y15.2326 F60.00
G01 X4.2748 Y15.1607 F60.00
G01 X4.2555 Y15.1513 F60.00
G01 X4.2365 Y15.1414 F60.00
G01 X4.2177 Y15.1311 F60.00
G01 X4.1992 Y15.1203 F60.00
G01 X4.0546 Y15.0333 F60.00
G01 X4.0366 Y15.0216 F60.00
G01 X4.0189 Y15.0095 F60.00
G01 X4.0015 Y14.9969 F60.00
G01 X3.8661 Y14.8962 F60.00
G01 X3.8494 Y14.8828 F60.00
G01 X3.8330 Y14.8690 F60.00
G01 X3.8169 Y14.8548 F60.00
G01 X3.7078 Y14.7559 F60.00
G01 X3.6921 Y14.7413 F60.00
G01 X3.6767 Y14.7263 F60.00
G01 X3.6617 Y14.7109 F60.00
G01 X3.6471 Y14.6952 F60.00
G01 X3.5340 Y14.5700 F60.00
G01 X3.5202 Y14.5536 F60.00
G01 X3.5068 Y14.5369 F60.00
G01 X3.4938 Y14.5198 F60.00
G01 X3.4061 Y14.4015 F60.00
G01 X3.3935 Y14.3841 F60.00
G01 X3.3814 Y14.3664 F60.00
G01 X3.3697 Y14.3484 F60.00
G01 X3.3584 Y14.3302 F60.00
G01 X3.2827 Y14.2038 F60.00
G01 X3.2719 Y14.1853 F60.00
G01 X3.2616 Y14.1665 F60.00
G01 X3.2517 Y14.1475 F60.00
G01 X3.2423 Y14.1282 F60.00
G01 X3.1793 Y13.9950 F60.00
G01 X3.1704 Y13.9755 F60.00
G01 X3.1619 Y13.9558 F60.00
G01 X3.1539 Y13.9359 F60.00
G01 X3.1465 Y13.9158 F60.00
G01 X3.0899 Y13.7568 F60.00
G01 X3.0834 Y13.7364 F60.00
G01 X3.0774 Y13.7158 F60.00
G01 X3.0720 Y13.6950 F60.00
G01 X3.0362 Y13.5522 F60.00
G01 X3.0312 Y13.5313 F60.00
G01 X3.0268 Y13.5103 F60.00
G01 X3.0228 Y13.4892 F60.00
G01 X3.0194 Y13.4680 F60.00
G01 X2.9978 Y13.3224 F60.00
G01 X2.9949 Y13.3011 F60.00
G01 X2.9926 Y13.2798 F60.00
G01 X2.9907 Y13.2584 F60.00
G01 X2.9894 Y13.2370 F60.00
G01 X2.9822 Y13.0899 F60.00
G01 X2.9814 Y13.0685 F60.00
G01 X2.9811 Y13.0470 F60.00
G01 X2.9814 Y13.0255 F60.00
G01 X2.9822 Y13.0041 F60.00
G01 X2.9907 Y12.8356 F60.00
G01 X2.9926 Y12.8142 F60.00
G01 X2.9949 Y12.7929 F60.00
G01 X2.9978 Y12.7716 F60.00
G01 X3.0194 Y12.6260 F60.00
G01 X3.0228 Y12.6048 F60.00
G01 X3.0268 Y12.5837 F60.00
G01 X3.0312 Y12.5627 F60.00
G01 X3.0362 Y12.5418 F60.00
G01 X3.0774 Y12.3782 F60.00
G01 X3.0834 Y12.3576 F60.00
G01 X3.0899 Y12.3372 F60.00
G01 X3.0969 Y12.3169 F60.00
G01 X3.1539 Y12.1581 F60.00
G01 X3.1619 Y12.1382 F60.00
G01 X3.1704 Y12.1185 F60.00
G01 X3.1793 Y12.0990 F60.00
G01 X3.2423 Y11.9658 F60.00
G01 X3.2517 Y11.9465 F60.00
G01 X3.2616 Y11.9275 F60.00
G01 X3.2719 Y11.9087 F60.00
G01 X3.2827 Y11.8902 F60.00
G01 X3.3584 Y11.7638 F60.00
G01 X3.3697 Y11.7456 F60.00
G01 X3.3814 Y11.7276 F60.00
G01 X3.3935 Y11.7099 F60.00
G01 X3.4061 Y11.6925 F60.00
G01 X3.4938 Y11.5742 F60.00
G01 X3.5068 Y11.5571 F60.00
G01 X3.5202 Y11.5404 F60.00
G01 X3.5340 Y11.5240 F60.00
G01 X3.6471 Y11.3988 F60.00
G01 X3.6617 Y11.3831 F60.00
G01 X3.6767 Y11.3677 F60.00
G01 X3.6921 Y11.3527 F60.00
G01 X3.7078 Y11.3381 F60.00
G01 X3.8169 Y11.2392 F60.00
G01 X3.8330 Y11.2250 F60.00
G01 X3.8494 Y11.2112 F60.00
G01 X3.8661 Y11.1978 F60.00
G01 X3.8832 Y11.1848 F60.00
G01 X4.0015 Y11.0971 F60.00
G01 X4.0189 Y11.0845 F60.00
G01 X4.0366 Y11.0724 F60.00
G01 X4.0546 Y11.0607 F60.00
G01 X4.0728 Y11.0494 F60.00
G01 X4.1992 Y10.9737 F60.00
G01 X4.2177 Y10.9629 F60.00
G01 X4.2365 Y10.9526 F60.00
G01 X4.2555 Y10.9427 F60.00
G01 X4.2748 Y10.9333 F60.00
G01 X4.4080 Y10.8703 F60.00
G01 X4.4275 Y10.8614 F60.00
G01 X4.4472 Y10.8529 F60.00
G01 X4.4671 Y10.8449 F60.00
G01 X4.4872 Y10.8375 F60.00
G01 X4.6259 Y10.7879 F60.00
G01 X4.6462 Y10.7809 F60.00
G01 X4.6666 Y10.7744 F60.00
G01 X4.6872 Y10.7684 F60.00
G01 X4.7080 Y10.7630 F60.00
G01 X4.8508 Y10.7272 F60.00
G01 X4.8717 Y10.7222 F60.00
G01 X4.8927 Y10.7178 F60.00
G01 X4.9138 Y10.7138 F60.00
G01 X4.9350 Y10.7104 F60.00
G01 X5.0806 Y10.6888 F60.00
G01 X5.1019 Y10.6859 F60.00
G01 X5.1232 Y10.6836 F60.00
G01 X5.1446 Y10.6817 F60.00
G01 X5.1660 Y10.6804 F60.00
G01 X5.3131 Y10.6732 F60.00
G01 X5.3345 Y10.6724 F60.00
G01 X5.3560 Y10.6721 F60.00
G01 X11.2930 Y10.6721 F60.00
G01 X11.3145 Y10.6724 F60.00
G01 X11.3359 Y10.6732 F60.00
G01 X11.4830 Y10.6804 F60.00
G01 X11.5044 Y10.6817 F60.00
G01 X11.5258 Y10.6836 F60.00
G01 X11.5471 Y10.6859 F60.00
G01 X11.5684 Y10.6888 F60.00
G01 X11.7140 Y10.7104 F60.00
G01 X11.7352 Y10.7138 F60.00
G01 X11.7563 Y10.7178 F60.00
G01 X11.7773 Y10.7222 F60.00
G01 X11.7982 Y10.7272 F60.00
G01 X11.9410 Y10.7630 F60.00
G01 X11.9618 Y10.7684 F60.00
G01 X11.9824 Y10.7744 F60.00
G01 X12.0028 Y10.7809 F60.00
G01 X12.0231 Y10.7879 F60.00
G01 X12.1618 Y10.8375 F60.00
G01 X12.1819 Y10.8449 F60.00
G01 X12.2018 Y10.8529 F60.00
G01 X12.2215 Y10.8614 F60.00
G01 X12.2410 Y10.8703 F60.00
G01 X12.3742 Y10.9333 F60.00
G01 X12.3935 Y10.9427 F60.00
G01 X12.4125 Y10.9526 F60.00
G01 X12.4313 Y10.9629 F60.00
G01 X12.4498 Y10.9737 F60.00
G01 X12.5944 Y11.0607 F60.00
G01 X12.6124 Y11.0724 F60.00
G01 X12.6301 Y11.0845 F60.00
G01 X12.6475 Y11.0971 F60.00
G01 X12.7658 Y11.1848 F60.00
G01 X12.7829 Y11.1978 F60.00
G01 X12.7996 Y11.2112 F60.00
G01 X12.8160 Y11.2250 F60.00
G01 X12.8321 Y11.2392 F60.00
G01 X12.9412 Y11.3381 F60.00
G01 X12.9569 Y11.3527 F60.00
G01 X12.9723 Y11.3677 F60.00
G01 X12.9873 Y11.3831 F60.00
G01 X13.0019 Y11.3988 F60.00
G01 X13.1008 Y11.5079 F60.00
G01 X13.1150 Y11.5240 F60.00
G01 X13.1288 Y11.5404 F60.00
G01 X13.1422 Y11.5571 F60.00
G01 X13.1552 Y11.5742 F60.00
G01 X13.2429 Y11.6925 F60.00
G01 X13.2660 Y11.7252 F60.00
G01 X13.3730 Y11.7304 F60.00
G01 X13.3944 Y11.7317 F60.00
G01 X13.4158 Y11.7336 F60.00
G01 X13.4371 Y11.7359 F60.00
G01 X13.4584 Y11.7388 F60.00
G01 X13.6252 Y11.7638 F60.00
G01 X13.6463 Y11.7678 F60.00
G01 X13.6673 Y11.7722 F60.00
G01 X13.6882 Y11.7772 F60.00
G01 X13.8310 Y11.8130 F60.00
G01 X13.8518 Y11.8184 F60.00
G01 X13.8724 Y11.8244 F60.00
G01 X13.8928 Y11.8309 F60.00
G01 X13.9131 Y11.8379 F60.00
G01 X14.0518 Y11.8875 F60.00
G01 X14.0719 Y11.8949 F60.00
G01 X14.0918 Y11.9029 F60.00
G01 X14.1115 Y11.9114 F60.00
G01 X14.1310 Y11.9203 F60.00
G01 X14.2642 Y11.9833 F60.00
G01 X14.2835 Y11.9927 F60.00
G01 X14.3025 Y12.0026 F60.00
G01 X14.3213 Y12.0129 F60.00
G01 X14.3398 Y12.0237 F60.00
G01 X14.4844 Y12.1107 F60.00
G01 X14.5024 Y12.1224 F60.00
G01 X14.5201 Y12.1345 F60.00
G01 X14.5375 Y12.1471 F60.00
G01 X14.6558 Y12.2348 F60.00
G01 X14.6729 Y12.2478 F60.00
G01 X14.6896 Y12.2612 F60.00
G01 X14.7060 Y12.2750 F60.00
G01 X14.7221 Y12.2892 F60.00
G01 X14.8312 Y12.3881 F60.00
G01 X14.8469 Y12.4027 F60.00
G01 X14.8623 Y12.4177 F60.00
G01 X14.8773 Y12.4331 F60.00
G01 X14.8919 Y12.4488 F60.00
G01 X14.9908 Y12.5579 F60.00
G01 X15.0050 Y12.5740 F60.00
G01 X15.0188 Y12.5904 F60.00
G01 X15.0322 Y12.6071 F60.00
G01 X15.0452 Y12.6242 F60.00
G01 X15.1329 Y12.7425 F60.00
G01 X15.1455 Y12.7599 F60.00
G01 X15.1576 Y12.7776 F60.00
G01 X15.1693 Y12.7956 F60.00
G01 X15.1806 Y12.8138 F60.00
G01 X15.2563 Y12.9402 F60.00
G01 X15.2671 Y12.9587 F60.00
G01 X15.2774 Y12.9775 F60.00
G01 X15.2873 Y12.9965 F60.00
G01 X15.2967 Y13.0158 F60.00
G01 X15.3686 Y13.1685 F60.00
G01 X15.3771 Y13.1882 F60.00
G01 X15.3851 Y13.2081 F60.00
G01 X15.3925 Y13.2282 F60.00
G01 X15.4421 Y13.3669 F60.00
G01 X15.4491 Y13.3872 F60.00
G01 X15.4556 Y13.4076 F60.00
G01 X15.4616 Y13.4282 F60.00
G01 X15.4670 Y13.4490 F60.00
G01 X15.5028 Y13.5918 F60.00
G01 X15.5078 Y13.6127 F60.00
G01 X15.5122 Y13.6337 F60.00
G01 X15.5162 Y13.6548 F60.00
G01 X15.5196 Y13.6760 F60.00
G01 X15.5412 Y13.8216 F60.00
G01 X15.5441 Y13.8429 F60.00
G01 X15.5464 Y13.8642 F60.00
G01 X15.5483 Y13.8856 F60.00
G01 X15.5496 Y13.9070 F60.00
G01 X15.5568 Y14.0541 F60.00
G01 X15.5576 Y14.0755 F60.00
G01 X15.5579 Y14.0970 F60.00
G01 X15.5576 Y14.1185 F60.00
G01 X15.5568 Y14.1399 F60.00
G01 X15.5496 Y14.2870 F60.00
G01 X15.5483 Y14.3084 F60.00
G01 X15.5464 Y14.3298 F60.00
G01 X15.5441 Y14.3511 F60.00
G01 X15.5412 Y14.3724 F60.00
G01 X15.5196 Y14.5180 F60.00
G01 X15.5162 Y14.5392 F60.00
G01 X15.5122 Y14.5603 F60.00
G01 X15.5078 Y14.5813 F60.00
G01 X15.5028 Y14.6022 F60.00
G01 X15.4670 Y14.7450 F60.00
G01 X15.4616 Y14.7658 F60.00
G01 X15.4556 Y14.7864 F60.00
G01 X15.4491 Y14.8068 F60.00
G01 X15.4421 Y14.8271 F60.00
G01 X15.3925 Y14.9658 F60.00
G01 X15.3851 Y14.9859 F60.00
G01 X15.3771 Y15.0058 F60.00
G01 X15.3686 Y15.0255 F60.00
G01 X15.3597 Y15.0450 F60.00
G01 X15.2967 Y15.1782 F60.00
G01 X15.2873 Y15.1975 F60.00
G01 X15.2774 Y15.2165 F60.00
G01 X15.2671 Y15.2353 F60.00
G01 X15.2563 Y15.2538 F60.00
G01 X15.1806 Y15.3802 F60.00
G01 X15.1693 Y15.3984 F60.00
G01 X15.1576 Y15.4164 F60.00
G01 X15.1455 Y15.4341 F60.00
G01 X15.1329 Y15.4515 F60.00
G01 X15.0452 Y15.5698 F60.00
G01 X15.0322 Y15.5869 F60.00
G01 X15.0188 Y15.6036 F60.00
G01 X15.0050 Y15.6200 F60.00
G01 X14.9908 Y15.6361 F60.00
G01 X14.8919 Y15.7452 F60.00
G01 X14.8773 Y15.7609 F60.00
G01 X14.8623 Y15.7763 F60.00
G01 X14.8469 Y15.7913 F60.00
G01 X14.8312 Y15.8059 F60.00
G01 X14.7221 Y15.9048 F60.00
G01 X14.7060 Y15.9190 F60.00
G01 X14.6896 Y15.9328 F60.00
G01 X14.6729 Y15.9462 F60.00
G01 X14.6558 Y15.9592 F60.00
G01 X14.5375 Y16.0469 F60.00
G01 X14.5201 Y16.0595 F60.00
G01 X14.5024 Y16.0716 F60.00
G01 X14.4844 Y16.0833 F60.00
G01 X14.4662 Y16.0946 F60.00
G01 X14.3398 Y16.1703 F60.00
G01 X14.3213 Y16.1811 F60.00
G01 X14.3025 Y16.1914 F60.00
G01 X14.2835 Y16.2013 F60.00
G01 X14.2642 Y16.2107 F60.00
G01 X14.1115 Y16.2826 F60.00
G01 X14.0918 Y16.2911 F60.00
G01 X14.0719 Y16.2991 F60.00
G01 X14.0518 Y16.3065 F60.00
G01 X13.8928 Y16.3631 F60.00
G01 X13.8724 Y16.3696 F60.00
G01 X13.8518 Y16.3756 F60.00
G01 X13.8310 Y16.3810 F60.00
G01 X13.6882 Y16.4168 F60.00
G01 X13.6673 Y16.4218 F60.00
G01 X13.6463 Y16.4262 F60.00
G01 X13.6252 Y16.4302 F60.00
G01 X13.6040 Y16.4336 F60.00
G01 X13.4584 Y16.4552 F60.00
G01 X13.4371 Y16.4581 F60.00
G01 X13.4158 Y16.4604 F60.00
G01 X13.3944 Y16.4623 F60.00
G01 X13.2259 Y16.4708 F60.00
G01 X13.2045 Y16.4716 F60.00
G01 X13.1830 Y16.4719 F60.00
G01 X12.3410 Y16.4719 F60.00
G01 X12.3195 Y16.4716 F60.00
G01 X12.1510 Y16.4636 F60.00
G01 X12.1296 Y16.4623 F60.00
G01 X12.1082 Y16.4604 F60.00
G01 X12.0869 Y16.4581 F60.00
G01 X12.0656 Y16.4552 F60.00
G01 X11.9200 Y16.4336 F60.00
G01 X11.8988 Y16.4302 F60.00
G01 X11.8777 Y16.4262 F60.00
G01 X11.8567 Y16.4218 F60.00
G01 X11.6930 Y16.3810 F60.00
G01 X11.6722 Y16.3756 F60.00
G01 X11.6516 Y16.3696 F60.00
G01 X11.6312 Y16.3631 F60.00
G01 X11.6109 Y16.3561 F60.00
G01 X11.4722 Y16.3065 F60.00
G01 X11.4521 Y16.2991 F60.00
G01 X11.4322 Y16.2911 F60.00
G01 X11.4125 Y16.2826 F60.00
G01 X11.3930 Y16.2737 F60.00
G01 X11.2598 Y16.2107 F60.00
G01 X11.2405 Y16.2013 F60.00
G01 X11.2215 Y16.1914 F60.00
G01 X11.2027 Y16.1811 F60.00
G01 X11.1842 Y16.1703 F60.00
G01 X11.0578 Y16.0946 F60.00
G01 X11.0396 Y16.0833 F60.00
G01 X11.0216 Y16.0716 F60.00
G01 X11.0039 Y16.0595 F60.00
G01 X10.9865 Y16.0469 F60.00
G01 X10.8682 Y15.9592 F60.00
G01 X10.8511 Y15.9462 F60.00
G01 X10.8344 Y15.9328 F60.00
G01 X10.8180 Y15.9190 F60.00
G01 X10.8019 Y15.9048 F60.00
G01 X10.6928 Y15.8059 F60.00
G01 X10.6771 Y15.7913 F60.00
G01 X10.6617 Y15.7763 F60.00
G01 X10.6467 Y15.7609 F60.00
G01 X10.6321 Y15.7452 F60.00
G01 X10.5332 Y15.6361 F60.00
G01 X10.5190 Y15.6200 F60.00
G01 X10.5052 Y15.6036 F60.00
G01 X10.4918 Y15.5869 F60.00
G01 X10.4788 Y15.5698 F60.00
G01 X10.3911 Y15.4515 F60.00
G01 X10.3701 Y15.4219 F60.00
G00 Z3.0000
G00 X11.4645 Y18.9799
G01 F60.00
G01 Z-0.0980
G01 F60.00
G01 X12.0240 Y18.4209 F60.00
G01 X12.1409 Y18.3150 F60.00
G01 X12.2634 Y18.2241 F60.00
G01 X12.2721 Y18.2183 F60.00
G01 X12.4030 Y18.1401 F60.00
G01 X12.5432 Y18.0737 F60.00
G01 X12.5505 Y18.0708 F60.00
G01 X12.6942 Y18.0196 F60.00
G01 X12.8472 Y17.9814 F60.00
G01 X13.0032 Y17.9583 F60.00
G01 X13.1556 Y17.9508 F60.00
G01 X13.1660 Y17.9508 F60.00
G01 X13.3131 Y17.9581 F60.00
G01 X13.3235 Y17.9591 F60.00
G01 X13.4743 Y17.9817 F60.00
G01 X13.6223 Y18.0187 F60.00
G01 X13.6298 Y18.0209 F60.00
G01 X13.7758 Y18.0733 F60.00
G01 X13.9184 Y18.1408 F60.00
G01 X14.0536 Y18.2220 F60.00
G01 X14.1803 Y18.3160 F60.00
G01 X14.2971 Y18.4220 F60.00
G01 X14.4030 Y18.5389 F60.00
G01 X14.4969 Y18.6657 F60.00
G01 X14.5779 Y18.8010 F60.00
G01 X14.6453 Y18.9436 F60.00
G01 X14.6984 Y19.0922 F60.00
G01 X14.7366 Y19.2452 F60.00
G01 X14.7597 Y19.4012 F60.00
G01 X14.7673 Y19.5588 F60.00
G01 X14.7595 Y19.7163 F60.00
G01 X14.7363 Y19.8723 F60.00
G01 X14.6993 Y20.0203 F60.00
G01 X14.6971 Y20.0278 F60.00
G01 X14.6447 Y20.1738 F60.00
G01 X14.5772 Y20.3164 F60.00
G01 X14.4960 Y20.4516 F60.00
G01 X14.4052 Y20.5742 F60.00
G01 X14.4003 Y20.5803 F60.00
G01 X14.2960 Y20.6951 F60.00
G01 X13.2740 Y21.7161 F60.00
G01 X13.1610 Y21.8186 F60.00
G01 X13.1530 Y21.8252 F60.00
G01 X13.0346 Y21.9129 F60.00
G01 X13.0259 Y21.9187 F60.00
G01 X12.8950 Y21.9969 F60.00
G01 X12.7524 Y22.0643 F60.00
G01 X12.6038 Y22.1174 F60.00
G01 X12.4559 Y22.1545 F60.00
G01 X12.4457 Y22.1565 F60.00
G01 X12.3000 Y22.1780 F60.00
G01 X12.2922 Y22.1789 F60.00
G01 X12.1372 Y22.1863 F60.00
G01 X11.9823 Y22.1788 F60.00
G01 X11.9745 Y22.1779 F60.00
G01 X11.8237 Y22.1553 F60.00
G01 X11.7205 Y22.1296 F60.00
G01 X11.6166 Y22.1555 F60.00
G01 X11.4657 Y22.1780 F60.00
G01 X11.4553 Y22.1790 F60.00
G01 X11.3056 Y22.1863 F60.00
G01 X8.4044 Y22.1863 F60.00
G01 X8.2495 Y22.1786 F60.00
G01 X8.0934 Y22.1555 F60.00
G01 X7.9404 Y22.1171 F60.00
G01 X7.7968 Y22.0659 F60.00
G01 X7.7895 Y22.0630 F60.00
G01 X7.7712 Y22.0543 F60.00
G01 X5.3340 Y22.0543 F60.00
G01 X5.1765 Y22.0466 F60.00
G01 X5.0230 Y22.0239 F60.00
G01 X5.0153 Y22.0223 F60.00
G01 X4.8725 Y21.9865 F60.00
G01 X4.8624 Y21.9835 F60.00
G01 X4.7189 Y21.9320 F60.00
G01 X4.5763 Y21.8646 F60.00
G01 X4.4454 Y21.7863 F60.00
G01 X4.4367 Y21.7804 F60.00
G01 X4.3143 Y21.6895 F60.00
G01 X4.1974 Y21.5836 F60.00
G01 X4.0915 Y21.4667 F60.00
G01 X4.0006 Y21.3443 F60.00
G01 X3.9947 Y21.3356 F60.00
G01 X3.9164 Y21.2047 F60.00
G01 X3.8511 Y21.0669 F60.00
G01 X3.8471 Y21.0572 F60.00
G01 X3.7959 Y20.9136 F60.00
G01 X3.7581 Y20.7631 F60.00
G01 X3.7566 Y20.7554 F60.00
G01 X3.7344 Y20.6045 F60.00
G01 X3.7267 Y20.4470 F60.00
G01 X3.7344 Y20.2895 F60.00
G01 X3.7575 Y20.1334 F60.00
G01 X3.7959 Y19.9804 F60.00
G01 X3.8490 Y19.8319 F60.00
G01 X3.9164 Y19.6893 F60.00
G01 X3.9975 Y19.5540 F60.00
G01 X4.0915 Y19.4273 F60.00
G01 X4.1974 Y19.3104 F60.00
G01 X4.3143 Y19.2045 F60.00
G01 X4.4410 Y19.1105 F60.00
G01 X4.5763 Y19.0294 F60.00
G01 X4.7189 Y18.9620 F60.00
G01 X4.8674 Y18.9089 F60.00
G01 X5.0179 Y18.8711 F60.00
G01 X5.0256 Y18.8696 F60.00
G01 X5.1765 Y18.8474 F60.00
G01 X5.3340 Y18.8397 F60.00
G01 X8.2766 Y18.8397 F60.00
G01 X8.4315 Y18.8474 F60.00
G01 X8.5876 Y18.8705 F60.00
G01 X8.7406 Y18.9089 F60.00
G01 X8.8842 Y18.9601 F60.00
G01 X8.8915 Y18.9630 F60.00
