(G-CODE GENERATED BY FLATCAM v8.993 - www.flatcam.org - Version Date: 2020/06/05)

(Name: cam.drl_cnc)
(Type: G-code from Excellon)
(Units: MM)

(Created on Tuesday, 19 September 2023 at 09:35)

(This preprocessor is used with a motion controller loaded with GRBL firmware.)
(It is configured to be compatible with almost any version of GRBL firmware.)


(TOOLS DIAMETER: )
(Tool: 1 -> Dia: 0.7619999999999999)
(Tool: 2 -> Dia: 1.19888)
(Tool: 3 -> Dia: 1.30048)

(FEEDRATE Z: )
(Tool: 1 -> Feedrate: 10.0)
(Tool: 2 -> Feedrate: 10.0)
(Tool: 3 -> Feedrate: 10.0)

(FEEDRATE RAPIDS: )
(Tool: 1 -> Feedrate Rapids: 1500)
(Tool: 2 -> Feedrate Rapids: 1500)
(Tool: 3 -> Feedrate Rapids: 1500)

(Z_CUT: )
(Tool: 1 -> Z_Cut: -2.1)
(Tool: 2 -> Z_Cut: -2.1)
(Tool: 3 -> Z_Cut: -2.1)

(Tools Offset: )
(Tool: 1 -> Offset Z: -0.0)
(Tool: 2 -> Offset Z: -0.0)
(Tool: 3 -> Offset Z: -0.0)

(Z_MOVE: )
(Tool: 1 -> Z_Move: 3.0)
(Tool: 2 -> Z_Move: 3.0)
(Tool: 3 -> Z_Move: 3.0)

(Z Start: None mm)
(Z End: 2.0 mm)
(Steps per circle: 64)
(Preprocessor Excellon: grbl_11)

(X range:    5.3340 ...   79.3394  mm)
(Y range:    2.1336 ...   30.6070  mm)

(Spindle Speed: 1000000.0 RPM)
G21
G90
G17
G94




G00 Z3.0000

G01 F10.00
M03 S1000000
G00 X69.9770 Y8.3820
G01 Z-2.1000
G01 Z0
G00 Z3.0000
G00 X68.4784 Y2.5400
G01 Z-2.1000
G01 Z0
G00 Z3.0000
G00 X55.4990 Y2.5400
G01 Z-2.1000
G01 Z0
G00 Z3.0000
G00 X46.8630 Y3.2258
G01 Z-2.1000
G01 Z0
G00 Z3.0000
G00 X46.8630 Y8.2296
G01 Z-2.1000
G01 Z0
G00 Z3.0000
G00 X46.8630 Y13.2080
G01 Z-2.1000
G01 Z0
G00 Z3.0000
G00 X35.1790 Y12.5476
G01 Z-2.1000
G01 Z0
G00 Z3.0000
G00 X28.8290 Y8.3566
G01 Z-2.1000
G01 Z0
G00 Z3.0000
G00 X27.3304 Y2.5146
G01 Z-2.1000
G01 Z0
G00 Z3.0000
G00 X14.3510 Y2.5146
G01 Z-2.1000
G01 Z0
G00 Z3.0000
G00 X5.7150 Y3.1750
G01 Z-2.1000
G01 Z0
G00 Z3.0000
G00 X5.7150 Y8.1788
G01 Z-2.1000
G01 Z0
G00 Z3.0000
G00 X5.7150 Y13.1826
G01 Z-2.1000
G01 Z0
G00 Z3.0000
G00 X14.3510 Y14.4526
G01 Z-2.1000
G01 Z0
G00 Z3.0000
G00 X14.3510 Y18.2626
G01 Z-2.1000
G01 Z0
G00 Z3.0000
G00 X5.7150 Y18.8468
G01 Z-2.1000
G01 Z0
G00 Z3.0000
G00 X5.7150 Y23.8506
G01 Z-2.1000
G01 Z0
G00 Z3.0000
G00 X5.7150 Y28.8290
G01 Z-2.1000
G01 Z0
G00 Z3.0000
G00 X14.3510 Y30.2006
G01 Z-2.1000
G01 Z0
G00 Z3.0000
G00 X27.3304 Y30.2006
G01 Z-2.1000
G01 Z0
G00 Z3.0000
G00 X28.8290 Y24.1046
G01 Z-2.1000
G01 Z0
G00 Z3.0000
G00 X27.3304 Y18.2626
G01 Z-2.1000
G01 Z0
G00 Z3.0000
G00 X27.3304 Y14.4526
G01 Z-2.1000
G01 Z0
G00 Z3.0000
G00 X35.1790 Y17.5260
G01 Z-2.1000
G01 Z0
G00 Z3.0000
G00 X35.1790 Y22.5298
G01 Z-2.1000
G01 Z0
G00 Z3.0000
G00 X46.8630 Y28.8798
G01 Z-2.1000
G01 Z0
G00 Z3.0000
G00 X55.4990 Y30.2260
G01 Z-2.1000
G01 Z0
G00 Z3.0000
G00 X46.8630 Y23.8760
G01 Z-2.1000
G01 Z0
G00 Z3.0000
G00 X46.8630 Y18.8976
G01 Z-2.1000
G01 Z0
G00 Z3.0000
G00 X55.4990 Y18.2880
G01 Z-2.1000
G01 Z0
G00 Z3.0000
G00 X55.4990 Y14.4780
G01 Z-2.1000
G01 Z0
G00 Z3.0000
G00 X68.4784 Y14.4780
G01 Z-2.1000
G01 Z0
G00 Z3.0000
G00 X68.4784 Y18.2880
G01 Z-2.1000
G01 Z0
G00 Z3.0000
G00 X69.9770 Y24.1300
G01 Z-2.1000
G01 Z0
G00 Z3.0000
G00 X68.4784 Y30.2260
G01 Z-2.1000
G01 Z0
G00 Z3.0000
G00 X76.3270 Y22.5806
G01 Z-2.1000
G01 Z0
G00 Z3.0000
G00 X76.3270 Y17.5768
G01 Z-2.1000
G01 Z0
G00 Z3.0000
G00 X76.3270 Y12.5730
G01 Z-2.1000
G01 Z0
G00 Z3.0000
G01 F10.00
M03 S1000000
G00 X73.6600 Y6.4770
G01 Z-2.1000
G01 Z0
G00 Z3.0000
G00 X78.7400 Y6.4770
G01 Z-2.1000
G01 Z0
G00 Z3.0000
G00 X78.3590 Y29.2100
G01 Z-2.1000
G01 Z0
G00 Z3.0000
G00 X73.2536 Y29.2100
G01 Z-2.1000
G01 Z0
G00 Z3.0000
G00 X37.2110 Y29.1846
G01 Z-2.1000
G01 Z0
G00 Z3.0000
G00 X32.1056 Y29.1846
G01 Z-2.1000
G01 Z0
G00 Z3.0000
G00 X32.5120 Y6.4516
G01 Z-2.1000
G01 Z0
G00 Z3.0000
G00 X37.5920 Y6.4516
G01 Z-2.1000
G01 Z0
G00 Z3.0000
G01 F10.00
M03 S1000000
G00 X53.2384 Y3.5560
G01 Z-2.1000
G01 Z0
G00 Z3.0000
G00 X63.2460 Y3.5560
G01 Z-2.1000
G01 Z0
G00 Z3.0000
G00 X65.6844 Y8.5090
G01 Z-2.1000
G01 Z0
G00 Z3.0000
G00 X63.2460 Y13.4620
G01 Z-2.1000
G01 Z0
G00 Z3.0000
G00 X63.2460 Y19.3040
G01 Z-2.1000
G01 Z0
G00 Z3.0000
G00 X65.6844 Y24.2570
G01 Z-2.1000
G01 Z0
G00 Z3.0000
G00 X63.2460 Y29.2100
G01 Z-2.1000
G01 Z0
G00 Z3.0000
G00 X53.2384 Y29.2100
G01 Z-2.1000
G01 Z0
G00 Z3.0000
G00 X53.2384 Y19.3040
G01 Z-2.1000
G01 Z0
G00 Z3.0000
G00 X53.2384 Y13.4620
G01 Z-2.1000
G01 Z0
G00 Z3.0000
G00 X24.5364 Y8.4836
G01 Z-2.1000
G01 Z0
G00 Z3.0000
G00 X22.0980 Y13.4112
G01 Z-2.1000
G01 Z0
G00 Z3.0000
G00 X22.0980 Y19.2786
G01 Z-2.1000
G01 Z0
G00 Z3.0000
G00 X24.5364 Y24.2316
G01 Z-2.1000
G01 Z0
G00 Z3.0000
G00 X22.0980 Y29.1592
G01 Z-2.1000
G01 Z0
G00 Z3.0000
G00 X12.0904 Y29.1592
G01 Z-2.1000
G01 Z0
G00 Z3.0000
G00 X12.0904 Y19.2786
G01 Z-2.1000
G01 Z0
G00 Z3.0000
G00 X12.0904 Y13.4112
G01 Z-2.1000
G01 Z0
G00 Z3.0000
G00 X12.0904 Y3.5306
G01 Z-2.1000
G01 Z0
G00 Z3.0000
G00 X22.0980 Y3.5306
G01 Z-2.1000
G01 Z0
G00 Z3.0000
M05
G00 Z2.00
G00 X0.0 Y0.0

