(G-CODE GENERATED BY FLATCAM v8.993 - www.flatcam.org - Version Date: 2020/06/05)

(Name: dual_channel_common_vcc_pcb_x2.gbl_0.2132_iso_cnc)
(Type: G-code from Geometry)
(Units: MM)

(Created on Tuesday, 19 September 2023 at 09:34)

(This preprocessor is used with a motion controller loaded with GRBL firmware.)
(It is configured to be compatible with almost any version of GRBL firmware.)

(TOOL DIAMETER: 0.2132 mm)
(Feedrate_XY: 60.0 mm/min)
(Feedrate_Z: 60.0 mm/min)
(Feedrate rapids 1500.0 mm/min)

(Z_Cut: -0.098 mm)
(Z_Move: 3.0 mm)
(Z Start: None mm)
(Z End: 3.0 mm)
(Steps per circle: 64)
(Preprocessor Geometry: grbl_11)

(X range:    0.3567 ...   82.0663  mm)
(Y range:    0.3567 ...   32.0283  mm)

(Spindle Speed: 400000 RPM)
G21
G90
G17
G94




G01 F60.00
G00 Z3.0000

M03 S400000
G00 X8.0604 Y4.7823
G01 F60.00
G01 Z-0.0980
G01 F60.00
G01 X5.7150 Y4.7823 F60.00
G01 X5.5601 Y4.7748 F60.00
G01 X5.5523 Y4.7740 F60.00
G01 X5.4014 Y4.7515 F60.00
G01 X5.2535 Y4.7145 F60.00
G01 X5.2434 Y4.7115 F60.00
G01 X5.0999 Y4.6600 F60.00
G01 X4.9620 Y4.5949 F60.00
G01 X4.9528 Y4.5900 F60.00
G01 X4.8220 Y4.5115 F60.00
G01 X4.6953 Y4.4175 F60.00
G01 X4.5784 Y4.3116 F60.00
G01 X4.4725 Y4.1947 F60.00
G01 X4.3785 Y4.0680 F60.00
G01 X4.2974 Y3.9327 F60.00
G01 X4.2300 Y3.7901 F60.00
G01 X4.1769 Y3.6416 F60.00
G01 X4.1385 Y3.4886 F60.00
G01 X4.1154 Y3.3325 F60.00
G01 X4.1077 Y3.1750 F60.00
G01 X4.1154 Y3.0175 F60.00
G01 X4.1385 Y2.8614 F60.00
G01 X4.1769 Y2.7084 F60.00
G01 X4.2300 Y2.5599 F60.00
G01 X4.2974 Y2.4173 F60.00
G01 X4.3785 Y2.2820 F60.00
G01 X4.4725 Y2.1553 F60.00
G01 X4.5748 Y2.0422 F60.00
G01 X4.5822 Y2.0348 F60.00
G01 X4.6953 Y1.9325 F60.00
G01 X4.8177 Y1.8416 F60.00
G01 X4.8264 Y1.8357 F60.00
G01 X4.9528 Y1.7600 F60.00
G01 X4.9620 Y1.7551 F60.00
G01 X5.0999 Y1.6900 F60.00
G01 X5.2484 Y1.6369 F60.00
G01 X5.4014 Y1.5985 F60.00
G01 X5.5523 Y1.5760 F60.00
G01 X5.5627 Y1.5750 F60.00
G01 X5.7150 Y1.5677 F60.00
G01 X8.7376 Y1.5677 F60.00
G01 X8.8899 Y1.5750 F60.00
G01 X8.9003 Y1.5760 F60.00
G01 X9.0460 Y1.5976 F60.00
G01 X9.0563 Y1.5997 F60.00
G01 X9.2042 Y1.6369 F60.00
G01 X9.3527 Y1.6900 F60.00
G01 X9.4906 Y1.7551 F60.00
G01 X9.4998 Y1.7600 F60.00
G01 X9.6306 Y1.8385 F60.00
G01 X9.7450 Y1.9233 F60.00
G01 X11.4246 Y1.9233 F60.00
G01 X11.9717 Y1.3762 F60.00
G01 X12.0867 Y1.2721 F60.00
G01 X12.2091 Y1.1812 F60.00
G01 X12.2178 Y1.1753 F60.00
G01 X12.3487 Y1.0970 F60.00
G01 X12.4865 Y1.0317 F60.00
G01 X12.4962 Y1.0277 F60.00
G01 X12.6398 Y0.9765 F60.00
G01 X12.7877 Y0.9393 F60.00
G01 X12.7980 Y0.9372 F60.00
G01 X12.9489 Y0.9150 F60.00
G01 X13.1038 Y0.9073 F60.00
G01 X14.3510 Y0.9073 F60.00
G01 X14.5059 Y0.9148 F60.00
G01 X14.5137 Y0.9156 F60.00
G01 X14.6594 Y0.9372 F60.00
G01 X14.6697 Y0.9393 F60.00
G01 X14.8176 Y0.9765 F60.00
G01 X14.9612 Y1.0277 F60.00
G01 X14.9709 Y1.0317 F60.00
G01 X15.1087 Y1.0970 F60.00
G01 X15.2440 Y1.1781 F60.00
G01 X15.3707 Y1.2721 F60.00
G01 X15.4876 Y1.3780 F60.00
G01 X15.5935 Y1.4949 F60.00
G01 X15.6875 Y1.6216 F60.00
G01 X15.7686 Y1.7569 F60.00
G01 X15.8339 Y1.8947 F60.00
G01 X15.8379 Y1.9044 F60.00
G01 X15.8891 Y2.0480 F60.00
G01 X15.9263 Y2.1959 F60.00
G01 X15.9284 Y2.2062 F60.00
G01 X15.9506 Y2.3571 F60.00
G01 X15.9583 Y2.5146 F60.00
G01 X15.9510 Y2.6669 F60.00
G01 X15.9500 Y2.6773 F60.00
G01 X15.9275 Y2.8282 F60.00
G01 X15.8891 Y2.9812 F60.00
G01 X15.8379 Y3.1248 F60.00
G01 X15.8339 Y3.1345 F60.00
G01 X15.7686 Y3.2723 F60.00
G01 X15.6903 Y3.4032 F60.00
G01 X15.6844 Y3.4119 F60.00
G01 X15.5935 Y3.5343 F60.00
G01 X15.4876 Y3.6512 F60.00
G01 X15.3747 Y3.7537 F60.00
G01 X15.3666 Y3.7603 F60.00
G01 X15.2440 Y3.8511 F60.00
G01 X15.1132 Y3.9296 F60.00
G01 X15.1040 Y3.9345 F60.00
G01 X14.9661 Y3.9996 F60.00
G01 X14.8226 Y4.0511 F60.00
G01 X14.8151 Y4.0535 F60.00
G01 X14.6646 Y4.0911 F60.00
G01 X14.5137 Y4.1136 F60.00
G01 X14.5059 Y4.1144 F60.00
G01 X14.3510 Y4.1219 F60.00
G01 X13.7722 Y4.1219 F60.00
G01 X13.2270 Y4.6672 F60.00
G01 X13.1101 Y4.7731 F60.00
G01 X12.9834 Y4.8671 F60.00
G01 X12.8526 Y4.9456 F60.00
G01 X12.8434 Y4.9505 F60.00
G01 X12.7103 Y5.0135 F60.00
G01 X12.7006 Y5.0175 F60.00
G01 X12.5570 Y5.0687 F60.00
G01 X12.4040 Y5.1071 F60.00
G01 X12.2479 Y5.1302 F60.00
G01 X12.0930 Y5.1379 F60.00
G01 X9.0678 Y5.1379 F60.00
G01 X8.9155 Y5.1306 F60.00
G01 X8.9051 Y5.1296 F60.00
G01 X8.7594 Y5.1080 F60.00
G01 X8.7491 Y5.1059 F60.00
G01 X8.6012 Y5.0687 F60.00
G01 X8.4527 Y5.0156 F60.00
G01 X8.3148 Y4.9505 F60.00
G01 X8.3056 Y4.9456 F60.00
G01 X8.1748 Y4.8671 F60.00
G01 X8.0604 Y4.7823 F60.00
G00 Z3.0000
G00 X7.9970 Y4.9742
G01 F60.00
G01 Z-0.0980
G01 F60.00
G01 X5.7150 Y4.9742 F60.00
G01 X5.7004 Y4.9739 F60.00
G01 X5.5533 Y4.9666 F60.00
G01 X5.5314 Y4.9648 F60.00
G01 X5.3784 Y4.9422 F60.00
G01 X5.3640 Y4.9397 F60.00
G01 X5.3497 Y4.9364 F60.00
G01 X5.2068 Y4.9007 F60.00
G01 X5.1927 Y4.8968 F60.00
G01 X5.1788 Y4.8922 F60.00
G01 X5.0401 Y4.8425 F60.00
G01 X5.0265 Y4.8373 F60.00
G01 X5.0131 Y4.8313 F60.00
G01 X4.8799 Y4.7684 F60.00
G01 X4.8669 Y4.7618 F60.00
G01 X4.8541 Y4.7546 F60.00
G01 X4.7278 Y4.6788 F60.00
G01 X4.7154 Y4.6710 F60.00
G01 X4.7034 Y4.6626 F60.00
G01 X4.5793 Y4.5704 F60.00
G01 X4.5625 Y4.5563 F60.00
G01 X4.4534 Y4.4573 F60.00
G01 X4.4428 Y4.4472 F60.00
G01 X4.4327 Y4.4366 F60.00
G01 X4.3337 Y4.3275 F60.00
G01 X4.3242 Y4.3164 F60.00
G01 X4.3152 Y4.3049 F60.00
G01 X4.2274 Y4.1866 F60.00
G01 X4.2190 Y4.1746 F60.00
G01 X4.2112 Y4.1622 F60.00
G01 X4.1354 Y4.0359 F60.00
G01 X4.1282 Y4.0231 F60.00
G01 X4.1216 Y4.0101 F60.00
G01 X4.0587 Y3.8769 F60.00
G01 X4.0527 Y3.8635 F60.00
G01 X4.0475 Y3.8499 F60.00
G01 X3.9978 Y3.7112 F60.00
G01 X3.9932 Y3.6973 F60.00
G01 X3.9893 Y3.6832 F60.00
G01 X3.9536 Y3.5403 F60.00
G01 X3.9503 Y3.5260 F60.00
G01 X3.9478 Y3.5116 F60.00
G01 X3.9262 Y3.3659 F60.00
G01 X3.9244 Y3.3514 F60.00
G01 X3.9234 Y3.3367 F60.00
G01 X3.9161 Y3.1896 F60.00
G01 X3.9158 Y3.1750 F60.00
G01 X3.9161 Y3.1604 F60.00
G01 X3.9234 Y3.0133 F60.00
G01 X3.9244 Y2.9986 F60.00
G01 X3.9262 Y2.9841 F60.00
G01 X3.9478 Y2.8384 F60.00
G01 X3.9503 Y2.8240 F60.00
G01 X3.9536 Y2.8097 F60.00
G01 X3.9893 Y2.6668 F60.00
G01 X3.9932 Y2.6527 F60.00
G01 X3.9978 Y2.6388 F60.00
G01 X4.0475 Y2.5001 F60.00
G01 X4.0527 Y2.4865 F60.00
G01 X4.0587 Y2.4731 F60.00
G01 X4.1216 Y2.3399 F60.00
G01 X4.1282 Y2.3269 F60.00
G01 X4.1354 Y2.3141 F60.00
G01 X4.2112 Y2.1878 F60.00
G01 X4.2190 Y2.1754 F60.00
G01 X4.2274 Y2.1634 F60.00
G01 X4.3196 Y2.0393 F60.00
G01 X4.3337 Y2.0225 F60.00
G01 X4.4327 Y1.9134 F60.00
G01 X4.4428 Y1.9028 F60.00
G01 X4.4534 Y1.8927 F60.00
G01 X4.5625 Y1.7937 F60.00
G01 X4.5736 Y1.7842 F60.00
G01 X4.5851 Y1.7752 F60.00
G01 X4.7034 Y1.6874 F60.00
G01 X4.7154 Y1.6790 F60.00
G01 X4.7278 Y1.6712 F60.00
G01 X4.8541 Y1.5954 F60.00
G01 X4.8669 Y1.5882 F60.00
G01 X4.8799 Y1.5816 F60.00
G01 X5.0131 Y1.5187 F60.00
G01 X5.0265 Y1.5127 F60.00
G01 X5.0401 Y1.5075 F60.00
G01 X5.1788 Y1.4578 F60.00
G01 X5.1927 Y1.4532 F60.00
G01 X5.2068 Y1.4493 F60.00
G01 X5.3497 Y1.4136 F60.00
G01 X5.3640 Y1.4103 F60.00
G01 X5.3784 Y1.4078 F60.00
G01 X5.5241 Y1.3862 F60.00
G01 X5.5386 Y1.3844 F60.00
G01 X5.5533 Y1.3834 F60.00
G01 X5.7004 Y1.3761 F60.00
G01 X5.7150 Y1.3758 F60.00
G01 X8.7376 Y1.3758 F60.00
G01 X8.7522 Y1.3761 F60.00
G01 X8.9067 Y1.3838 F60.00
G01 X8.9285 Y1.3862 F60.00
G01 X9.0742 Y1.4078 F60.00
G01 X9.0886 Y1.4103 F60.00
G01 X9.1029 Y1.4136 F60.00
G01 X9.2458 Y1.4493 F60.00
G01 X9.2599 Y1.4532 F60.00
G01 X9.2738 Y1.4578 F60.00
G01 X9.4193 Y1.5100 F60.00
G01 X9.4395 Y1.5187 F60.00
G01 X9.5727 Y1.5816 F60.00
G01 X9.5922 Y1.5918 F60.00
G01 X9.7311 Y1.6750 F60.00
G01 X9.7492 Y1.6874 F60.00
G01 X9.8084 Y1.7314 F60.00
G01 X11.3451 Y1.7314 F60.00
G01 X11.8342 Y1.2424 F60.00
G01 X11.8448 Y1.2323 F60.00
G01 X11.9594 Y1.1285 F60.00
G01 X11.9765 Y1.1148 F60.00
G01 X12.0948 Y1.0270 F60.00
G01 X12.1068 Y1.0186 F60.00
G01 X12.1192 Y1.0108 F60.00
G01 X12.2518 Y0.9314 F60.00
G01 X12.2713 Y0.9212 F60.00
G01 X12.4045 Y0.8583 F60.00
G01 X12.4179 Y0.8523 F60.00
G01 X12.4315 Y0.8471 F60.00
G01 X12.5702 Y0.7974 F60.00
G01 X12.5841 Y0.7928 F60.00
G01 X12.5982 Y0.7889 F60.00
G01 X12.7411 Y0.7532 F60.00
G01 X12.7554 Y0.7499 F60.00
G01 X12.7698 Y0.7474 F60.00
G01 X12.9155 Y0.7258 F60.00
G01 X12.9300 Y0.7240 F60.00
G01 X12.9447 Y0.7230 F60.00
G01 X13.0991 Y0.7155 F60.00
G01 X14.3510 Y0.7154 F60.00
G01 X14.3656 Y0.7157 F60.00
G01 X14.5201 Y0.7234 F60.00
G01 X14.5419 Y0.7258 F60.00
G01 X14.6876 Y0.7474 F60.00
G01 X14.7020 Y0.7499 F60.00
G01 X14.7163 Y0.7532 F60.00
G01 X14.8592 Y0.7889 F60.00
G01 X14.8733 Y0.7928 F60.00
G01 X14.8872 Y0.7974 F60.00
G01 X15.0327 Y0.8496 F60.00
G01 X15.0529 Y0.8583 F60.00
G01 X15.1861 Y0.9212 F60.00
G01 X15.1991 Y0.9278 F60.00
G01 X15.2119 Y0.9350 F60.00
G01 X15.3382 Y1.0108 F60.00
G01 X15.3506 Y1.0186 F60.00
G01 X15.3626 Y1.0270 F60.00
G01 X15.4809 Y1.1148 F60.00
G01 X15.4924 Y1.1238 F60.00
G01 X15.5035 Y1.1333 F60.00
G01 X15.6126 Y1.2323 F60.00
G01 X15.6232 Y1.2424 F60.00
G01 X15.6333 Y1.2530 F60.00
G01 X15.7323 Y1.3621 F60.00
G01 X15.7418 Y1.3732 F60.00
G01 X15.7508 Y1.3847 F60.00
G01 X15.8386 Y1.5030 F60.00
G01 X15.8470 Y1.5150 F60.00
G01 X15.8548 Y1.5274 F60.00
G01 X15.9306 Y1.6537 F60.00
G01 X15.9378 Y1.6665 F60.00
G01 X15.9444 Y1.6795 F60.00
G01 X16.0073 Y1.8127 F60.00
G01 X16.0160 Y1.8329 F60.00
G01 X16.0682 Y1.9784 F60.00
G01 X16.0728 Y1.9923 F60.00
G01 X16.0767 Y2.0064 F60.00
G01 X16.1124 Y2.1493 F60.00
G01 X16.1157 Y2.1636 F60.00
G01 X16.1182 Y2.1780 F60.00
G01 X16.1398 Y2.3237 F60.00
G01 X16.1416 Y2.3382 F60.00
G01 X16.1426 Y2.3529 F60.00
G01 X16.1499 Y2.5000 F60.00
G01 X16.1502 Y2.5146 F60.00
G01 X16.1499 Y2.5292 F60.00
G01 X16.1426 Y2.6763 F60.00
G01 X16.1416 Y2.6910 F60.00
G01 X16.1398 Y2.7055 F60.00
G01 X16.1182 Y2.8512 F60.00
G01 X16.1157 Y2.8656 F60.00
G01 X16.1124 Y2.8799 F60.00
G01 X16.0767 Y3.0228 F60.00
G01 X16.0728 Y3.0369 F60.00
G01 X16.0682 Y3.0508 F60.00
G01 X16.0185 Y3.1895 F60.00
G01 X16.0133 Y3.2031 F60.00
G01 X16.0073 Y3.2165 F60.00
G01 X15.9444 Y3.3497 F60.00
G01 X15.9378 Y3.3627 F60.00
G01 X15.9306 Y3.3755 F60.00
G01 X15.8548 Y3.5018 F60.00
G01 X15.8470 Y3.5142 F60.00
G01 X15.8386 Y3.5262 F60.00
G01 X15.7508 Y3.6445 F60.00
G01 X15.7418 Y3.6560 F60.00
G01 X15.7323 Y3.6671 F60.00
G01 X15.6284 Y3.7816 F60.00
G01 X15.6126 Y3.7969 F60.00
G01 X15.5035 Y3.8959 F60.00
G01 X15.4924 Y3.9054 F60.00
G01 X15.4809 Y3.9144 F60.00
G01 X15.3626 Y4.0022 F60.00
G01 X15.3506 Y4.0106 F60.00
G01 X15.3382 Y4.0184 F60.00
G01 X15.2119 Y4.0942 F60.00
G01 X15.1991 Y4.1014 F60.00
G01 X15.1861 Y4.1080 F60.00
G01 X15.0529 Y4.1709 F60.00
G01 X15.0395 Y4.1769 F60.00
G01 X15.0259 Y4.1821 F60.00
G01 X14.8872 Y4.2318 F60.00
G01 X14.8733 Y4.2364 F60.00
G01 X14.8592 Y4.2403 F60.00
G01 X14.7163 Y4.2760 F60.00
G01 X14.7020 Y4.2793 F60.00
G01 X14.6876 Y4.2818 F60.00
G01 X14.5419 Y4.3034 F60.00
G01 X14.5201 Y4.3058 F60.00
G01 X14.3656 Y4.3135 F60.00
G01 X14.3510 Y4.3138 F60.00
G01 X13.8517 Y4.3138 F60.00
G01 X13.3626 Y4.8028 F60.00
G01 X13.3520 Y4.8129 F60.00
G01 X13.2429 Y4.9119 F60.00
G01 X13.2318 Y4.9214 F60.00
G01 X13.2203 Y4.9304 F60.00
G01 X13.1020 Y5.0182 F60.00
G01 X13.0900 Y5.0266 F60.00
G01 X13.0776 Y5.0344 F60.00
G01 X12.9513 Y5.1102 F60.00
G01 X12.9385 Y5.1174 F60.00
G01 X12.9255 Y5.1240 F60.00
G01 X12.7923 Y5.1869 F60.00
G01 X12.7721 Y5.1956 F60.00
G01 X12.6266 Y5.2478 F60.00
G01 X12.6127 Y5.2524 F60.00
G01 X12.5986 Y5.2563 F60.00
G01 X12.4557 Y5.2920 F60.00
G01 X12.4414 Y5.2953 F60.00
G01 X12.4270 Y5.2978 F60.00
G01 X12.2813 Y5.3194 F60.00
G01 X12.2668 Y5.3212 F60.00
G01 X12.2521 Y5.3222 F60.00
G01 X12.0977 Y5.3297 F60.00
G01 X9.0678 Y5.3298 F60.00
G01 X9.0532 Y5.3295 F60.00
G01 X8.9061 Y5.3222 F60.00
G01 X8.8914 Y5.3212 F60.00
G01 X8.8769 Y5.3194 F60.00
G01 X8.7312 Y5.2978 F60.00
G01 X8.7168 Y5.2953 F60.00
G01 X8.7025 Y5.2920 F60.00
G01 X8.5596 Y5.2563 F60.00
G01 X8.5385 Y5.2501 F60.00
G01 X8.3929 Y5.1981 F60.00
G01 X8.3793 Y5.1929 F60.00
G01 X8.3659 Y5.1869 F60.00
G01 X8.2262 Y5.1207 F60.00
G01 X8.2069 Y5.1102 F60.00
G01 X8.0743 Y5.0306 F60.00
G01 X8.0562 Y5.0182 F60.00
G01 X7.9970 Y4.9742 F60.00
G00 Z3.0000
G00 X7.9336 Y5.1661
G01 F60.00
G01 Z-0.0980
G01 F60.00
G01 X5.7150 Y5.1661 F60.00
G01 X5.6909 Y5.1655 F60.00
G01 X5.5438 Y5.1583 F60.00
G01 X5.5198 Y5.1565 F60.00
G01 X5.5079 Y5.1552 F60.00
G01 X5.3503 Y5.1320 F60.00
G01 X5.3266 Y5.1278 F60.00
G01 X5.3031 Y5.1226 F60.00
G01 X5.1602 Y5.0868 F60.00
G01 X5.1370 Y5.0804 F60.00
G01 X5.1142 Y5.0728 F60.00
G01 X4.9755 Y5.0232 F60.00
G01 X4.9530 Y5.0145 F60.00
G01 X4.9310 Y5.0048 F60.00
G01 X4.7979 Y4.9418 F60.00
G01 X4.7764 Y4.9310 F60.00
G01 X4.7555 Y4.9191 F60.00
G01 X4.6291 Y4.8434 F60.00
G01 X4.6088 Y4.8305 F60.00
G01 X4.5891 Y4.8167 F60.00
G01 X4.4708 Y4.7290 F60.00
G01 X4.4613 Y4.7217 F60.00
G01 X4.4426 Y4.7064 F60.00
G01 X4.3245 Y4.5995 F60.00
G01 X4.3071 Y4.5829 F60.00
G01 X4.2905 Y4.5655 F60.00
G01 X4.1916 Y4.4564 F60.00
G01 X4.1759 Y4.4381 F60.00
G01 X4.1610 Y4.4192 F60.00
G01 X4.0733 Y4.3009 F60.00
G01 X4.0595 Y4.2812 F60.00
G01 X4.0466 Y4.2609 F60.00
G01 X3.9709 Y4.1345 F60.00
G01 X3.9590 Y4.1136 F60.00
G01 X3.9482 Y4.0921 F60.00
G01 X3.8852 Y3.9590 F60.00
G01 X3.8755 Y3.9370 F60.00
G01 X3.8668 Y3.9145 F60.00
G01 X3.8172 Y3.7758 F60.00
G01 X3.8096 Y3.7530 F60.00
G01 X3.8032 Y3.7298 F60.00
G01 X3.7674 Y3.5869 F60.00
G01 X3.7622 Y3.5634 F60.00
G01 X3.7580 Y3.5397 F60.00
G01 X3.7364 Y3.3940 F60.00
G01 X3.7335 Y3.3702 F60.00
G01 X3.7317 Y3.3462 F60.00
G01 X3.7245 Y3.1991 F60.00
G01 X3.7239 Y3.1750 F60.00
G01 X3.7245 Y3.1509 F60.00
G01 X3.7317 Y3.0038 F60.00
G01 X3.7335 Y2.9798 F60.00
G01 X3.7364 Y2.9560 F60.00
G01 X3.7580 Y2.8103 F60.00
G01 X3.7622 Y2.7866 F60.00
G01 X3.7674 Y2.7631 F60.00
G01 X3.8032 Y2.6202 F60.00
G01 X3.8096 Y2.5970 F60.00
G01 X3.8172 Y2.5742 F60.00
G01 X3.8668 Y2.4355 F60.00
G01 X3.8755 Y2.4130 F60.00
G01 X3.8852 Y2.3910 F60.00
G01 X3.9482 Y2.2579 F60.00
G01 X3.9590 Y2.2364 F60.00
G01 X3.9709 Y2.2155 F60.00
G01 X4.0466 Y2.0891 F60.00
G01 X4.0595 Y2.0688 F60.00
G01 X4.0733 Y2.0491 F60.00
G01 X4.1610 Y1.9308 F60.00
G01 X4.1759 Y1.9119 F60.00
G01 X4.1836 Y1.9026 F60.00
G01 X4.2905 Y1.7845 F60.00
G01 X4.3071 Y1.7671 F60.00
G01 X4.3245 Y1.7505 F60.00
G01 X4.4336 Y1.6516 F60.00
G01 X4.4519 Y1.6359 F60.00
G01 X4.4708 Y1.6210 F60.00
G01 X4.5891 Y1.5333 F60.00
G01 X4.6088 Y1.5195 F60.00
G01 X4.6291 Y1.5066 F60.00
G01 X4.7555 Y1.4309 F60.00
G01 X4.7764 Y1.4190 F60.00
G01 X4.7979 Y1.4082 F60.00
G01 X4.9310 Y1.3452 F60.00
G01 X4.9530 Y1.3355 F60.00
G01 X4.9755 Y1.3268 F60.00
G01 X5.1142 Y1.2772 F60.00
G01 X5.1370 Y1.2696 F60.00
G01 X5.1602 Y1.2632 F60.00
G01 X5.3031 Y1.2274 F60.00
G01 X5.3266 Y1.2222 F60.00
G01 X5.3503 Y1.2180 F60.00
G01 X5.4960 Y1.1964 F60.00
G01 X5.5198 Y1.1935 F60.00
G01 X5.5438 Y1.1917 F60.00
G01 X5.6909 Y1.1845 F60.00
G01 X5.7150 Y1.1839 F60.00
G01 X8.7376 Y1.1839 F60.00
G01 X8.7617 Y1.1845 F60.00
G01 X8.9088 Y1.1917 F60.00
G01 X8.9328 Y1.1935 F60.00
G01 X8.9566 Y1.1964 F60.00
G01 X9.1023 Y1.2180 F60.00
G01 X9.1260 Y1.2222 F60.00
G01 X9.1495 Y1.2274 F60.00
G01 X9.2924 Y1.2632 F60.00
G01 X9.3156 Y1.2696 F60.00
G01 X9.3384 Y1.2772 F60.00
G01 X9.4771 Y1.3268 F60.00
G01 X9.4996 Y1.3355 F60.00
G01 X9.5216 Y1.3452 F60.00
G01 X9.6547 Y1.4082 F60.00
G01 X9.6762 Y1.4190 F60.00
G01 X9.6971 Y1.4309 F60.00
G01 X9.8235 Y1.5066 F60.00
G01 X9.8438 Y1.5195 F60.00
G01 X9.8718 Y1.5395 F60.00
G01 X11.2657 Y1.5395 F60.00
G01 X11.6985 Y1.1067 F60.00
G01 X11.7159 Y1.0901 F60.00
G01 X11.8340 Y0.9832 F60.00
G01 X11.8527 Y0.9679 F60.00
G01 X11.8622 Y0.9606 F60.00
G01 X11.9805 Y0.8729 F60.00
G01 X12.0002 Y0.8591 F60.00
G01 X12.0205 Y0.8462 F60.00
G01 X12.1573 Y0.7644 F60.00
G01 X12.1785 Y0.7531 F60.00
G01 X12.2024 Y0.7416 F60.00
G01 X0.7405 Y0.7405 F60.00
G01 X0.7405 Y31.6445 F60.00
G01 X11.7380 Y31.6445 F60.00
G01 X11.6987 Y31.6081 F60.00
G01 X11.6812 Y31.5910 F60.00
G01 X11.2512 Y31.1503 F60.00
G01 X9.0678 Y31.1503 F60.00
G01 X9.0437 Y31.1497 F60.00
G01 X8.8846 Y31.1417 F60.00
G01 X8.8726 Y31.1407 F60.00
G01 X8.8488 Y31.1378 F60.00
G01 X8.7031 Y31.1162 F60.00
G01 X8.6794 Y31.1120 F60.00
G01 X8.6559 Y31.1068 F60.00
G01 X8.5130 Y31.0710 F60.00
G01 X8.4898 Y31.0646 F60.00
G01 X8.4670 Y31.0570 F60.00
G01 X8.3283 Y31.0074 F60.00
G01 X8.3058 Y30.9987 F60.00
G01 X8.2838 Y30.9890 F60.00
G01 X8.1507 Y30.9260 F60.00
G01 X8.1292 Y30.9152 F60.00
G01 X8.1083 Y30.9033 F60.00
G01 X7.9698 Y30.8201 F60.00
G01 X5.7030 Y30.8200 F60.00
G01 X5.5438 Y30.8123 F60.00
G01 X5.5198 Y30.8105 F60.00
G01 X5.4960 Y30.8076 F60.00
G01 X5.3503 Y30.7860 F60.00
G01 X5.3384 Y30.7840 F60.00
G01 X5.3148 Y30.7794 F60.00
G01 X5.1602 Y30.7408 F60.00
G01 X5.1370 Y30.7344 F60.00
G01 X5.1142 Y30.7268 F60.00
G01 X4.9755 Y30.6772 F60.00
G01 X4.9530 Y30.6685 F60.00
G01 X4.9310 Y30.6588 F60.00
G01 X4.7979 Y30.5958 F60.00
G01 X4.7764 Y30.5850 F60.00
G01 X4.7555 Y30.5731 F60.00
G01 X4.6291 Y30.4974 F60.00
G01 X4.6088 Y30.4845 F60.00
G01 X4.5891 Y30.4707 F60.00
G01 X4.4708 Y30.3830 F60.00
G01 X4.4519 Y30.3681 F60.00
G01 X4.4336 Y30.3524 F60.00
G01 X4.3245 Y30.2535 F60.00
G01 X4.3071 Y30.2369 F60.00
G01 X4.2905 Y30.2195 F60.00
G01 X4.1916 Y30.1104 F60.00
G01 X4.1759 Y30.0921 F60.00
G01 X4.1610 Y30.0732 F60.00
G01 X4.0733 Y29.9549 F60.00
G01 X4.0663 Y29.9451 F60.00
G01 X4.0529 Y29.9251 F60.00
G01 X3.9709 Y29.7885 F60.00
G01 X3.9590 Y29.7676 F60.00
G01 X3.9482 Y29.7461 F60.00
G01 X3.8852 Y29.6130 F60.00
G01 X3.8755 Y29.5910 F60.00
G01 X3.8668 Y29.5685 F60.00
G01 X3.8172 Y29.4298 F60.00
G01 X3.8096 Y29.4070 F60.00
G01 X3.8032 Y29.3838 F60.00
G01 X3.7674 Y29.2409 F60.00
G01 X3.7622 Y29.2174 F60.00
G01 X3.7580 Y29.1937 F60.00
G01 X3.7364 Y29.0480 F60.00
G01 X3.7335 Y29.0242 F60.00
G01 X3.7317 Y29.0002 F60.00
G01 X3.7245 Y28.8531 F60.00
G01 X3.7239 Y28.8290 F60.00
G01 X3.7245 Y28.8049 F60.00
G01 X3.7317 Y28.6578 F60.00
G01 X3.7335 Y28.6338 F60.00
G01 X3.7364 Y28.6100 F60.00
G01 X3.7580 Y28.4643 F60.00
G01 X3.7622 Y28.4406 F60.00
G01 X3.7674 Y28.4171 F60.00
G01 X3.8032 Y28.2742 F60.00
G01 X3.8096 Y28.2510 F60.00
G01 X3.8172 Y28.2282 F60.00
G01 X3.8668 Y28.0895 F60.00
G01 X3.8755 Y28.0670 F60.00
G01 X3.8852 Y28.0450 F60.00
G01 X3.9482 Y27.9119 F60.00
G01 X3.9590 Y27.8904 F60.00
G01 X3.9709 Y27.8695 F60.00
G01 X4.0466 Y27.7431 F60.00
G01 X4.0595 Y27.7228 F60.00
G01 X4.0733 Y27.7031 F60.00
G01 X4.1610 Y27.5848 F60.00
G01 X4.1759 Y27.5659 F60.00
G01 X4.1916 Y27.5476 F60.00
G01 X4.2905 Y27.4385 F60.00
G01 X4.3071 Y27.4211 F60.00
G01 X4.3245 Y27.4045 F60.00
G01 X4.4336 Y27.3056 F60.00
G01 X4.4519 Y27.2899 F60.00
G01 X4.4708 Y27.2750 F60.00
G01 X4.5891 Y27.1873 F60.00
G01 X4.6088 Y27.1735 F60.00
G01 X4.6291 Y27.1606 F60.00
G01 X4.7555 Y27.0849 F60.00
G01 X4.7764 Y27.0730 F60.00
G01 X4.7979 Y27.0622 F60.00
G01 X4.9310 Y26.9992 F60.00
G01 X4.9530 Y26.9895 F60.00
G01 X4.9755 Y26.9808 F60.00
G01 X5.1142 Y26.9312 F60.00
G01 X5.1370 Y26.9236 F60.00
G01 X5.1602 Y26.9172 F60.00
G01 X5.3031 Y26.8814 F60.00
G01 X5.3266 Y26.8762 F60.00
G01 X5.3503 Y26.8720 F60.00
G01 X5.4960 Y26.8504 F60.00
G01 X5.5198 Y26.8475 F60.00
G01 X5.5318 Y26.8465 F60.00
G01 X5.6909 Y26.8385 F60.00
G01 X5.7150 Y26.8379 F60.00
G01 X8.7630 Y26.8379 F60.00
G01 X8.7871 Y26.8385 F60.00
G01 X8.9342 Y26.8457 F60.00
G01 X8.9582 Y26.8475 F60.00
G01 X8.9820 Y26.8504 F60.00
G01 X9.1277 Y26.8720 F60.00
G01 X9.1514 Y26.8762 F60.00
G01 X9.1749 Y26.8814 F60.00
G01 X9.3178 Y26.9172 F60.00
G01 X9.3410 Y26.9236 F60.00
G01 X9.3638 Y26.9312 F60.00
G01 X9.5025 Y26.9808 F60.00
G01 X9.5250 Y26.9895 F60.00
G01 X9.5470 Y26.9992 F60.00
G01 X9.6801 Y27.0622 F60.00
G01 X9.7016 Y27.0730 F60.00
G01 X9.7225 Y27.0849 F60.00
G01 X9.8610 Y27.1681 F60.00
G01 X12.1150 Y27.1682 F60.00
G01 X12.1390 Y27.1691 F60.00
G01 X12.2003 Y27.1729 F60.00
G01 X12.2736 Y27.1767 F60.00
G01 X12.3100 Y27.1802 F60.00
G01 X12.3339 Y27.1835 F60.00
G01 X12.3944 Y27.1932 F60.00
G01 X12.4670 Y27.2042 F60.00
G01 X12.5029 Y27.2113 F60.00
G01 X12.5263 Y27.2169 F60.00
G01 X12.5857 Y27.2325 F60.00
G01 X12.6568 Y27.2505 F60.00
G01 X12.6919 Y27.2611 F60.00
G01 X12.7146 Y27.2689 F60.00
G01 X12.7721 Y27.2903 F60.00
G01 X12.8412 Y27.3152 F60.00
G01 X12.8750 Y27.3292 F60.00
G01 X12.8969 Y27.3392 F60.00
G01 X12.9520 Y27.3661 F60.00
G01 X13.0183 Y27.3977 F60.00
G01 X13.0506 Y27.4149 F60.00
G01 X13.0714 Y27.4270 F60.00
G01 X13.1236 Y27.4592 F60.00
G01 X13.1865 Y27.4971 F60.00
G01 X13.2170 Y27.5174 F60.00
G01 X13.2365 Y27.5315 F60.00
G01 X13.2853 Y27.5687 F60.00
G01 X13.3346 Y27.6052 F60.00
G01 X13.3535 Y27.6201 F60.00
G01 X13.3816 Y27.6436 F60.00
G01 X13.4354 Y27.6935 F60.00
G01 X13.4897 Y27.7429 F60.00
G01 X13.5156 Y27.7688 F60.00
G01 X13.9456 Y28.2095 F60.00
G01 X14.3630 Y28.2096 F60.00
G01 X14.5222 Y28.2173 F60.00
G01 X14.5462 Y28.2191 F60.00
G01 X14.5700 Y28.2220 F60.00
G01 X14.7157 Y28.2436 F60.00
G01 X14.7276 Y28.2456 F60.00
G01 X14.7512 Y28.2502 F60.00
G01 X14.9058 Y28.2888 F60.00
G01 X14.9290 Y28.2952 F60.00
G01 X14.9518 Y28.3028 F60.00
G01 X15.0905 Y28.3524 F60.00
G01 X15.1130 Y28.3611 F60.00
G01 X15.1350 Y28.3708 F60.00
G01 X15.2681 Y28.4338 F60.00
G01 X15.2896 Y28.4446 F60.00
G01 X15.3105 Y28.4565 F60.00
G01 X15.4369 Y28.5322 F60.00
G01 X15.4572 Y28.5451 F60.00
G01 X15.4671 Y28.5519 F60.00
G01 X15.5952 Y28.6466 F60.00
G01 X15.6141 Y28.6615 F60.00
G01 X15.6324 Y28.6772 F60.00
G01 X15.7415 Y28.7761 F60.00
G01 X15.7589 Y28.7927 F60.00
G01 X15.7755 Y28.8101 F60.00
G01 X15.8744 Y28.9192 F60.00
G01 X15.8901 Y28.9375 F60.00
G01 X15.9050 Y28.9564 F60.00
G01 X15.9927 Y29.0747 F60.00
G01 X16.0065 Y29.0944 F60.00
G01 X16.0194 Y29.1147 F60.00
G01 X16.0951 Y29.2411 F60.00
G01 X16.1070 Y29.2620 F60.00
G01 X16.1178 Y29.2835 F60.00
G01 X16.1808 Y29.4166 F60.00
G01 X16.1905 Y29.4386 F60.00
G01 X16.1992 Y29.4611 F60.00
G01 X16.2488 Y29.5998 F60.00
G01 X16.2564 Y29.6226 F60.00
G01 X16.2628 Y29.6458 F60.00
G01 X16.2986 Y29.7887 F60.00
G01 X16.3038 Y29.8122 F60.00
G01 X16.3080 Y29.8359 F60.00
G01 X16.3296 Y29.9816 F60.00
G01 X16.3325 Y30.0054 F60.00
G01 X16.3335 Y30.0174 F60.00
G01 X16.3415 Y30.1765 F60.00
G01 X16.3421 Y30.2006 F60.00
G01 X16.3415 Y30.2247 F60.00
G01 X16.3343 Y30.3718 F60.00
G01 X16.3325 Y30.3958 F60.00
G01 X16.3296 Y30.4196 F60.00
G01 X16.3080 Y30.5653 F60.00
G01 X16.3038 Y30.5890 F60.00
G01 X16.2986 Y30.6125 F60.00
G01 X16.2628 Y30.7554 F60.00
G01 X16.2564 Y30.7786 F60.00
G01 X16.2488 Y30.8014 F60.00
G01 X16.1950 Y30.9514 F60.00
G01 X16.1858 Y30.9736 F60.00
G01 X16.1808 Y30.9846 F60.00
G01 X16.1178 Y31.1177 F60.00
G01 X16.1070 Y31.1392 F60.00
G01 X16.0951 Y31.1601 F60.00
G01 X16.0194 Y31.2865 F60.00
G01 X16.0065 Y31.3068 F60.00
G01 X15.9927 Y31.3265 F60.00
G01 X15.9050 Y31.4448 F60.00
G01 X15.8901 Y31.4637 F60.00
G01 X15.8824 Y31.4730 F60.00
G01 X15.7673 Y31.5999 F60.00
G01 X15.7503 Y31.6169 F60.00
G01 X15.7201 Y31.6445 F60.00
G01 X41.0425 Y31.6445 F60.00
G01 X41.0425 Y0.7443 F60.00
G01 X15.2556 Y0.7419 F60.00
G01 X15.2789 Y0.7531 F60.00
G01 X15.3001 Y0.7644 F60.00
G01 X15.4369 Y0.8462 F60.00
G01 X15.4572 Y0.8591 F60.00
G01 X15.4769 Y0.8729 F60.00
G01 X15.5952 Y0.9606 F60.00
G01 X15.6141 Y0.9755 F60.00
G01 X15.6324 Y0.9912 F60.00
G01 X15.7415 Y1.0901 F60.00
G01 X15.7589 Y1.1067 F60.00
G01 X15.7755 Y1.1241 F60.00
G01 X15.8744 Y1.2332 F60.00
G01 X15.8901 Y1.2515 F60.00
G01 X15.9050 Y1.2704 F60.00
G01 X15.9927 Y1.3887 F60.00
G01 X16.0065 Y1.4084 F60.00
G01 X16.0194 Y1.4287 F60.00
G01 X16.0951 Y1.5551 F60.00
G01 X16.1070 Y1.5760 F60.00
G01 X16.1178 Y1.5975 F60.00
G01 X16.1808 Y1.7306 F60.00
G01 X16.1905 Y1.7526 F60.00
G01 X16.1992 Y1.7751 F60.00
G01 X16.2488 Y1.9138 F60.00
G01 X16.2564 Y1.9366 F60.00
G01 X16.2628 Y1.9598 F60.00
G01 X16.2986 Y2.1027 F60.00
G01 X16.3038 Y2.1262 F60.00
G01 X16.3080 Y2.1499 F60.00
G01 X16.3296 Y2.2956 F60.00
G01 X16.3325 Y2.3194 F60.00
G01 X16.3343 Y2.3434 F60.00
G01 X16.3415 Y2.4905 F60.00
G01 X16.3421 Y2.5146 F60.00
G01 X16.3415 Y2.5387 F60.00
G01 X16.3343 Y2.6858 F60.00
G01 X16.3325 Y2.7098 F60.00
G01 X16.3296 Y2.7336 F60.00
G01 X16.3080 Y2.8793 F60.00
G01 X16.3038 Y2.9030 F60.00
G01 X16.2986 Y2.9265 F60.00
G01 X16.2628 Y3.0694 F60.00
G01 X16.2564 Y3.0926 F60.00
G01 X16.2488 Y3.1154 F60.00
G01 X16.1992 Y3.2541 F60.00
G01 X16.1905 Y3.2766 F60.00
G01 X16.1808 Y3.2986 F60.00
G01 X16.1178 Y3.4317 F60.00
G01 X16.1070 Y3.4532 F60.00
G01 X16.0951 Y3.4741 F60.00
G01 X16.0194 Y3.6005 F60.00
G01 X16.0065 Y3.6208 F60.00
G01 X15.9927 Y3.6405 F60.00
G01 X15.9050 Y3.7588 F60.00
G01 X15.8901 Y3.7777 F60.00
G01 X15.8744 Y3.7960 F60.00
G01 X15.7755 Y3.9051 F60.00
G01 X15.7589 Y3.9225 F60.00
G01 X15.7415 Y3.9391 F60.00
G01 X15.6324 Y4.0380 F60.00
G01 X15.6141 Y4.0537 F60.00
G01 X15.5952 Y4.0686 F60.00
G01 X15.4769 Y4.1563 F60.00
G01 X15.4572 Y4.1701 F60.00
G01 X15.4369 Y4.1830 F60.00
G01 X15.3105 Y4.2587 F60.00
G01 X15.2896 Y4.2706 F60.00
G01 X15.2681 Y4.2814 F60.00
G01 X15.1350 Y4.3444 F60.00
G01 X15.1130 Y4.3541 F60.00
G01 X15.0905 Y4.3628 F60.00
G01 X14.9518 Y4.4124 F60.00
G01 X14.9290 Y4.4200 F60.00
G01 X14.9058 Y4.4264 F60.00
G01 X14.7512 Y4.4650 F60.00
G01 X14.7276 Y4.4696 F60.00
G01 X14.7157 Y4.4716 F60.00
G01 X14.5700 Y4.4932 F60.00
G01 X14.5462 Y4.4961 F60.00
G01 X14.5222 Y4.4979 F60.00
G01 X14.3630 Y4.5056 F60.00
G01 X13.9311 Y4.5057 F60.00
G01 X13.4983 Y4.9385 F60.00
G01 X13.4809 Y4.9551 F60.00
G01 X13.3718 Y5.0540 F60.00
G01 X13.3535 Y5.0697 F60.00
G01 X13.3346 Y5.0846 F60.00
G01 X13.2163 Y5.1723 F60.00
G01 X13.1966 Y5.1861 F60.00
G01 X13.1763 Y5.1990 F60.00
G01 X13.0499 Y5.2747 F60.00
G01 X13.0290 Y5.2866 F60.00
G01 X13.0075 Y5.2974 F60.00
G01 X12.8744 Y5.3604 F60.00
G01 X12.8524 Y5.3701 F60.00
G01 X12.8299 Y5.3788 F60.00
G01 X12.6912 Y5.4284 F60.00
G01 X12.6684 Y5.4360 F60.00
G01 X12.6452 Y5.4424 F60.00
G01 X12.5023 Y5.4782 F60.00
G01 X12.4788 Y5.4834 F60.00
G01 X12.4551 Y5.4876 F60.00
G01 X12.2975 Y5.5108 F60.00
G01 X12.2736 Y5.5131 F60.00
G01 X12.2616 Y5.5139 F60.00
G01 X12.1145 Y5.5211 F60.00
G01 X12.0904 Y5.5217 F60.00
G01 X9.0678 Y5.5217 F60.00
G01 X9.0437 Y5.5211 F60.00
G01 X8.8846 Y5.5131 F60.00
G01 X8.8726 Y5.5121 F60.00
G01 X8.8488 Y5.5092 F60.00
G01 X8.7031 Y5.4876 F60.00
G01 X8.6794 Y5.4834 F60.00
G01 X8.6559 Y5.4782 F60.00
G01 X8.5130 Y5.4424 F60.00
G01 X8.4898 Y5.4360 F60.00
G01 X8.4670 Y5.4284 F60.00
G01 X8.3283 Y5.3788 F60.00
G01 X8.3058 Y5.3701 F60.00
G01 X8.2838 Y5.3604 F60.00
G01 X8.1507 Y5.2974 F60.00
G01 X8.1292 Y5.2866 F60.00
G01 X8.1083 Y5.2747 F60.00
G01 X7.9819 Y5.1990 F60.00
G01 X7.9616 Y5.1861 F60.00
G01 X7.9336 Y5.1661 F60.00
G00 Z3.0000
G00 X12.1015 Y11.6122
G01 F60.00
G01 Z-0.0980
G01 F60.00
G01 X12.1199 Y11.6123 F60.00
G01 X12.1897 Y11.6165 F60.00
G01 X12.2521 Y11.6196 F60.00
G01 X12.2668 Y11.6206 F60.00
G01 X12.2961 Y11.6238 F60.00
G01 X12.4414 Y11.6465 F60.00
G01 X12.4703 Y11.6526 F60.00
G01 X12.5379 Y11.6703 F60.00
G01 X12.5986 Y11.6855 F60.00
G01 X12.6127 Y11.6894 F60.00
G01 X12.6409 Y11.6983 F60.00
G01 X12.7789 Y11.7489 F60.00
G01 X12.8061 Y11.7605 F60.00
G01 X12.8689 Y11.7911 F60.00
G01 X12.9255 Y11.8178 F60.00
G01 X12.9385 Y11.8244 F60.00
G01 X12.9644 Y11.8386 F60.00
G01 X13.0240 Y11.8752 F60.00
G01 X13.0839 Y11.9112 F60.00
G01 X13.1084 Y11.9277 F60.00
G01 X13.2261 Y12.0158 F60.00
G01 X13.2544 Y12.0394 F60.00
G01 X13.3626 Y12.1390 F60.00
G01 X13.8647 Y12.6534 F60.00
G01 X14.3510 Y12.6534 F60.00
G01 X14.3656 Y12.6537 F60.00
G01 X14.5201 Y12.6614 F60.00
G01 X14.5419 Y12.6638 F60.00
G01 X14.6876 Y12.6854 F60.00
G01 X14.7020 Y12.6879 F60.00
G01 X14.7163 Y12.6912 F60.00
G01 X14.8592 Y12.7269 F60.00
G01 X14.8733 Y12.7308 F60.00
G01 X14.8872 Y12.7354 F60.00
G01 X15.0259 Y12.7851 F60.00
G01 X15.0395 Y12.7903 F60.00
G01 X15.0529 Y12.7963 F60.00
G01 X15.1861 Y12.8592 F60.00
G01 X15.1991 Y12.8658 F60.00
G01 X15.2119 Y12.8730 F60.00
G01 X15.3382 Y12.9488 F60.00
G01 X15.3506 Y12.9566 F60.00
G01 X15.3626 Y12.9650 F60.00
G01 X15.4809 Y13.0528 F60.00
G01 X15.4924 Y13.0618 F60.00
G01 X15.5035 Y13.0713 F60.00
G01 X15.6126 Y13.1703 F60.00
G01 X15.6232 Y13.1804 F60.00
G01 X15.6333 Y13.1910 F60.00
G01 X15.7323 Y13.3001 F60.00
G01 X15.7464 Y13.3169 F60.00
G01 X15.8386 Y13.4410 F60.00
G01 X15.8470 Y13.4530 F60.00
G01 X15.8548 Y13.4654 F60.00
G01 X15.9306 Y13.5917 F60.00
G01 X15.9378 Y13.6045 F60.00
G01 X15.9444 Y13.6175 F60.00
G01 X16.0073 Y13.7507 F60.00
G01 X16.0133 Y13.7641 F60.00
G01 X16.0185 Y13.7777 F60.00
G01 X16.0682 Y13.9164 F60.00
G01 X16.0728 Y13.9303 F60.00
G01 X16.0767 Y13.9444 F60.00
G01 X16.1124 Y14.0873 F60.00
G01 X16.1157 Y14.1016 F60.00
G01 X16.1182 Y14.1160 F60.00
G01 X16.1398 Y14.2617 F60.00
G01 X16.1416 Y14.2762 F60.00
G01 X16.1426 Y14.2909 F60.00
G01 X16.1499 Y14.4380 F60.00
G01 X16.1502 Y14.4526 F60.00
G01 X16.1499 Y14.4672 F60.00
G01 X16.1426 Y14.6143 F60.00
G01 X16.1416 Y14.6290 F60.00
G01 X16.1398 Y14.6435 F60.00
G01 X16.1182 Y14.7892 F60.00
G01 X16.1157 Y14.8036 F60.00
G01 X16.1124 Y14.8179 F60.00
G01 X16.0767 Y14.9608 F60.00
G01 X16.0728 Y14.9749 F60.00
G01 X16.0682 Y14.9888 F60.00
G01 X16.0185 Y15.1275 F60.00
G01 X16.0133 Y15.1411 F60.00
G01 X16.0073 Y15.1545 F60.00
G01 X15.9444 Y15.2877 F60.00
G01 X15.9378 Y15.3007 F60.00
G01 X15.9306 Y15.3135 F60.00
G01 X15.8548 Y15.4398 F60.00
G01 X15.8470 Y15.4522 F60.00
G01 X15.8386 Y15.4642 F60.00
G01 X15.7508 Y15.5825 F60.00
G01 X15.7418 Y15.5940 F60.00
G01 X15.7323 Y15.6051 F60.00
G01 X15.6333 Y15.7142 F60.00
G01 X15.6232 Y15.7248 F60.00
G01 X15.6126 Y15.7349 F60.00
G01 X15.5035 Y15.8339 F60.00
G01 X15.4867 Y15.8480 F60.00
G01 X15.3626 Y15.9402 F60.00
G01 X15.3506 Y15.9486 F60.00
G01 X15.3382 Y15.9564 F60.00
G01 X15.2119 Y16.0322 F60.00
G01 X15.1991 Y16.0394 F60.00
G01 X15.1861 Y16.0460 F60.00
G01 X15.0529 Y16.1089 F60.00
G01 X15.0395 Y16.1149 F60.00
G01 X15.0259 Y16.1201 F60.00
G01 X14.8872 Y16.1698 F60.00
G01 X14.8733 Y16.1744 F60.00
G01 X14.8592 Y16.1783 F60.00
G01 X14.7163 Y16.2140 F60.00
G01 X14.7020 Y16.2173 F60.00
G01 X14.6876 Y16.2198 F60.00
G01 X14.5419 Y16.2414 F60.00
G01 X14.5274 Y16.2432 F60.00
G01 X14.5127 Y16.2442 F60.00
G01 X14.3583 Y16.2517 F60.00
G01 X13.1064 Y16.2518 F60.00
G01 X13.0915 Y16.2515 F60.00
G01 X12.9421 Y16.2440 F60.00
G01 X12.9273 Y16.2429 F60.00
G01 X12.9125 Y16.2410 F60.00
G01 X12.7646 Y16.2187 F60.00
G01 X12.7499 Y16.2162 F60.00
G01 X12.7354 Y16.2129 F60.00
G01 X12.5905 Y16.1759 F60.00
G01 X12.5761 Y16.1719 F60.00
G01 X12.5620 Y16.1672 F60.00
G01 X12.4215 Y16.1160 F60.00
G01 X12.4076 Y16.1106 F60.00
G01 X12.3941 Y16.1045 F60.00
G01 X12.2593 Y16.0396 F60.00
G01 X12.2460 Y16.0328 F60.00
G01 X12.2331 Y16.0253 F60.00
G01 X12.0992 Y15.9434 F60.00
G01 X12.0809 Y15.9306 F60.00
G01 X11.9617 Y15.8403 F60.00
G01 X11.9500 Y15.8310 F60.00
G01 X11.9389 Y15.8212 F60.00
G01 X11.8238 Y15.7143 F60.00
G01 X11.3321 Y15.2104 F60.00
G01 X9.0170 Y15.2104 F60.00
G01 X9.0024 Y15.2101 F60.00
G01 X8.8553 Y15.2028 F60.00
G01 X8.8406 Y15.2018 F60.00
G01 X8.8261 Y15.2000 F60.00
G01 X8.6804 Y15.1784 F60.00
G01 X8.6660 Y15.1759 F60.00
G01 X8.6517 Y15.1726 F60.00
G01 X8.5017 Y15.1350 F60.00
G01 X8.4808 Y15.1284 F60.00
G01 X8.3421 Y15.0787 F60.00
G01 X8.3285 Y15.0735 F60.00
G01 X8.3151 Y15.0675 F60.00
G01 X8.1754 Y15.0013 F60.00
G01 X8.1624 Y14.9944 F60.00
G01 X8.1412 Y14.9818 F60.00
G01 X5.7077 Y14.9817 F60.00
G01 X5.5533 Y14.9742 F60.00
G01 X5.5386 Y14.9732 F60.00
G01 X5.5241 Y14.9714 F60.00
G01 X5.3784 Y14.9498 F60.00
G01 X5.3640 Y14.9473 F60.00
G01 X5.3497 Y14.9440 F60.00
G01 X5.2068 Y14.9083 F60.00
G01 X5.1927 Y14.9044 F60.00
G01 X5.1788 Y14.8998 F60.00
G01 X5.0401 Y14.8501 F60.00
G01 X5.0265 Y14.8449 F60.00
G01 X5.0131 Y14.8389 F60.00
G01 X4.8799 Y14.7760 F60.00
G01 X4.8669 Y14.7694 F60.00
G01 X4.8541 Y14.7622 F60.00
G01 X4.7278 Y14.6864 F60.00
G01 X4.7154 Y14.6786 F60.00
G01 X4.7034 Y14.6702 F60.00
G01 X4.5851 Y14.5824 F60.00
G01 X4.5736 Y14.5734 F60.00
G01 X4.5625 Y14.5639 F60.00
G01 X4.4534 Y14.4649 F60.00
G01 X4.4428 Y14.4548 F60.00
G01 X4.4327 Y14.4442 F60.00
G01 X4.3337 Y14.3351 F60.00
G01 X4.3242 Y14.3240 F60.00
G01 X4.3152 Y14.3125 F60.00
G01 X4.2274 Y14.1942 F60.00
G01 X4.2190 Y14.1822 F60.00
G01 X4.2112 Y14.1698 F60.00
G01 X4.1354 Y14.0435 F60.00
G01 X4.1282 Y14.0307 F60.00
G01 X4.1216 Y14.0177 F60.00
G01 X4.0587 Y13.8845 F60.00
G01 X4.0527 Y13.8711 F60.00
G01 X4.0475 Y13.8575 F60.00
G01 X3.9978 Y13.7188 F60.00
G01 X3.9932 Y13.7049 F60.00
G01 X3.9893 Y13.6908 F60.00
G01 X3.9519 Y13.5408 F60.00
G01 X3.9478 Y13.5192 F60.00
G01 X3.9262 Y13.3735 F60.00
G01 X3.9244 Y13.3590 F60.00
G01 X3.9234 Y13.3443 F60.00
G01 X3.9161 Y13.1972 F60.00
G01 X3.9158 Y13.1826 F60.00
G01 X3.9161 Y13.1680 F60.00
G01 X3.9234 Y13.0209 F60.00
G01 X3.9244 Y13.0062 F60.00
G01 X3.9262 Y12.9917 F60.00
G01 X3.9478 Y12.8460 F60.00
G01 X3.9503 Y12.8316 F60.00
G01 X3.9536 Y12.8173 F60.00
G01 X3.9893 Y12.6744 F60.00
G01 X3.9932 Y12.6603 F60.00
G01 X3.9978 Y12.6464 F60.00
G01 X4.0475 Y12.5077 F60.00
G01 X4.0527 Y12.4941 F60.00
G01 X4.0587 Y12.4807 F60.00
G01 X4.1216 Y12.3475 F60.00
G01 X4.1282 Y12.3345 F60.00
G01 X4.1354 Y12.3217 F60.00
G01 X4.2112 Y12.1954 F60.00
G01 X4.2190 Y12.1830 F60.00
G01 X4.2274 Y12.1710 F60.00
G01 X4.3152 Y12.0527 F60.00
G01 X4.3242 Y12.0412 F60.00
G01 X4.3337 Y12.0301 F60.00
G01 X4.4327 Y11.9210 F60.00
G01 X4.4428 Y11.9104 F60.00
G01 X4.4534 Y11.9003 F60.00
G01 X4.5625 Y11.8013 F60.00
G01 X4.5736 Y11.7918 F60.00
G01 X4.5851 Y11.7828 F60.00
G01 X4.7034 Y11.6950 F60.00
G01 X4.7154 Y11.6866 F60.00
G01 X4.7278 Y11.6788 F60.00
G01 X4.8541 Y11.6030 F60.00
G01 X4.8669 Y11.5958 F60.00
G01 X4.8799 Y11.5892 F60.00
G01 X5.0131 Y11.5263 F60.00
G01 X5.0265 Y11.5203 F60.00
G01 X5.0401 Y11.5151 F60.00
G01 X5.1788 Y11.4654 F60.00
G01 X5.1927 Y11.4608 F60.00
G01 X5.2068 Y11.4569 F60.00
G01 X5.3568 Y11.4195 F60.00
G01 X5.3784 Y11.4154 F60.00
G01 X5.5241 Y11.3938 F60.00
G01 X5.5386 Y11.3920 F60.00
G01 X5.5533 Y11.3910 F60.00
G01 X5.7004 Y11.3837 F60.00
G01 X5.7150 Y11.3834 F60.00
G01 X8.7957 Y11.3835 F60.00
G01 X8.9501 Y11.3910 F60.00
G01 X8.9648 Y11.3920 F60.00
G01 X8.9793 Y11.3938 F60.00
G01 X9.1250 Y11.4154 F60.00
G01 X9.1394 Y11.4179 F60.00
G01 X9.1537 Y11.4212 F60.00
G01 X9.2966 Y11.4569 F60.00
G01 X9.3107 Y11.4608 F60.00
G01 X9.3246 Y11.4654 F60.00
G01 X9.4633 Y11.5151 F60.00
G01 X9.4769 Y11.5203 F60.00
G01 X9.4903 Y11.5263 F60.00
G01 X9.6300 Y11.5925 F60.00
G01 X9.6430 Y11.5994 F60.00
G01 X9.6642 Y11.6120 F60.00
G01 X12.1015 Y11.6122 F60.00
G00 Z3.0000
G00 X13.2337 Y12.2819
G01 F60.00
G01 Z-0.0980
G01 F60.00
G01 X13.2409 Y12.2888 F60.00
G01 X13.7838 Y12.8453 F60.00
G01 X14.3510 Y12.8453 F60.00
G01 X14.5033 Y12.8526 F60.00
G01 X14.5137 Y12.8536 F60.00
G01 X14.6646 Y12.8761 F60.00
G01 X14.8176 Y12.9145 F60.00
G01 X14.9661 Y12.9676 F60.00
G01 X15.1040 Y13.0327 F60.00
G01 X15.1110 Y13.0363 F60.00
G01 X15.2440 Y13.1161 F60.00
G01 X15.3666 Y13.2069 F60.00
G01 X15.3747 Y13.2135 F60.00
G01 X15.4876 Y13.3160 F60.00
G01 X15.5935 Y13.4329 F60.00
G01 X15.6844 Y13.5553 F60.00
G01 X15.6903 Y13.5640 F60.00
G01 X15.7686 Y13.6949 F60.00
G01 X15.8360 Y13.8375 F60.00
G01 X15.8891 Y13.9860 F60.00
G01 X15.9275 Y14.1390 F60.00
G01 X15.9506 Y14.2951 F60.00
G01 X15.9583 Y14.4526 F60.00
G01 X15.9506 Y14.6101 F60.00
G01 X15.9275 Y14.7662 F60.00
G01 X15.8891 Y14.9192 F60.00
G01 X15.8360 Y15.0677 F60.00
G01 X15.7686 Y15.2103 F60.00
G01 X15.6875 Y15.3456 F60.00
G01 X15.5935 Y15.4723 F60.00
G01 X15.4876 Y15.5892 F60.00
G01 X15.3707 Y15.6951 F60.00
G01 X15.2440 Y15.7891 F60.00
G01 X15.1087 Y15.8702 F60.00
G01 X14.9661 Y15.9376 F60.00
G01 X14.8176 Y15.9907 F60.00
G01 X14.6646 Y16.0291 F60.00
G01 X14.5137 Y16.0516 F60.00
G01 X14.5059 Y16.0524 F60.00
G01 X14.3510 Y16.0599 F60.00
G01 X13.1064 Y16.0599 F60.00
G01 X12.9517 Y16.0524 F60.00
G01 X12.9437 Y16.0517 F60.00
G01 X12.7932 Y16.0290 F60.00
G01 X12.7828 Y16.0269 F60.00
G01 X12.6327 Y15.9886 F60.00
G01 X12.4871 Y15.9357 F60.00
G01 X12.4773 Y15.9316 F60.00
G01 X12.3378 Y15.8643 F60.00
G01 X12.2011 Y15.7807 F60.00
G01 X12.0733 Y15.6840 F60.00
G01 X11.9578 Y15.5769 F60.00
G01 X11.4130 Y15.0185 F60.00
G01 X9.0118 Y15.0184 F60.00
G01 X8.8595 Y15.0108 F60.00
G01 X8.7086 Y14.9886 F60.00
G01 X8.6983 Y14.9865 F60.00
G01 X8.5529 Y14.9501 F60.00
G01 X8.5454 Y14.9477 F60.00
G01 X8.4068 Y14.8981 F60.00
G01 X8.3995 Y14.8952 F60.00
G01 X8.2616 Y14.8300 F60.00
G01 X8.2548 Y14.8262 F60.00
G01 X8.1943 Y14.7899 F60.00
G01 X5.7150 Y14.7899 F60.00
G01 X5.5575 Y14.7822 F60.00
G01 X5.4066 Y14.7600 F60.00
G01 X5.3989 Y14.7585 F60.00
G01 X5.2484 Y14.7207 F60.00
G01 X5.1048 Y14.6695 F60.00
G01 X5.0951 Y14.6655 F60.00
G01 X4.9620 Y14.6025 F60.00
G01 X4.9528 Y14.5976 F60.00
G01 X4.8220 Y14.5191 F60.00
G01 X4.6953 Y14.4251 F60.00
G01 X4.5784 Y14.3192 F60.00
G01 X4.4759 Y14.2063 F60.00
G01 X4.4693 Y14.1982 F60.00
G01 X4.3816 Y14.0799 F60.00
G01 X4.3757 Y14.0712 F60.00
G01 X4.2974 Y13.9403 F60.00
G01 X4.2300 Y13.7977 F60.00
G01 X4.1785 Y13.6542 F60.00
G01 X4.1755 Y13.6441 F60.00
G01 X4.1385 Y13.4962 F60.00
G01 X4.1157 Y13.3427 F60.00
G01 X4.1150 Y13.3349 F60.00
G01 X4.1077 Y13.1826 F60.00
G01 X4.1154 Y13.0251 F60.00
G01 X4.1385 Y12.8690 F60.00
G01 X4.1769 Y12.7160 F60.00
G01 X4.2300 Y12.5675 F60.00
G01 X4.2974 Y12.4249 F60.00
G01 X4.3785 Y12.2896 F60.00
G01 X4.4725 Y12.1629 F60.00
G01 X4.5784 Y12.0460 F60.00
G01 X4.6953 Y11.9401 F60.00
G01 X4.8220 Y11.8461 F60.00
G01 X4.9573 Y11.7650 F60.00
G01 X5.0999 Y11.6976 F60.00
G01 X5.2484 Y11.6445 F60.00
G01 X5.4014 Y11.6061 F60.00
G01 X5.5549 Y11.5833 F60.00
G01 X5.5627 Y11.5826 F60.00
G01 X5.7150 Y11.5753 F60.00
G01 X8.7910 Y11.5753 F60.00
G01 X8.9407 Y11.5826 F60.00
G01 X8.9511 Y11.5836 F60.00
G01 X9.1020 Y11.6061 F60.00
G01 X9.2525 Y11.6437 F60.00
G01 X9.2600 Y11.6461 F60.00
G01 X9.3986 Y11.6957 F60.00
G01 X9.4059 Y11.6986 F60.00
G01 X9.5438 Y11.7638 F60.00
G01 X9.5506 Y11.7676 F60.00
G01 X9.6111 Y11.8039 F60.00
G01 X12.0904 Y11.8039 F60.00
G01 X12.1003 Y11.8042 F60.00
G01 X12.1129 Y11.8040 F60.00
G01 X12.1791 Y11.8081 F60.00
G01 X12.2479 Y11.8116 F60.00
G01 X12.2578 Y11.8129 F60.00
G01 X12.2703 Y11.8140 F60.00
G01 X12.3358 Y11.8245 F60.00
G01 X12.4040 Y11.8347 F60.00
G01 X12.4136 Y11.8370 F60.00
G01 X12.4260 Y11.8393 F60.00
G01 X12.4901 Y11.8562 F60.00
G01 X12.5519 Y11.8717 F60.00
G01 X12.5784 Y11.8798 F60.00
G01 X12.6406 Y11.9029 F60.00
G01 X12.7006 Y11.9243 F60.00
G01 X12.7285 Y11.9361 F60.00
G01 X12.7858 Y11.9640 F60.00
G01 X12.8458 Y11.9924 F60.00
G01 X12.8567 Y11.9986 F60.00
G01 X12.8655 Y12.0031 F60.00
G01 X12.9243 Y12.0392 F60.00
G01 X12.9812 Y12.0733 F60.00
G01 X12.9914 Y12.0806 F60.00
G01 X12.9998 Y12.0859 F60.00
G01 X13.0548 Y12.1275 F60.00
G01 X13.1080 Y12.1671 F60.00
G01 X13.1175 Y12.1753 F60.00
G01 X13.1253 Y12.1814 F60.00
G01 X13.1760 Y12.2282 F60.00
G01 X13.2232 Y12.2710 F60.00
G01 X13.2337 Y12.2819 F60.00
G00 Z3.0000
G00 X14.2348 Y10.1699
G01 F60.00
G01 Z-0.0980
G01 F60.00
G01 X5.7150 Y10.1699 F60.00
G01 X5.6909 Y10.1693 F60.00
G01 X5.5438 Y10.1621 F60.00
G01 X5.5198 Y10.1603 F60.00
G01 X5.4960 Y10.1574 F60.00
G01 X5.3503 Y10.1358 F60.00
G01 X5.3266 Y10.1316 F60.00
G01 X5.3148 Y10.1292 F60.00
G01 X5.1602 Y10.0906 F60.00
G01 X5.1370 Y10.0842 F60.00
G01 X5.1142 Y10.0766 F60.00
G01 X4.9755 Y10.0270 F60.00
G01 X4.9530 Y10.0183 F60.00
G01 X4.9310 Y10.0086 F60.00
G01 X4.7979 Y9.9456 F60.00
G01 X4.7764 Y9.9348 F60.00
G01 X4.7555 Y9.9229 F60.00
G01 X4.6291 Y9.8472 F60.00
G01 X4.6088 Y9.8343 F60.00
G01 X4.5891 Y9.8205 F60.00
G01 X4.4708 Y9.7328 F60.00
G01 X4.4519 Y9.7179 F60.00
G01 X4.4336 Y9.7022 F60.00
G01 X4.3245 Y9.6033 F60.00
G01 X4.3071 Y9.5867 F60.00
G01 X4.2905 Y9.5693 F60.00
G01 X4.1916 Y9.4602 F60.00
G01 X4.1759 Y9.4419 F60.00
G01 X4.1610 Y9.4230 F60.00
G01 X4.0733 Y9.3047 F60.00
G01 X4.0595 Y9.2850 F60.00
G01 X4.0466 Y9.2647 F60.00
G01 X3.9709 Y9.1383 F60.00
G01 X3.9590 Y9.1174 F60.00
G01 X3.9482 Y9.0959 F60.00
G01 X3.8852 Y8.9628 F60.00
G01 X3.8755 Y8.9408 F60.00
G01 X3.8668 Y8.9183 F60.00
G01 X3.8172 Y8.7796 F60.00
G01 X3.8096 Y8.7568 F60.00
G01 X3.8032 Y8.7336 F60.00
G01 X3.7674 Y8.5907 F60.00
G01 X3.7622 Y8.5672 F60.00
G01 X3.7580 Y8.5435 F60.00
G01 X3.7364 Y8.3978 F60.00
G01 X3.7335 Y8.3740 F60.00
G01 X3.7317 Y8.3500 F60.00
G01 X3.7245 Y8.2029 F60.00
G01 X3.7239 Y8.1788 F60.00
G01 X3.7245 Y8.1547 F60.00
G01 X3.7317 Y8.0076 F60.00
G01 X3.7335 Y7.9836 F60.00
G01 X3.7364 Y7.9598 F60.00
G01 X3.7580 Y7.8141 F60.00
G01 X3.7622 Y7.7904 F60.00
G01 X3.7646 Y7.7786 F60.00
G01 X3.8032 Y7.6240 F60.00
G01 X3.8096 Y7.6008 F60.00
G01 X3.8172 Y7.5780 F60.00
G01 X3.8668 Y7.4393 F60.00
G01 X3.8755 Y7.4168 F60.00
G01 X3.8852 Y7.3948 F60.00
G01 X3.9482 Y7.2617 F60.00
G01 X3.9590 Y7.2402 F60.00
G01 X3.9709 Y7.2193 F60.00
G01 X4.0466 Y7.0929 F60.00
G01 X4.0595 Y7.0726 F60.00
G01 X4.0733 Y7.0529 F60.00
G01 X4.1610 Y6.9346 F60.00
G01 X4.1759 Y6.9157 F60.00
G01 X4.1916 Y6.8974 F60.00
G01 X4.2905 Y6.7883 F60.00
G01 X4.3071 Y6.7709 F60.00
G01 X4.3245 Y6.7543 F60.00
G01 X4.4336 Y6.6554 F60.00
G01 X4.4519 Y6.6397 F60.00
G01 X4.4708 Y6.6248 F60.00
G01 X4.5891 Y6.5371 F60.00
G01 X4.6088 Y6.5233 F60.00
G01 X4.6291 Y6.5104 F60.00
G01 X4.7555 Y6.4347 F60.00
G01 X4.7764 Y6.4228 F60.00
G01 X4.7979 Y6.4120 F60.00
G01 X4.9310 Y6.3490 F60.00
G01 X4.9530 Y6.3393 F60.00
G01 X4.9755 Y6.3306 F60.00
G01 X5.1142 Y6.2810 F60.00
G01 X5.1370 Y6.2734 F60.00
G01 X5.1602 Y6.2670 F60.00
G01 X5.3031 Y6.2312 F60.00
G01 X5.3266 Y6.2260 F60.00
G01 X5.3503 Y6.2218 F60.00
G01 X5.4960 Y6.2002 F60.00
G01 X5.5198 Y6.1973 F60.00
G01 X5.5438 Y6.1955 F60.00
G01 X5.6909 Y6.1883 F60.00
G01 X5.7150 Y6.1877 F60.00
G01 X14.9860 Y6.1877 F60.00
G01 X15.0101 Y6.1883 F60.00
G01 X15.1572 Y6.1955 F60.00
G01 X15.1812 Y6.1973 F60.00
G01 X15.2050 Y6.2002 F60.00
G01 X15.3507 Y6.2218 F60.00
G01 X15.3744 Y6.2260 F60.00
G01 X15.3979 Y6.2312 F60.00
G01 X15.5524 Y6.2701 F60.00
G01 X15.5640 Y6.2734 F60.00
G01 X15.5868 Y6.2810 F60.00
G01 X15.7255 Y6.3306 F60.00
G01 X15.7480 Y6.3393 F60.00
G01 X15.7590 Y6.3440 F60.00
G01 X15.9031 Y6.4120 F60.00
G01 X15.9246 Y6.4228 F60.00
G01 X15.9455 Y6.4347 F60.00
G01 X16.0420 Y6.4925 F60.00
G01 X26.5125 Y6.4925 F60.00
G01 X28.7293 Y6.3681 F60.00
G01 X28.8886 Y6.3668 F60.00
G01 X28.9127 Y6.3673 F60.00
G01 X28.9367 Y6.3689 F60.00
G01 X29.0954 Y6.3835 F60.00
G01 X29.1073 Y6.3850 F60.00
G01 X29.1310 Y6.3890 F60.00
G01 X29.2757 Y6.4167 F60.00
G01 X29.2992 Y6.4218 F60.00
G01 X29.3224 Y6.4281 F60.00
G01 X29.4637 Y6.4698 F60.00
G01 X29.4866 Y6.4772 F60.00
G01 X29.5091 Y6.4857 F60.00
G01 X29.6456 Y6.5411 F60.00
G01 X29.6676 Y6.5507 F60.00
G01 X29.6892 Y6.5614 F60.00
G01 X29.8196 Y6.6299 F60.00
G01 X29.8406 Y6.6416 F60.00
G01 X29.8610 Y6.6543 F60.00
G01 X29.9840 Y6.7353 F60.00
G01 X30.0038 Y6.7490 F60.00
G01 X30.0229 Y6.7637 F60.00
G01 X30.1374 Y6.8563 F60.00
G01 X30.1557 Y6.8719 F60.00
G01 X30.1733 Y6.8884 F60.00
G01 X30.2782 Y6.9918 F60.00
G01 X30.2949 Y7.0091 F60.00
G01 X30.3107 Y7.0272 F60.00
G01 X30.4049 Y7.1404 F60.00
G01 X30.4199 Y7.1593 F60.00
G01 X30.4339 Y7.1789 F60.00
G01 X30.5166 Y7.3007 F60.00
G01 X30.5296 Y7.3210 F60.00
G01 X30.5416 Y7.3418 F60.00
G01 X30.6119 Y7.4712 F60.00
G01 X30.6229 Y7.4927 F60.00
G01 X30.6328 Y7.5146 F60.00
G01 X30.6901 Y7.6503 F60.00
G01 X30.6989 Y7.6726 F60.00
G01 X30.7067 Y7.6954 F60.00
G01 X30.7504 Y7.8361 F60.00
G01 X30.7570 Y7.8592 F60.00
G01 X30.7624 Y7.8827 F60.00
G01 X30.7922 Y8.0269 F60.00
G01 X30.7945 Y8.0387 F60.00
G01 X30.7982 Y8.0625 F60.00
G01 X30.8150 Y8.2209 F60.00
G01 X30.8170 Y8.2449 F60.00
G01 X30.8177 Y8.2690 F60.00
G01 X30.8188 Y8.4162 F60.00
G01 X30.8183 Y8.4403 F60.00
G01 X30.8167 Y8.4643 F60.00
G01 X30.8033 Y8.6110 F60.00
G01 X30.8006 Y8.6349 F60.00
G01 X30.7966 Y8.6586 F60.00
G01 X30.7689 Y8.8033 F60.00
G01 X30.7638 Y8.8268 F60.00
G01 X30.7575 Y8.8500 F60.00
G01 X30.7158 Y8.9913 F60.00
G01 X30.7084 Y9.0142 F60.00
G01 X30.6999 Y9.0367 F60.00
G01 X30.6445 Y9.1732 F60.00
G01 X30.6349 Y9.1952 F60.00
G01 X30.6242 Y9.2168 F60.00
G01 X30.5557 Y9.3472 F60.00
G01 X30.5440 Y9.3682 F60.00
G01 X30.5313 Y9.3886 F60.00
G01 X30.4503 Y9.5116 F60.00
G01 X30.4366 Y9.5314 F60.00
G01 X30.4219 Y9.5505 F60.00
G01 X30.3293 Y9.6650 F60.00
G01 X30.3137 Y9.6833 F60.00
G01 X30.2972 Y9.7009 F60.00
G01 X30.1938 Y9.8058 F60.00
G01 X30.1765 Y9.8225 F60.00
G01 X30.1584 Y9.8383 F60.00
G01 X30.0452 Y9.9325 F60.00
G01 X30.0263 Y9.9475 F60.00
G01 X30.0067 Y9.9615 F60.00
G01 X29.8849 Y10.0442 F60.00
G01 X29.8646 Y10.0572 F60.00
G01 X29.8438 Y10.0692 F60.00
G01 X29.7144 Y10.1395 F60.00
G01 X29.6929 Y10.1505 F60.00
G01 X29.6710 Y10.1604 F60.00
G01 X29.5353 Y10.2177 F60.00
G01 X29.5130 Y10.2265 F60.00
G01 X29.4902 Y10.2343 F60.00
G01 X29.3495 Y10.2780 F60.00
G01 X29.3264 Y10.2846 F60.00
G01 X29.3029 Y10.2900 F60.00
G01 X29.1587 Y10.3198 F60.00
G01 X29.1469 Y10.3221 F60.00
G01 X29.1231 Y10.3258 F60.00
G01 X28.9647 Y10.3426 F60.00
G01 X28.9407 Y10.3446 F60.00
G01 X26.6801 Y10.4716 F60.00
G01 X26.6560 Y10.4723 F60.00
G01 X26.6242 Y10.4726 F60.00
G01 X26.5925 Y10.4741 F60.00
G01 X26.5684 Y10.4747 F60.00
G01 X15.2908 Y10.4747 F60.00
G01 X15.2667 Y10.4741 F60.00
G01 X15.1196 Y10.4669 F60.00
G01 X15.0956 Y10.4651 F60.00
G01 X15.0718 Y10.4622 F60.00
G01 X14.9261 Y10.4406 F60.00
G01 X14.9024 Y10.4364 F60.00
G01 X14.8789 Y10.4312 F60.00
G01 X14.7244 Y10.3923 F60.00
G01 X14.7013 Y10.3853 F60.00
G01 X14.6900 Y10.3814 F60.00
G01 X14.5513 Y10.3318 F60.00
G01 X14.5400 Y10.3276 F60.00
G01 X14.5178 Y10.3184 F60.00
G01 X14.3737 Y10.2504 F60.00
G01 X14.3522 Y10.2396 F60.00
G01 X14.3313 Y10.2277 F60.00
G01 X14.2348 Y10.1699 F60.00
G00 Z3.0000
G00 X14.2889 Y9.9780
G01 F60.00
G01 Z-0.0980
G01 F60.00
G01 X5.7150 Y9.9780 F60.00
G01 X5.7004 Y9.9777 F60.00
G01 X5.5533 Y9.9704 F60.00
G01 X5.5386 Y9.9694 F60.00
G01 X5.5241 Y9.9676 F60.00
G01 X5.3784 Y9.9460 F60.00
G01 X5.3640 Y9.9435 F60.00
G01 X5.3497 Y9.9402 F60.00
G01 X5.2068 Y9.9045 F60.00
G01 X5.1927 Y9.9006 F60.00
G01 X5.1788 Y9.8960 F60.00
G01 X5.0401 Y9.8463 F60.00
G01 X5.0265 Y9.8411 F60.00
G01 X5.0131 Y9.8351 F60.00
G01 X4.8799 Y9.7722 F60.00
G01 X4.8669 Y9.7656 F60.00
G01 X4.8541 Y9.7584 F60.00
G01 X4.7278 Y9.6826 F60.00
G01 X4.7154 Y9.6748 F60.00
G01 X4.7034 Y9.6664 F60.00
G01 X4.5851 Y9.5786 F60.00
G01 X4.5736 Y9.5696 F60.00
G01 X4.5625 Y9.5601 F60.00
G01 X4.4534 Y9.4611 F60.00
G01 X4.4428 Y9.4510 F60.00
G01 X4.4327 Y9.4404 F60.00
G01 X4.3337 Y9.3313 F60.00
G01 X4.3242 Y9.3202 F60.00
G01 X4.3152 Y9.3087 F60.00
G01 X4.2274 Y9.1904 F60.00
G01 X4.2190 Y9.1784 F60.00
G01 X4.2112 Y9.1660 F60.00
G01 X4.1354 Y9.0397 F60.00
G01 X4.1282 Y9.0269 F60.00
G01 X4.1216 Y9.0139 F60.00
G01 X4.0587 Y8.8807 F60.00
G01 X4.0527 Y8.8673 F60.00
G01 X4.0475 Y8.8537 F60.00
G01 X3.9978 Y8.7150 F60.00
G01 X3.9932 Y8.7011 F60.00
G01 X3.9893 Y8.6870 F60.00
G01 X3.9536 Y8.5441 F60.00
G01 X3.9503 Y8.5298 F60.00
G01 X3.9478 Y8.5154 F60.00
G01 X3.9262 Y8.3697 F60.00
G01 X3.9244 Y8.3552 F60.00
G01 X3.9234 Y8.3405 F60.00
G01 X3.9161 Y8.1934 F60.00
G01 X3.9158 Y8.1788 F60.00
G01 X3.9161 Y8.1642 F60.00
G01 X3.9234 Y8.0171 F60.00
G01 X3.9244 Y8.0024 F60.00
G01 X3.9262 Y7.9879 F60.00
G01 X3.9478 Y7.8422 F60.00
G01 X3.9503 Y7.8278 F60.00
G01 X3.9536 Y7.8135 F60.00
G01 X3.9893 Y7.6706 F60.00
G01 X3.9932 Y7.6565 F60.00
G01 X3.9978 Y7.6426 F60.00
G01 X4.0475 Y7.5039 F60.00
G01 X4.0527 Y7.4903 F60.00
G01 X4.0587 Y7.4769 F60.00
G01 X4.1216 Y7.3437 F60.00
G01 X4.1282 Y7.3307 F60.00
G01 X4.1354 Y7.3179 F60.00
G01 X4.2112 Y7.1916 F60.00
G01 X4.2190 Y7.1792 F60.00
G01 X4.2274 Y7.1672 F60.00
G01 X4.3152 Y7.0489 F60.00
G01 X4.3242 Y7.0374 F60.00
G01 X4.3337 Y7.0263 F60.00
G01 X4.4327 Y6.9172 F60.00
G01 X4.4428 Y6.9066 F60.00
G01 X4.4534 Y6.8965 F60.00
G01 X4.5625 Y6.7975 F60.00
G01 X4.5736 Y6.7880 F60.00
G01 X4.5851 Y6.7790 F60.00
G01 X4.7034 Y6.6912 F60.00
G01 X4.7154 Y6.6828 F60.00
G01 X4.7278 Y6.6750 F60.00
G01 X4.8541 Y6.5992 F60.00
G01 X4.8669 Y6.5920 F60.00
G01 X4.8799 Y6.5854 F60.00
G01 X5.0131 Y6.5225 F60.00
G01 X5.0265 Y6.5165 F60.00
G01 X5.0401 Y6.5113 F60.00
G01 X5.1788 Y6.4616 F60.00
G01 X5.1927 Y6.4570 F60.00
G01 X5.2068 Y6.4531 F60.00
G01 X5.3497 Y6.4174 F60.00
G01 X5.3640 Y6.4141 F60.00
G01 X5.3784 Y6.4116 F60.00
G01 X5.5314 Y6.3890 F60.00
G01 X5.5533 Y6.3872 F60.00
G01 X5.7004 Y6.3799 F60.00
G01 X5.7150 Y6.3796 F60.00
G01 X14.9860 Y6.3796 F60.00
G01 X15.0006 Y6.3799 F60.00
G01 X15.1477 Y6.3872 F60.00
G01 X15.1624 Y6.3882 F60.00
G01 X15.1769 Y6.3900 F60.00
G01 X15.3226 Y6.4116 F60.00
G01 X15.3370 Y6.4141 F60.00
G01 X15.3513 Y6.4174 F60.00
G01 X15.4942 Y6.4531 F60.00
G01 X15.5083 Y6.4570 F60.00
G01 X15.5222 Y6.4616 F60.00
G01 X15.6609 Y6.5113 F60.00
G01 X15.6745 Y6.5165 F60.00
G01 X15.6879 Y6.5225 F60.00
G01 X15.8211 Y6.5854 F60.00
G01 X15.8341 Y6.5920 F60.00
G01 X15.8469 Y6.5992 F60.00
G01 X15.9732 Y6.6750 F60.00
G01 X15.9879 Y6.6844 F60.00
G01 X26.5179 Y6.6844 F60.00
G01 X28.7354 Y6.5599 F60.00
G01 X28.8900 Y6.5587 F60.00
G01 X28.9046 Y6.5590 F60.00
G01 X28.9193 Y6.5599 F60.00
G01 X29.0732 Y6.5741 F60.00
G01 X29.0949 Y6.5774 F60.00
G01 X29.2396 Y6.6052 F60.00
G01 X29.2539 Y6.6083 F60.00
G01 X29.2680 Y6.6121 F60.00
G01 X29.4093 Y6.6538 F60.00
G01 X29.4232 Y6.6583 F60.00
G01 X29.4369 Y6.6635 F60.00
G01 X29.5734 Y6.7189 F60.00
G01 X29.5868 Y6.7247 F60.00
G01 X29.5999 Y6.7312 F60.00
G01 X29.7303 Y6.7998 F60.00
G01 X29.7431 Y6.8069 F60.00
G01 X29.7555 Y6.8146 F60.00
G01 X29.8786 Y6.8956 F60.00
G01 X29.8906 Y6.9039 F60.00
G01 X29.9022 Y6.9129 F60.00
G01 X30.0167 Y7.0055 F60.00
G01 X30.0279 Y7.0150 F60.00
G01 X30.0386 Y7.0250 F60.00
G01 X30.1434 Y7.1284 F60.00
G01 X30.1536 Y7.1390 F60.00
G01 X30.1633 Y7.1500 F60.00
G01 X30.2575 Y7.2632 F60.00
G01 X30.2666 Y7.2747 F60.00
G01 X30.2751 Y7.2866 F60.00
G01 X30.3578 Y7.4085 F60.00
G01 X30.3657 Y7.4208 F60.00
G01 X30.3730 Y7.4335 F60.00
G01 X30.4434 Y7.5629 F60.00
G01 X30.4500 Y7.5759 F60.00
G01 X30.4561 Y7.5893 F60.00
G01 X30.5134 Y7.7249 F60.00
G01 X30.5187 Y7.7386 F60.00
G01 X30.5234 Y7.7524 F60.00
G01 X30.5672 Y7.8931 F60.00
G01 X30.5712 Y7.9072 F60.00
G01 X30.5745 Y7.9214 F60.00
G01 X30.6042 Y8.0657 F60.00
G01 X30.6069 Y8.0801 F60.00
G01 X30.6087 Y8.0946 F60.00
G01 X30.6242 Y8.2411 F60.00
G01 X30.6254 Y8.2557 F60.00
G01 X30.6259 Y8.2703 F60.00
G01 X30.6269 Y8.4176 F60.00
G01 X30.6266 Y8.4322 F60.00
G01 X30.6257 Y8.4469 F60.00
G01 X30.6123 Y8.5935 F60.00
G01 X30.6106 Y8.6081 F60.00
G01 X30.6082 Y8.6225 F60.00
G01 X30.5804 Y8.7672 F60.00
G01 X30.5773 Y8.7815 F60.00
G01 X30.5735 Y8.7956 F60.00
G01 X30.5318 Y8.9369 F60.00
G01 X30.5273 Y8.9508 F60.00
G01 X30.5221 Y8.9645 F60.00
G01 X30.4667 Y9.1010 F60.00
G01 X30.4609 Y9.1144 F60.00
G01 X30.4544 Y9.1275 F60.00
G01 X30.3858 Y9.2579 F60.00
G01 X30.3787 Y9.2707 F60.00
G01 X30.3710 Y9.2831 F60.00
G01 X30.2900 Y9.4062 F60.00
G01 X30.2817 Y9.4182 F60.00
G01 X30.2727 Y9.4298 F60.00
G01 X30.1801 Y9.5443 F60.00
G01 X30.1706 Y9.5555 F60.00
G01 X30.1606 Y9.5662 F60.00
G01 X30.0572 Y9.6710 F60.00
G01 X30.0466 Y9.6812 F60.00
G01 X30.0356 Y9.6909 F60.00
G01 X29.9224 Y9.7851 F60.00
G01 X29.9109 Y9.7942 F60.00
G01 X29.8990 Y9.8027 F60.00
G01 X29.7771 Y9.8854 F60.00
G01 X29.7648 Y9.8933 F60.00
G01 X29.7521 Y9.9006 F60.00
G01 X29.6227 Y9.9710 F60.00
G01 X29.6097 Y9.9776 F60.00
G01 X29.5963 Y9.9837 F60.00
G01 X29.4607 Y10.0410 F60.00
G01 X29.4470 Y10.0463 F60.00
G01 X29.4332 Y10.0510 F60.00
G01 X29.2925 Y10.0948 F60.00
G01 X29.2784 Y10.0988 F60.00
G01 X29.2642 Y10.1021 F60.00
G01 X29.1199 Y10.1318 F60.00
G01 X29.1055 Y10.1345 F60.00
G01 X29.0910 Y10.1363 F60.00
G01 X28.9445 Y10.1518 F60.00
G01 X28.9299 Y10.1530 F60.00
G01 X26.6693 Y10.2800 F60.00
G01 X26.6547 Y10.2805 F60.00
G01 X26.6188 Y10.2807 F60.00
G01 X26.5830 Y10.2825 F60.00
G01 X26.5684 Y10.2828 F60.00
G01 X15.2908 Y10.2828 F60.00
G01 X15.2762 Y10.2825 F60.00
G01 X15.1291 Y10.2752 F60.00
G01 X15.1144 Y10.2742 F60.00
G01 X15.0999 Y10.2724 F60.00
G01 X14.9542 Y10.2508 F60.00
G01 X14.9398 Y10.2483 F60.00
G01 X14.9255 Y10.2450 F60.00
G01 X14.7826 Y10.2093 F60.00
G01 X14.7685 Y10.2054 F60.00
G01 X14.7546 Y10.2008 F60.00
G01 X14.6159 Y10.1511 F60.00
G01 X14.6023 Y10.1459 F60.00
G01 X14.5889 Y10.1399 F60.00
G01 X14.4557 Y10.0770 F60.00
G01 X14.4427 Y10.0704 F60.00
G01 X14.4299 Y10.0632 F60.00
G01 X14.3036 Y9.9874 F60.00
G01 X14.2889 Y9.9780 F60.00
G00 Z3.0000
G00 X11.3451 Y17.4794
G01 F60.00
G01 Z-0.0980
G01 F60.00
G01 X11.8342 Y16.9904 F60.00
G01 X11.8448 Y16.9803 F60.00
G01 X11.9539 Y16.8813 F60.00
G01 X11.9650 Y16.8718 F60.00
G01 X11.9765 Y16.8628 F60.00
G01 X12.0948 Y16.7750 F60.00
G01 X12.1068 Y16.7666 F60.00
G01 X12.1192 Y16.7588 F60.00
G01 X12.2455 Y16.6830 F60.00
G01 X12.2583 Y16.6758 F60.00
G01 X12.2713 Y16.6692 F60.00
G01 X12.4045 Y16.6063 F60.00
G01 X12.4179 Y16.6003 F60.00
G01 X12.4315 Y16.5951 F60.00
G01 X12.5702 Y16.5454 F60.00
G01 X12.5911 Y16.5388 F60.00
G01 X12.7411 Y16.5012 F60.00
G01 X12.7554 Y16.4979 F60.00
G01 X12.7698 Y16.4954 F60.00
G01 X12.9155 Y16.4738 F60.00
G01 X12.9300 Y16.4720 F60.00
G01 X12.9447 Y16.4710 F60.00
G01 X13.0918 Y16.4637 F60.00
G01 X13.1064 Y16.4634 F60.00
G01 X14.3510 Y16.4634 F60.00
G01 X14.3656 Y16.4637 F60.00
G01 X14.5127 Y16.4710 F60.00
G01 X14.5274 Y16.4720 F60.00
G01 X14.5419 Y16.4738 F60.00
G01 X14.6876 Y16.4954 F60.00
G01 X14.7020 Y16.4979 F60.00
G01 X14.7163 Y16.5012 F60.00
G01 X14.8663 Y16.5388 F60.00
G01 X14.8872 Y16.5454 F60.00
G01 X15.0259 Y16.5951 F60.00
G01 X15.0395 Y16.6003 F60.00
G01 X15.0529 Y16.6063 F60.00
G01 X15.1861 Y16.6692 F60.00
G01 X15.1991 Y16.6758 F60.00
G01 X15.2119 Y16.6830 F60.00
G01 X15.3382 Y16.7588 F60.00
G01 X15.3506 Y16.7666 F60.00
G01 X15.3626 Y16.7750 F60.00
G01 X15.4809 Y16.8628 F60.00
G01 X15.4924 Y16.8718 F60.00
G01 X15.5035 Y16.8813 F60.00
G01 X15.6126 Y16.9803 F60.00
G01 X15.6232 Y16.9904 F60.00
G01 X15.6333 Y17.0010 F60.00
G01 X15.7323 Y17.1101 F60.00
G01 X15.7418 Y17.1212 F60.00
G01 X15.7508 Y17.1327 F60.00
G01 X15.8386 Y17.2510 F60.00
G01 X15.8470 Y17.2630 F60.00
G01 X15.8548 Y17.2754 F60.00
G01 X15.9306 Y17.4017 F60.00
G01 X15.9378 Y17.4145 F60.00
G01 X15.9444 Y17.4275 F60.00
G01 X16.0073 Y17.5607 F60.00
G01 X16.0133 Y17.5741 F60.00
G01 X16.0185 Y17.5877 F60.00
G01 X16.0682 Y17.7264 F60.00
G01 X16.0728 Y17.7403 F60.00
G01 X16.0767 Y17.7544 F60.00
G01 X16.1124 Y17.8973 F60.00
G01 X16.1157 Y17.9116 F60.00
G01 X16.1182 Y17.9260 F60.00
G01 X16.1398 Y18.0717 F60.00
G01 X16.1416 Y18.0862 F60.00
G01 X16.1426 Y18.1009 F60.00
G01 X16.1499 Y18.2480 F60.00
G01 X16.1502 Y18.2626 F60.00
G01 X16.1499 Y18.2772 F60.00
G01 X16.1426 Y18.4243 F60.00
G01 X16.1416 Y18.4390 F60.00
G01 X16.1398 Y18.4535 F60.00
G01 X16.1182 Y18.5992 F60.00
G01 X16.1157 Y18.6136 F60.00
G01 X16.1124 Y18.6279 F60.00
G01 X16.0748 Y18.7779 F60.00
G01 X16.0682 Y18.7988 F60.00
G01 X16.0185 Y18.9375 F60.00
G01 X16.0133 Y18.9511 F60.00
G01 X16.0073 Y18.9645 F60.00
G01 X15.9444 Y19.0977 F60.00
G01 X15.9378 Y19.1107 F60.00
G01 X15.9306 Y19.1235 F60.00
G01 X15.8548 Y19.2498 F60.00
G01 X15.8470 Y19.2622 F60.00
G01 X15.8386 Y19.2742 F60.00
G01 X15.7508 Y19.3925 F60.00
G01 X15.7418 Y19.4040 F60.00
G01 X15.7323 Y19.4151 F60.00
G01 X15.6333 Y19.5242 F60.00
G01 X15.6232 Y19.5348 F60.00
G01 X15.6126 Y19.5449 F60.00
G01 X15.5035 Y19.6439 F60.00
G01 X15.4924 Y19.6534 F60.00
G01 X15.4809 Y19.6624 F60.00
G01 X15.3626 Y19.7502 F60.00
G01 X15.3506 Y19.7586 F60.00
G01 X15.3382 Y19.7664 F60.00
G01 X15.2056 Y19.8458 F60.00
G01 X15.1861 Y19.8560 F60.00
G01 X15.0529 Y19.9189 F60.00
G01 X15.0395 Y19.9249 F60.00
G01 X15.0259 Y19.9301 F60.00
G01 X14.8872 Y19.9798 F60.00
G01 X14.8733 Y19.9844 F60.00
G01 X14.8592 Y19.9883 F60.00
G01 X14.7163 Y20.0240 F60.00
G01 X14.7020 Y20.0273 F60.00
G01 X14.6876 Y20.0298 F60.00
G01 X14.5419 Y20.0514 F60.00
G01 X14.5274 Y20.0532 F60.00
G01 X14.5127 Y20.0542 F60.00
G01 X14.3656 Y20.0615 F60.00
G01 X14.3510 Y20.0618 F60.00
G01 X13.8517 Y20.0618 F60.00
G01 X13.3626 Y20.5508 F60.00
G01 X13.3520 Y20.5609 F60.00
G01 X13.2374 Y20.6647 F60.00
G01 X13.2203 Y20.6784 F60.00
G01 X13.1020 Y20.7662 F60.00
G01 X13.0900 Y20.7746 F60.00
G01 X13.0776 Y20.7824 F60.00
G01 X12.9450 Y20.8618 F60.00
G01 X12.9255 Y20.8720 F60.00
G01 X12.7923 Y20.9349 F60.00
G01 X12.7789 Y20.9409 F60.00
G01 X12.7653 Y20.9461 F60.00
G01 X12.6266 Y20.9958 F60.00
G01 X12.6127 Y21.0004 F60.00
G01 X12.5986 Y21.0043 F60.00
G01 X12.4557 Y21.0400 F60.00
G01 X12.4414 Y21.0433 F60.00
G01 X12.4270 Y21.0458 F60.00
G01 X12.2813 Y21.0674 F60.00
G01 X12.2668 Y21.0692 F60.00
G01 X12.2521 Y21.0702 F60.00
G01 X12.0977 Y21.0777 F60.00
G01 X9.1440 Y21.0778 F60.00
G01 X9.1294 Y21.0775 F60.00
G01 X8.9749 Y21.0698 F60.00
G01 X8.9531 Y21.0674 F60.00
G01 X8.8074 Y21.0458 F60.00
G01 X8.7930 Y21.0433 F60.00
G01 X8.7787 Y21.0400 F60.00
G01 X8.6358 Y21.0043 F60.00
G01 X8.6217 Y21.0004 F60.00
G01 X8.6078 Y20.9958 F60.00
G01 X8.4691 Y20.9461 F60.00
G01 X8.4555 Y20.9409 F60.00
G01 X8.4421 Y20.9349 F60.00
G01 X8.3089 Y20.8720 F60.00
G01 X8.2959 Y20.8654 F60.00
G01 X8.2831 Y20.8582 F60.00
G01 X8.1568 Y20.7824 F60.00
G01 X8.1444 Y20.7746 F60.00
G01 X8.1324 Y20.7662 F60.00
G01 X8.0141 Y20.6784 F60.00
G01 X7.9970 Y20.6647 F60.00
G01 X7.9762 Y20.6460 F60.00
G01 X5.7077 Y20.6459 F60.00
G01 X5.5533 Y20.6384 F60.00
G01 X5.5386 Y20.6374 F60.00
G01 X5.5241 Y20.6356 F60.00
G01 X5.3784 Y20.6140 F60.00
G01 X5.3568 Y20.6099 F60.00
G01 X5.2068 Y20.5725 F60.00
G01 X5.1927 Y20.5686 F60.00
G01 X5.1788 Y20.5640 F60.00
G01 X5.0401 Y20.5143 F60.00
G01 X5.0265 Y20.5091 F60.00
G01 X5.0131 Y20.5031 F60.00
G01 X4.8799 Y20.4402 F60.00
G01 X4.8669 Y20.4336 F60.00
G01 X4.8541 Y20.4264 F60.00
G01 X4.7278 Y20.3506 F60.00
G01 X4.7154 Y20.3428 F60.00
G01 X4.7034 Y20.3344 F60.00
G01 X4.5851 Y20.2466 F60.00
G01 X4.5736 Y20.2376 F60.00
G01 X4.5625 Y20.2281 F60.00
G01 X4.4534 Y20.1291 F60.00
G01 X4.4428 Y20.1190 F60.00
G01 X4.4327 Y20.1084 F60.00
G01 X4.3337 Y19.9993 F60.00
G01 X4.3242 Y19.9882 F60.00
G01 X4.3152 Y19.9767 F60.00
G01 X4.2274 Y19.8584 F60.00
G01 X4.2190 Y19.8464 F60.00
G01 X4.2112 Y19.8340 F60.00
G01 X4.1354 Y19.7077 F60.00
G01 X4.1282 Y19.6949 F60.00
G01 X4.1216 Y19.6819 F60.00
G01 X4.0587 Y19.5487 F60.00
G01 X4.0527 Y19.5353 F60.00
G01 X4.0475 Y19.5217 F60.00
G01 X3.9978 Y19.3830 F60.00
G01 X3.9932 Y19.3691 F60.00
G01 X3.9893 Y19.3550 F60.00
G01 X3.9519 Y19.2050 F60.00
G01 X3.9478 Y19.1834 F60.00
G01 X3.9262 Y19.0377 F60.00
G01 X3.9244 Y19.0232 F60.00
G01 X3.9234 Y19.0085 F60.00
G01 X3.9161 Y18.8614 F60.00
G01 X3.9158 Y18.8468 F60.00
G01 X3.9161 Y18.8322 F60.00
G01 X3.9234 Y18.6851 F60.00
G01 X3.9244 Y18.6704 F60.00
G01 X3.9262 Y18.6559 F60.00
G01 X3.9478 Y18.5102 F60.00
G01 X3.9503 Y18.4958 F60.00
G01 X3.9536 Y18.4815 F60.00
G01 X3.9893 Y18.3386 F60.00
G01 X3.9932 Y18.3245 F60.00
G01 X3.9978 Y18.3106 F60.00
G01 X4.0475 Y18.1719 F60.00
G01 X4.0527 Y18.1583 F60.00
G01 X4.0587 Y18.1449 F60.00
G01 X4.1216 Y18.0117 F60.00
G01 X4.1282 Y17.9987 F60.00
G01 X4.1354 Y17.9859 F60.00
G01 X4.2112 Y17.8596 F60.00
G01 X4.2190 Y17.8472 F60.00
G01 X4.2274 Y17.8352 F60.00
G01 X4.3152 Y17.7169 F60.00
G01 X4.3242 Y17.7054 F60.00
G01 X4.3337 Y17.6943 F60.00
G01 X4.4327 Y17.5852 F60.00
G01 X4.4428 Y17.5746 F60.00
G01 X4.4534 Y17.5645 F60.00
G01 X4.5625 Y17.4655 F60.00
G01 X4.5736 Y17.4560 F60.00
G01 X4.5851 Y17.4470 F60.00
G01 X4.7034 Y17.3592 F60.00
G01 X4.7154 Y17.3508 F60.00
G01 X4.7278 Y17.3430 F60.00
G01 X4.8541 Y17.2672 F60.00
G01 X4.8669 Y17.2600 F60.00
G01 X4.8799 Y17.2534 F60.00
G01 X5.0131 Y17.1905 F60.00
G01 X5.0265 Y17.1845 F60.00
G01 X5.0401 Y17.1793 F60.00
G01 X5.1788 Y17.1296 F60.00
G01 X5.1927 Y17.1250 F60.00
G01 X5.2068 Y17.1211 F60.00
G01 X5.3568 Y17.0837 F60.00
G01 X5.3784 Y17.0796 F60.00
G01 X5.5241 Y17.0580 F60.00
G01 X5.5386 Y17.0562 F60.00
G01 X5.5533 Y17.0552 F60.00
G01 X5.7004 Y17.0479 F60.00
G01 X5.7150 Y17.0476 F60.00
G01 X8.7122 Y17.0476 F60.00
G01 X8.7268 Y17.0479 F60.00
G01 X8.8813 Y17.0556 F60.00
G01 X8.9031 Y17.0580 F60.00
G01 X9.0488 Y17.0796 F60.00
G01 X9.0632 Y17.0821 F60.00
G01 X9.0775 Y17.0854 F60.00
G01 X9.2204 Y17.1211 F60.00
G01 X9.2345 Y17.1250 F60.00
G01 X9.2484 Y17.1296 F60.00
G01 X9.3871 Y17.1793 F60.00
G01 X9.4007 Y17.1845 F60.00
G01 X9.4141 Y17.1905 F60.00
G01 X9.5473 Y17.2534 F60.00
G01 X9.5603 Y17.2600 F60.00
G01 X9.5731 Y17.2672 F60.00
G01 X9.6994 Y17.3430 F60.00
G01 X9.7118 Y17.3508 F60.00
G01 X9.7238 Y17.3592 F60.00
G01 X9.8421 Y17.4470 F60.00
G01 X9.8592 Y17.4607 F60.00
G01 X9.8800 Y17.4794 F60.00
G01 X11.3451 Y17.4794 F60.00
G00 Z3.0000
G00 X11.4246 Y17.6713
G01 F60.00
G01 Z-0.0980
G01 F60.00
G01 X11.9698 Y17.1260 F60.00
G01 X12.0827 Y17.0235 F60.00
G01 X12.0888 Y17.0185 F60.00
G01 X12.2134 Y16.9261 F60.00
G01 X12.3487 Y16.8450 F60.00
G01 X12.4913 Y16.7776 F60.00
G01 X12.6398 Y16.7245 F60.00
G01 X12.7877 Y16.6873 F60.00
G01 X12.7980 Y16.6852 F60.00
G01 X12.9489 Y16.6630 F60.00
G01 X13.1038 Y16.6553 F60.00
G01 X14.3536 Y16.6553 F60.00
G01 X14.5085 Y16.6630 F60.00
G01 X14.6646 Y16.6861 F60.00
G01 X14.8176 Y16.7245 F60.00
G01 X14.9661 Y16.7776 F60.00
G01 X15.1087 Y16.8450 F60.00
G01 X15.2440 Y16.9261 F60.00
G01 X15.3707 Y17.0201 F60.00
G01 X15.4876 Y17.1260 F60.00
G01 X15.5935 Y17.2429 F60.00
G01 X15.6875 Y17.3696 F60.00
G01 X15.7686 Y17.5049 F60.00
G01 X15.8360 Y17.6475 F60.00
G01 X15.8891 Y17.7960 F60.00
G01 X15.9275 Y17.9490 F60.00
G01 X15.9506 Y18.1051 F60.00
G01 X15.9583 Y18.2626 F60.00
G01 X15.9506 Y18.4201 F60.00
G01 X15.9275 Y18.5762 F60.00
G01 X15.8891 Y18.7292 F60.00
G01 X15.8360 Y18.8777 F60.00
G01 X15.7686 Y19.0203 F60.00
G01 X15.6875 Y19.1556 F60.00
G01 X15.5935 Y19.2823 F60.00
G01 X15.4876 Y19.3992 F60.00
G01 X15.3707 Y19.5051 F60.00
G01 X15.2483 Y19.5960 F60.00
G01 X15.2418 Y19.6005 F60.00
G01 X15.1087 Y19.6802 F60.00
G01 X14.9661 Y19.7476 F60.00
G01 X14.8176 Y19.8007 F60.00
G01 X14.6697 Y19.8379 F60.00
G01 X14.6620 Y19.8395 F60.00
G01 X14.5085 Y19.8622 F60.00
G01 X14.3536 Y19.8699 F60.00
G01 X13.7722 Y19.8699 F60.00
G01 X13.2251 Y20.4170 F60.00
G01 X13.1101 Y20.5211 F60.00
G01 X12.9834 Y20.6151 F60.00
G01 X12.8526 Y20.6936 F60.00
G01 X12.8434 Y20.6985 F60.00
G01 X12.7055 Y20.7636 F60.00
G01 X12.5620 Y20.8151 F60.00
G01 X12.5519 Y20.8181 F60.00
G01 X12.4040 Y20.8551 F60.00
G01 X12.2531 Y20.8776 F60.00
G01 X12.2427 Y20.8786 F60.00
G01 X12.0904 Y20.8859 F60.00
G01 X9.1440 Y20.8859 F60.00
G01 X8.9891 Y20.8784 F60.00
G01 X8.9813 Y20.8776 F60.00
G01 X8.8356 Y20.8560 F60.00
G01 X8.8253 Y20.8539 F60.00
G01 X8.6774 Y20.8167 F60.00
G01 X8.5338 Y20.7655 F60.00
G01 X8.5265 Y20.7626 F60.00
G01 X8.3863 Y20.6962 F60.00
G01 X8.2532 Y20.6165 F60.00
G01 X8.2467 Y20.6120 F60.00
G01 X8.1264 Y20.5227 F60.00
G01 X8.1203 Y20.5177 F60.00
G01 X8.0503 Y20.4541 F60.00
G01 X5.7150 Y20.4541 F60.00
G01 X5.5575 Y20.4464 F60.00
G01 X5.4066 Y20.4242 F60.00
G01 X5.3989 Y20.4227 F60.00
G01 X5.2484 Y20.3849 F60.00
G01 X5.1048 Y20.3337 F60.00
G01 X5.0951 Y20.3297 F60.00
G01 X4.9573 Y20.2644 F60.00
G01 X4.8264 Y20.1861 F60.00
G01 X4.8177 Y20.1802 F60.00
G01 X4.6953 Y20.0893 F60.00
G01 X4.5784 Y19.9834 F60.00
G01 X4.4725 Y19.8665 F60.00
G01 X4.3816 Y19.7441 F60.00
G01 X4.3757 Y19.7354 F60.00
G01 X4.2974 Y19.6045 F60.00
G01 X4.2300 Y19.4619 F60.00
G01 X4.1785 Y19.3184 F60.00
G01 X4.1755 Y19.3083 F60.00
G01 X4.1385 Y19.1604 F60.00
G01 X4.1154 Y19.0043 F60.00
G01 X4.1077 Y18.8468 F60.00
G01 X4.1154 Y18.6893 F60.00
G01 X4.1385 Y18.5332 F60.00
G01 X4.1769 Y18.3802 F60.00
G01 X4.2300 Y18.2317 F60.00
G01 X4.2974 Y18.0891 F60.00
G01 X4.3785 Y17.9538 F60.00
G01 X4.4725 Y17.8271 F60.00
G01 X4.5784 Y17.7102 F60.00
G01 X4.6953 Y17.6043 F60.00
G01 X4.8220 Y17.5103 F60.00
G01 X4.9573 Y17.4292 F60.00
G01 X5.0999 Y17.3618 F60.00
G01 X5.2484 Y17.3087 F60.00
G01 X5.4014 Y17.2703 F60.00
G01 X5.5575 Y17.2472 F60.00
G01 X5.7150 Y17.2395 F60.00
G01 X8.7122 Y17.2395 F60.00
G01 X8.8671 Y17.2470 F60.00
G01 X8.8749 Y17.2478 F60.00
G01 X9.0206 Y17.2694 F60.00
G01 X9.0309 Y17.2715 F60.00
G01 X9.1788 Y17.3087 F60.00
G01 X9.3224 Y17.3599 F60.00
G01 X9.3297 Y17.3628 F60.00
G01 X9.4699 Y17.4292 F60.00
G01 X9.6030 Y17.5089 F60.00
G01 X9.6095 Y17.5134 F60.00
G01 X9.7298 Y17.6027 F60.00
G01 X9.7359 Y17.6077 F60.00
G01 X9.8059 Y17.6713 F60.00
G01 X11.4246 Y17.6713 F60.00
G00 Z3.0000
G00 X8.0911 Y15.1737
G01 F60.00
G01 Z-0.0980
G01 F60.00
G01 X5.7150 Y15.1737 F60.00
G01 X5.6909 Y15.1731 F60.00
G01 X5.5438 Y15.1659 F60.00
G01 X5.5318 Y15.1651 F60.00
G01 X5.5079 Y15.1628 F60.00
G01 X5.3503 Y15.1396 F60.00
G01 X5.3266 Y15.1354 F60.00
G01 X5.3031 Y15.1302 F60.00
G01 X5.1602 Y15.0944 F60.00
G01 X5.1370 Y15.0880 F60.00
G01 X5.1142 Y15.0804 F60.00
G01 X4.9755 Y15.0308 F60.00
G01 X4.9530 Y15.0221 F60.00
G01 X4.9310 Y15.0124 F60.00
G01 X4.7979 Y14.9494 F60.00
G01 X4.7764 Y14.9386 F60.00
G01 X4.7555 Y14.9267 F60.00
G01 X4.6291 Y14.8510 F60.00
G01 X4.6088 Y14.8381 F60.00
G01 X4.5891 Y14.8243 F60.00
G01 X4.4708 Y14.7366 F60.00
G01 X4.4519 Y14.7217 F60.00
G01 X4.4336 Y14.7060 F60.00
G01 X4.3245 Y14.6071 F60.00
G01 X4.3071 Y14.5905 F60.00
G01 X4.2905 Y14.5731 F60.00
G01 X4.1916 Y14.4640 F60.00
G01 X4.1759 Y14.4457 F60.00
G01 X4.1610 Y14.4268 F60.00
G01 X4.0733 Y14.3085 F60.00
G01 X4.0595 Y14.2888 F60.00
G01 X4.0466 Y14.2685 F60.00
G01 X3.9709 Y14.1421 F60.00
G01 X3.9590 Y14.1212 F60.00
G01 X3.9482 Y14.0997 F60.00
G01 X3.8852 Y13.9666 F60.00
G01 X3.8755 Y13.9446 F60.00
G01 X3.8668 Y13.9221 F60.00
G01 X3.8172 Y13.7834 F60.00
G01 X3.8096 Y13.7606 F60.00
G01 X3.8032 Y13.7374 F60.00
G01 X3.7674 Y13.5945 F60.00
G01 X3.7622 Y13.5710 F60.00
G01 X3.7580 Y13.5473 F60.00
G01 X3.7364 Y13.4016 F60.00
G01 X3.7335 Y13.3778 F60.00
G01 X3.7317 Y13.3538 F60.00
G01 X3.7245 Y13.2067 F60.00
G01 X3.7239 Y13.1826 F60.00
G01 X3.7245 Y13.1585 F60.00
G01 X3.7317 Y13.0114 F60.00
G01 X3.7335 Y12.9874 F60.00
G01 X3.7364 Y12.9636 F60.00
G01 X3.7580 Y12.8179 F60.00
G01 X3.7622 Y12.7942 F60.00
G01 X3.7674 Y12.7707 F60.00
G01 X3.8032 Y12.6278 F60.00
G01 X3.8096 Y12.6046 F60.00
G01 X3.8172 Y12.5818 F60.00
G01 X3.8668 Y12.4431 F60.00
G01 X3.8755 Y12.4206 F60.00
G01 X3.8852 Y12.3986 F60.00
G01 X3.9482 Y12.2655 F60.00
G01 X3.9590 Y12.2440 F60.00
G01 X3.9709 Y12.2231 F60.00
G01 X4.0466 Y12.0967 F60.00
G01 X4.0595 Y12.0764 F60.00
G01 X4.0733 Y12.0567 F60.00
G01 X4.1610 Y11.9384 F60.00
G01 X4.1759 Y11.9195 F60.00
G01 X4.1916 Y11.9012 F60.00
G01 X4.2905 Y11.7921 F60.00
G01 X4.3071 Y11.7747 F60.00
G01 X4.3245 Y11.7581 F60.00
G01 X4.4336 Y11.6592 F60.00
G01 X4.4519 Y11.6435 F60.00
G01 X4.4708 Y11.6286 F60.00
G01 X4.5891 Y11.5409 F60.00
G01 X4.6088 Y11.5271 F60.00
G01 X4.6291 Y11.5142 F60.00
G01 X4.7555 Y11.4385 F60.00
G01 X4.7764 Y11.4266 F60.00
G01 X4.7979 Y11.4158 F60.00
G01 X4.9310 Y11.3528 F60.00
G01 X4.9530 Y11.3431 F60.00
G01 X4.9755 Y11.3344 F60.00
G01 X5.1142 Y11.2848 F60.00
G01 X5.1370 Y11.2772 F60.00
G01 X5.1602 Y11.2708 F60.00
G01 X5.3031 Y11.2350 F60.00
G01 X5.3266 Y11.2298 F60.00
G01 X5.3503 Y11.2256 F60.00
G01 X5.4960 Y11.2040 F60.00
G01 X5.5198 Y11.2011 F60.00
G01 X5.5438 Y11.1993 F60.00
G01 X5.6909 Y11.1921 F60.00
G01 X5.7150 Y11.1915 F60.00
G01 X8.8004 Y11.1916 F60.00
G01 X8.9596 Y11.1993 F60.00
G01 X8.9836 Y11.2011 F60.00
G01 X9.0074 Y11.2040 F60.00
G01 X9.1531 Y11.2256 F60.00
G01 X9.1768 Y11.2298 F60.00
G01 X9.2003 Y11.2350 F60.00
G01 X9.3432 Y11.2708 F60.00
G01 X9.3664 Y11.2772 F60.00
G01 X9.3892 Y11.2848 F60.00
G01 X9.5279 Y11.3344 F60.00
G01 X9.5504 Y11.3431 F60.00
G01 X9.5724 Y11.3528 F60.00
G01 X9.7143 Y11.4201 F60.00
G01 X12.0904 Y11.4201 F60.00
G01 X12.1270 Y11.4205 F60.00
G01 X12.2003 Y11.4249 F60.00
G01 X12.2736 Y11.4287 F60.00
G01 X12.3220 Y11.4337 F60.00
G01 X12.3944 Y11.4452 F60.00
G01 X12.4551 Y11.4542 F60.00
G01 X12.4788 Y11.4584 F60.00
G01 X12.5147 Y11.4659 F60.00
G01 X12.5857 Y11.4845 F60.00
G01 X12.6452 Y11.4994 F60.00
G01 X12.6684 Y11.5058 F60.00
G01 X12.7033 Y11.5169 F60.00
G01 X12.7721 Y11.5423 F60.00
G01 X12.8299 Y11.5630 F60.00
G01 X12.8524 Y11.5717 F60.00
G01 X12.8860 Y11.5861 F60.00
G01 X12.9520 Y11.6181 F60.00
G01 X13.0075 Y11.6444 F60.00
G01 X13.0290 Y11.6552 F60.00
G01 X13.0611 Y11.6729 F60.00
G01 X13.1236 Y11.7112 F60.00
G01 X13.1865 Y11.7491 F60.00
G01 X13.2268 Y11.7764 F60.00
G01 X13.2853 Y11.8207 F60.00
G01 X13.3346 Y11.8572 F60.00
G01 X13.3535 Y11.8721 F60.00
G01 X13.3816 Y11.8956 F60.00
G01 X13.4354 Y11.9455 F60.00
G01 X13.4897 Y11.9949 F60.00
G01 X13.5156 Y12.0208 F60.00
G01 X13.9456 Y12.4615 F60.00
G01 X14.3510 Y12.4615 F60.00
G01 X14.3751 Y12.4621 F60.00
G01 X14.5222 Y12.4693 F60.00
G01 X14.5462 Y12.4711 F60.00
G01 X14.5700 Y12.4740 F60.00
G01 X14.7276 Y12.4976 F60.00
G01 X14.7512 Y12.5022 F60.00
G01 X14.7629 Y12.5050 F60.00
G01 X14.9058 Y12.5408 F60.00
G01 X14.9290 Y12.5472 F60.00
G01 X14.9518 Y12.5548 F60.00
G01 X15.0905 Y12.6044 F60.00
G01 X15.1130 Y12.6131 F60.00
G01 X15.1350 Y12.6228 F60.00
G01 X15.2789 Y12.6911 F60.00
G01 X15.2896 Y12.6966 F60.00
G01 X15.3105 Y12.7085 F60.00
G01 X15.4369 Y12.7842 F60.00
G01 X15.4572 Y12.7971 F60.00
G01 X15.4769 Y12.8109 F60.00
G01 X15.5952 Y12.8986 F60.00
G01 X15.6141 Y12.9135 F60.00
G01 X15.6324 Y12.9292 F60.00
G01 X15.7415 Y13.0281 F60.00
G01 X15.7589 Y13.0447 F60.00
G01 X15.7755 Y13.0621 F60.00
G01 X15.8744 Y13.1712 F60.00
G01 X15.8901 Y13.1895 F60.00
G01 X15.9050 Y13.2084 F60.00
G01 X15.9927 Y13.3267 F60.00
G01 X16.0065 Y13.3464 F60.00
G01 X16.0194 Y13.3667 F60.00
G01 X16.0951 Y13.4931 F60.00
G01 X16.1070 Y13.5140 F60.00
G01 X16.1178 Y13.5355 F60.00
G01 X16.1808 Y13.6686 F60.00
G01 X16.1905 Y13.6906 F60.00
G01 X16.1992 Y13.7131 F60.00
G01 X16.2488 Y13.8518 F60.00
G01 X16.2564 Y13.8746 F60.00
G01 X16.2628 Y13.8978 F60.00
G01 X16.2986 Y14.0407 F60.00
G01 X16.3038 Y14.0642 F60.00
G01 X16.3080 Y14.0879 F60.00
G01 X16.3312 Y14.2455 F60.00
G01 X16.3325 Y14.2574 F60.00
G01 X16.3343 Y14.2814 F60.00
G01 X16.3415 Y14.4285 F60.00
G01 X16.3421 Y14.4526 F60.00
G01 X16.3415 Y14.4767 F60.00
G01 X16.3343 Y14.6238 F60.00
G01 X16.3325 Y14.6478 F60.00
G01 X16.3296 Y14.6716 F60.00
G01 X16.3080 Y14.8173 F60.00
G01 X16.3038 Y14.8410 F60.00
G01 X16.2986 Y14.8645 F60.00
G01 X16.2628 Y15.0074 F60.00
G01 X16.2564 Y15.0306 F60.00
G01 X16.2488 Y15.0534 F60.00
G01 X16.1992 Y15.1921 F60.00
G01 X16.1905 Y15.2146 F60.00
G01 X16.1808 Y15.2366 F60.00
G01 X16.1178 Y15.3697 F60.00
G01 X16.1070 Y15.3912 F60.00
G01 X16.0951 Y15.4121 F60.00
G01 X16.0194 Y15.5385 F60.00
G01 X16.0065 Y15.5588 F60.00
G01 X15.9927 Y15.5785 F60.00
G01 X15.9050 Y15.6968 F60.00
G01 X15.8901 Y15.7157 F60.00
G01 X15.8744 Y15.7340 F60.00
G01 X15.7755 Y15.8431 F60.00
G01 X15.7589 Y15.8605 F60.00
G01 X15.7415 Y15.8771 F60.00
G01 X15.6324 Y15.9760 F60.00
G01 X15.6141 Y15.9917 F60.00
G01 X15.5952 Y16.0066 F60.00
G01 X15.4769 Y16.0943 F60.00
G01 X15.4572 Y16.1081 F60.00
G01 X15.4369 Y16.1210 F60.00
G01 X15.3105 Y16.1967 F60.00
G01 X15.2896 Y16.2086 F60.00
G01 X15.2681 Y16.2194 F60.00
G01 X15.1350 Y16.2824 F60.00
G01 X15.1130 Y16.2921 F60.00
G01 X15.0905 Y16.3008 F60.00
G01 X14.9518 Y16.3504 F60.00
G01 X14.9302 Y16.3576 F60.00
G01 X14.9518 Y16.3648 F60.00
G01 X15.0905 Y16.4144 F60.00
G01 X15.1130 Y16.4231 F60.00
G01 X15.1350 Y16.4328 F60.00
G01 X15.2681 Y16.4958 F60.00
G01 X15.2896 Y16.5066 F60.00
G01 X15.3105 Y16.5185 F60.00
G01 X15.4369 Y16.5942 F60.00
G01 X15.4572 Y16.6071 F60.00
G01 X15.4769 Y16.6209 F60.00
G01 X15.5952 Y16.7086 F60.00
G01 X15.6141 Y16.7235 F60.00
G01 X15.6324 Y16.7392 F60.00
G01 X15.7415 Y16.8381 F60.00
G01 X15.7589 Y16.8547 F60.00
G01 X15.7755 Y16.8721 F60.00
G01 X15.8744 Y16.9812 F60.00
G01 X15.8901 Y16.9995 F60.00
G01 X15.9050 Y17.0184 F60.00
G01 X15.9927 Y17.1367 F60.00
G01 X16.0065 Y17.1564 F60.00
G01 X16.0194 Y17.1767 F60.00
G01 X16.0951 Y17.3031 F60.00
G01 X16.1070 Y17.3240 F60.00
G01 X16.1178 Y17.3455 F60.00
G01 X16.1808 Y17.4786 F60.00
G01 X16.1905 Y17.5006 F60.00
G01 X16.1992 Y17.5231 F60.00
G01 X16.2488 Y17.6618 F60.00
G01 X16.2564 Y17.6846 F60.00
G01 X16.2628 Y17.7078 F60.00
G01 X16.2986 Y17.8507 F60.00
G01 X16.3038 Y17.8742 F60.00
G01 X16.3080 Y17.8979 F60.00
G01 X16.3296 Y18.0436 F60.00
G01 X16.3325 Y18.0674 F60.00
G01 X16.3343 Y18.0914 F60.00
G01 X16.3415 Y18.2385 F60.00
G01 X16.3421 Y18.2626 F60.00
G01 X16.3415 Y18.2867 F60.00
G01 X16.3343 Y18.4338 F60.00
G01 X16.3325 Y18.4578 F60.00
G01 X16.3296 Y18.4816 F60.00
G01 X16.3080 Y18.6273 F60.00
G01 X16.3038 Y18.6510 F60.00
G01 X16.2986 Y18.6745 F60.00
G01 X16.2628 Y18.8174 F60.00
G01 X16.2564 Y18.8406 F60.00
G01 X16.2488 Y18.8634 F60.00
G01 X16.1992 Y19.0021 F60.00
G01 X16.1905 Y19.0246 F60.00
G01 X16.1808 Y19.0466 F60.00
G01 X16.1125 Y19.1905 F60.00
G01 X16.1012 Y19.2117 F60.00
G01 X16.0951 Y19.2221 F60.00
G01 X16.0194 Y19.3485 F60.00
G01 X16.0065 Y19.3688 F60.00
G01 X15.9927 Y19.3885 F60.00
G01 X15.9050 Y19.5068 F60.00
G01 X15.8901 Y19.5257 F60.00
G01 X15.8744 Y19.5440 F60.00
G01 X15.7755 Y19.6531 F60.00
G01 X15.7589 Y19.6705 F60.00
G01 X15.7415 Y19.6871 F60.00
G01 X15.6324 Y19.7860 F60.00
G01 X15.6141 Y19.8017 F60.00
G01 X15.5952 Y19.8166 F60.00
G01 X15.4769 Y19.9043 F60.00
G01 X15.4572 Y19.9181 F60.00
G01 X15.4369 Y19.9310 F60.00
G01 X15.3105 Y20.0067 F60.00
G01 X15.2896 Y20.0186 F60.00
G01 X15.2681 Y20.0294 F60.00
G01 X15.1350 Y20.0924 F60.00
G01 X15.1130 Y20.1021 F60.00
G01 X15.0905 Y20.1108 F60.00
G01 X14.9518 Y20.1604 F60.00
G01 X14.9290 Y20.1680 F60.00
G01 X14.9058 Y20.1744 F60.00
G01 X14.7629 Y20.2102 F60.00
G01 X14.7394 Y20.2154 F60.00
G01 X14.7276 Y20.2176 F60.00
G01 X14.5700 Y20.2412 F60.00
G01 X14.5462 Y20.2441 F60.00
G01 X14.5222 Y20.2459 F60.00
G01 X14.3751 Y20.2531 F60.00
G01 X14.3510 Y20.2537 F60.00
G01 X13.9311 Y20.2537 F60.00
G01 X13.4983 Y20.6865 F60.00
G01 X13.4809 Y20.7031 F60.00
G01 X13.3718 Y20.8020 F60.00
G01 X13.3535 Y20.8177 F60.00
G01 X13.3346 Y20.8326 F60.00
G01 X13.2163 Y20.9203 F60.00
G01 X13.1966 Y20.9341 F60.00
G01 X13.1763 Y20.9470 F60.00
G01 X13.0499 Y21.0227 F60.00
G01 X13.0290 Y21.0346 F60.00
G01 X13.0075 Y21.0454 F60.00
G01 X12.8744 Y21.1084 F60.00
G01 X12.8524 Y21.1181 F60.00
G01 X12.8299 Y21.1268 F60.00
G01 X12.6912 Y21.1764 F60.00
G01 X12.6684 Y21.1840 F60.00
G01 X12.6452 Y21.1904 F60.00
G01 X12.5023 Y21.2262 F60.00
G01 X12.4788 Y21.2314 F60.00
G01 X12.4551 Y21.2356 F60.00
G01 X12.2975 Y21.2588 F60.00
G01 X12.2736 Y21.2611 F60.00
G01 X12.2616 Y21.2619 F60.00
G01 X12.1145 Y21.2691 F60.00
G01 X12.0904 Y21.2697 F60.00
G01 X9.1440 Y21.2697 F60.00
G01 X9.1199 Y21.2691 F60.00
G01 X8.9728 Y21.2619 F60.00
G01 X8.9488 Y21.2601 F60.00
G01 X8.9250 Y21.2572 F60.00
G01 X8.7793 Y21.2356 F60.00
G01 X8.7556 Y21.2314 F60.00
G01 X8.7321 Y21.2262 F60.00
G01 X8.5892 Y21.1904 F60.00
G01 X8.5660 Y21.1840 F60.00
G01 X8.5432 Y21.1764 F60.00
G01 X8.4045 Y21.1268 F60.00
G01 X8.3820 Y21.1181 F60.00
G01 X8.3600 Y21.1084 F60.00
G01 X8.2269 Y21.0454 F60.00
G01 X8.2054 Y21.0346 F60.00
G01 X8.1845 Y21.0227 F60.00
G01 X8.0581 Y20.9470 F60.00
G01 X8.0378 Y20.9341 F60.00
G01 X8.0181 Y20.9203 F60.00
G01 X7.9070 Y20.8379 F60.00
G01 X5.7150 Y20.8379 F60.00
G01 X5.6909 Y20.8373 F60.00
G01 X5.5438 Y20.8301 F60.00
G01 X5.5198 Y20.8283 F60.00
G01 X5.4960 Y20.8254 F60.00
G01 X5.3503 Y20.8038 F60.00
G01 X5.3266 Y20.7996 F60.00
G01 X5.3031 Y20.7944 F60.00
G01 X5.1602 Y20.7586 F60.00
G01 X5.1370 Y20.7522 F60.00
G01 X5.1142 Y20.7446 F60.00
G01 X4.9755 Y20.6950 F60.00
G01 X4.9530 Y20.6863 F60.00
G01 X4.9310 Y20.6766 F60.00
G01 X4.7979 Y20.6136 F60.00
G01 X4.7764 Y20.6028 F60.00
G01 X4.7555 Y20.5909 F60.00
G01 X4.6291 Y20.5152 F60.00
G01 X4.6088 Y20.5023 F60.00
G01 X4.5891 Y20.4885 F60.00
G01 X4.4708 Y20.4008 F60.00
G01 X4.4519 Y20.3859 F60.00
G01 X4.4336 Y20.3702 F60.00
G01 X4.3245 Y20.2713 F60.00
G01 X4.3071 Y20.2547 F60.00
G01 X4.2905 Y20.2373 F60.00
G01 X4.1916 Y20.1282 F60.00
G01 X4.1759 Y20.1099 F60.00
G01 X4.1610 Y20.0910 F60.00
G01 X4.0733 Y19.9727 F60.00
G01 X4.0595 Y19.9530 F60.00
G01 X4.0466 Y19.9327 F60.00
G01 X3.9709 Y19.8063 F60.00
G01 X3.9590 Y19.7854 F60.00
G01 X3.9482 Y19.7639 F60.00
G01 X3.8852 Y19.6308 F60.00
G01 X3.8755 Y19.6088 F60.00
G01 X3.8668 Y19.5863 F60.00
G01 X3.8172 Y19.4476 F60.00
G01 X3.8096 Y19.4248 F60.00
G01 X3.8032 Y19.4016 F60.00
G01 X3.7674 Y19.2587 F60.00
G01 X3.7622 Y19.2352 F60.00
G01 X3.7580 Y19.2115 F60.00
G01 X3.7364 Y19.0658 F60.00
G01 X3.7335 Y19.0420 F60.00
G01 X3.7317 Y19.0180 F60.00
G01 X3.7245 Y18.8709 F60.00
G01 X3.7239 Y18.8468 F60.00
G01 X3.7245 Y18.8227 F60.00
G01 X3.7317 Y18.6756 F60.00
G01 X3.7335 Y18.6516 F60.00
G01 X3.7364 Y18.6278 F60.00
G01 X3.7580 Y18.4821 F60.00
G01 X3.7622 Y18.4584 F60.00
G01 X3.7674 Y18.4349 F60.00
G01 X3.8032 Y18.2920 F60.00
G01 X3.8096 Y18.2688 F60.00
G01 X3.8172 Y18.2460 F60.00
G01 X3.8668 Y18.1073 F60.00
G01 X3.8755 Y18.0848 F60.00
G01 X3.8852 Y18.0628 F60.00
G01 X3.9482 Y17.9297 F60.00
G01 X3.9590 Y17.9082 F60.00
G01 X3.9709 Y17.8873 F60.00
G01 X4.0466 Y17.7609 F60.00
G01 X4.0595 Y17.7406 F60.00
G01 X4.0733 Y17.7209 F60.00
G01 X4.1610 Y17.6026 F60.00
G01 X4.1759 Y17.5837 F60.00
G01 X4.1916 Y17.5654 F60.00
G01 X4.2905 Y17.4563 F60.00
G01 X4.3071 Y17.4389 F60.00
G01 X4.3245 Y17.4223 F60.00
G01 X4.4336 Y17.3234 F60.00
G01 X4.4519 Y17.3077 F60.00
G01 X4.4708 Y17.2928 F60.00
G01 X4.5891 Y17.2051 F60.00
G01 X4.6088 Y17.1913 F60.00
G01 X4.6291 Y17.1784 F60.00
G01 X4.7555 Y17.1027 F60.00
G01 X4.7764 Y17.0908 F60.00
G01 X4.7979 Y17.0800 F60.00
G01 X4.9310 Y17.0170 F60.00
G01 X4.9530 Y17.0073 F60.00
G01 X4.9755 Y16.9986 F60.00
G01 X5.1142 Y16.9490 F60.00
G01 X5.1370 Y16.9414 F60.00
G01 X5.1602 Y16.9350 F60.00
G01 X5.3031 Y16.8992 F60.00
G01 X5.3266 Y16.8940 F60.00
G01 X5.3503 Y16.8898 F60.00
G01 X5.4960 Y16.8682 F60.00
G01 X5.5198 Y16.8653 F60.00
G01 X5.5438 Y16.8635 F60.00
G01 X5.6909 Y16.8563 F60.00
G01 X5.7150 Y16.8557 F60.00
G01 X8.7242 Y16.8558 F60.00
G01 X8.8834 Y16.8635 F60.00
G01 X8.9074 Y16.8653 F60.00
G01 X8.9312 Y16.8682 F60.00
G01 X9.0769 Y16.8898 F60.00
G01 X9.1006 Y16.8940 F60.00
G01 X9.1241 Y16.8992 F60.00
G01 X9.2670 Y16.9350 F60.00
G01 X9.2902 Y16.9414 F60.00
G01 X9.3130 Y16.9490 F60.00
G01 X9.4517 Y16.9986 F60.00
G01 X9.4742 Y17.0073 F60.00
G01 X9.4962 Y17.0170 F60.00
G01 X9.6293 Y17.0800 F60.00
G01 X9.6508 Y17.0908 F60.00
G01 X9.6717 Y17.1027 F60.00
G01 X9.7981 Y17.1784 F60.00
G01 X9.8184 Y17.1913 F60.00
G01 X9.8381 Y17.2051 F60.00
G01 X9.9492 Y17.2875 F60.00
G01 X11.2657 Y17.2875 F60.00
G01 X11.7071 Y16.8463 F60.00
G01 X11.8250 Y16.7392 F60.00
G01 X11.8433 Y16.7235 F60.00
G01 X11.8622 Y16.7086 F60.00
G01 X11.9805 Y16.6209 F60.00
G01 X12.0002 Y16.6071 F60.00
G01 X12.0205 Y16.5942 F60.00
G01 X12.1469 Y16.5185 F60.00
G01 X12.1678 Y16.5066 F60.00
G01 X12.1893 Y16.4958 F60.00
G01 X12.3224 Y16.4328 F60.00
G01 X12.3444 Y16.4231 F60.00
G01 X12.3669 Y16.4144 F60.00
G01 X12.5056 Y16.3648 F60.00
G01 X12.5274 Y16.3576 F60.00
G01 X12.5080 Y16.3515 F60.00
G01 X12.4964 Y16.3475 F60.00
G01 X12.3559 Y16.2963 F60.00
G01 X12.3331 Y16.2874 F60.00
G01 X12.3108 Y16.2773 F60.00
G01 X12.1760 Y16.2125 F60.00
G01 X12.1543 Y16.2013 F60.00
G01 X12.1331 Y16.1891 F60.00
G01 X12.0055 Y16.1111 F60.00
G01 X11.9849 Y16.0978 F60.00
G01 X11.9651 Y16.0836 F60.00
G01 X11.8458 Y15.9933 F60.00
G01 X11.8267 Y15.9780 F60.00
G01 X11.8084 Y15.9618 F60.00
G01 X11.6898 Y15.8517 F60.00
G01 X11.2512 Y15.4023 F60.00
G01 X9.0170 Y15.4023 F60.00
G01 X8.9929 Y15.4017 F60.00
G01 X8.8338 Y15.3937 F60.00
G01 X8.8218 Y15.3927 F60.00
G01 X8.7980 Y15.3898 F60.00
G01 X8.6523 Y15.3682 F60.00
G01 X8.6286 Y15.3640 F60.00
G01 X8.6051 Y15.3588 F60.00
G01 X8.4622 Y15.3230 F60.00
G01 X8.4390 Y15.3166 F60.00
G01 X8.4162 Y15.3090 F60.00
G01 X8.2775 Y15.2594 F60.00
G01 X8.2550 Y15.2507 F60.00
G01 X8.2330 Y15.2410 F60.00
G01 X8.0911 Y15.1737 F60.00
G00 Z3.0000
G00 X6.8194 Y22.4324
G01 F60.00
G01 Z-0.0980
G01 F60.00
G01 X26.5179 Y22.4324 F60.00
G01 X28.7281 Y22.3082 F60.00
G01 X28.7427 Y22.3077 F60.00
G01 X28.8900 Y22.3067 F60.00
G01 X28.9120 Y22.3074 F60.00
G01 X29.0659 Y22.3213 F60.00
G01 X29.0805 Y22.3230 F60.00
G01 X29.0949 Y22.3254 F60.00
G01 X29.2396 Y22.3532 F60.00
G01 X29.2539 Y22.3563 F60.00
G01 X29.2680 Y22.3601 F60.00
G01 X29.4093 Y22.4018 F60.00
G01 X29.4232 Y22.4063 F60.00
G01 X29.4369 Y22.4115 F60.00
G01 X29.5734 Y22.4669 F60.00
G01 X29.5868 Y22.4727 F60.00
G01 X29.5999 Y22.4792 F60.00
G01 X29.7303 Y22.5478 F60.00
G01 X29.7431 Y22.5549 F60.00
G01 X29.7555 Y22.5626 F60.00
G01 X29.8786 Y22.6436 F60.00
G01 X29.8906 Y22.6519 F60.00
G01 X29.9022 Y22.6609 F60.00
G01 X30.0167 Y22.7535 F60.00
G01 X30.0279 Y22.7630 F60.00
G01 X30.0386 Y22.7730 F60.00
G01 X30.1434 Y22.8764 F60.00
G01 X30.1536 Y22.8870 F60.00
G01 X30.1633 Y22.8980 F60.00
G01 X30.2575 Y23.0112 F60.00
G01 X30.2666 Y23.0227 F60.00
G01 X30.2751 Y23.0346 F60.00
G01 X30.3578 Y23.1565 F60.00
G01 X30.3657 Y23.1688 F60.00
G01 X30.3730 Y23.1815 F60.00
G01 X30.4434 Y23.3109 F60.00
G01 X30.4500 Y23.3239 F60.00
G01 X30.4561 Y23.3373 F60.00
G01 X30.5134 Y23.4729 F60.00
G01 X30.5187 Y23.4866 F60.00
G01 X30.5234 Y23.5004 F60.00
G01 X30.5672 Y23.6411 F60.00
G01 X30.5712 Y23.6552 F60.00
G01 X30.5745 Y23.6694 F60.00
G01 X30.6042 Y23.8137 F60.00
G01 X30.6069 Y23.8281 F60.00
G01 X30.6087 Y23.8426 F60.00
G01 X30.6242 Y23.9891 F60.00
G01 X30.6254 Y24.0037 F60.00
G01 X30.6259 Y24.0183 F60.00
G01 X30.6269 Y24.1656 F60.00
G01 X30.6262 Y24.1876 F60.00
G01 X30.6123 Y24.3415 F60.00
G01 X30.6106 Y24.3561 F60.00
G01 X30.6082 Y24.3705 F60.00
G01 X30.5804 Y24.5152 F60.00
G01 X30.5773 Y24.5295 F60.00
G01 X30.5735 Y24.5436 F60.00
G01 X30.5318 Y24.6849 F60.00
G01 X30.5273 Y24.6988 F60.00
G01 X30.5221 Y24.7125 F60.00
G01 X30.4667 Y24.8490 F60.00
G01 X30.4609 Y24.8624 F60.00
G01 X30.4544 Y24.8755 F60.00
G01 X30.3858 Y25.0059 F60.00
G01 X30.3787 Y25.0187 F60.00
G01 X30.3710 Y25.0311 F60.00
G01 X30.2900 Y25.1542 F60.00
G01 X30.2817 Y25.1662 F60.00
G01 X30.2727 Y25.1778 F60.00
G01 X30.1801 Y25.2923 F60.00
G01 X30.1706 Y25.3035 F60.00
G01 X30.1606 Y25.3142 F60.00
G01 X30.0572 Y25.4190 F60.00
G01 X30.0466 Y25.4292 F60.00
G01 X30.0356 Y25.4389 F60.00
G01 X29.9224 Y25.5331 F60.00
G01 X29.9109 Y25.5422 F60.00
G01 X29.8990 Y25.5507 F60.00
G01 X29.7771 Y25.6334 F60.00
G01 X29.7648 Y25.6413 F60.00
G01 X29.7521 Y25.6486 F60.00
G01 X29.6227 Y25.7190 F60.00
G01 X29.6097 Y25.7256 F60.00
G01 X29.5963 Y25.7317 F60.00
G01 X29.4607 Y25.7890 F60.00
G01 X29.4470 Y25.7943 F60.00
G01 X29.4332 Y25.7990 F60.00
G01 X29.2925 Y25.8428 F60.00
G01 X29.2784 Y25.8468 F60.00
G01 X29.2642 Y25.8501 F60.00
G01 X29.1199 Y25.8798 F60.00
G01 X29.1055 Y25.8825 F60.00
G01 X29.0910 Y25.8843 F60.00
G01 X28.9445 Y25.8998 F60.00
G01 X28.9299 Y25.9010 F60.00
G01 X26.6693 Y26.0280 F60.00
G01 X26.6547 Y26.0285 F60.00
G01 X26.6188 Y26.0287 F60.00
G01 X26.5830 Y26.0305 F60.00
G01 X26.5684 Y26.0308 F60.00
G01 X6.0706 Y26.0308 F60.00
G01 X6.0553 Y26.0304 F60.00
G01 X5.9018 Y26.0226 F60.00
G01 X5.8865 Y26.0214 F60.00
G01 X5.8714 Y26.0194 F60.00
G01 X5.7194 Y25.9959 F60.00
G01 X5.7044 Y25.9932 F60.00
G01 X5.6895 Y25.9897 F60.00
G01 X5.5408 Y25.9507 F60.00
G01 X5.5261 Y25.9465 F60.00
G01 X5.5116 Y25.9415 F60.00
G01 X5.3677 Y25.8875 F60.00
G01 X5.3535 Y25.8818 F60.00
G01 X5.3397 Y25.8753 F60.00
G01 X5.2020 Y25.8069 F60.00
G01 X5.1885 Y25.7997 F60.00
G01 X5.1753 Y25.7919 F60.00
G01 X5.0454 Y25.7098 F60.00
G01 X5.0327 Y25.7013 F60.00
G01 X5.0204 Y25.6921 F60.00
G01 X4.8995 Y25.5971 F60.00
G01 X4.8878 Y25.5874 F60.00
G01 X4.8765 Y25.5770 F60.00
G01 X4.7660 Y25.4702 F60.00
G01 X4.7553 Y25.4592 F60.00
G01 X4.3997 Y25.0782 F60.00
G01 X4.3899 Y25.0673 F60.00
G01 X4.2902 Y24.9492 F60.00
G01 X4.2771 Y24.9316 F60.00
G01 X4.1935 Y24.8103 F60.00
G01 X4.1854 Y24.7980 F60.00
G01 X4.1780 Y24.7854 F60.00
G01 X4.1067 Y24.6565 F60.00
G01 X4.0968 Y24.6369 F60.00
G01 X4.0355 Y24.4950 F60.00
G01 X4.0300 Y24.4814 F60.00
G01 X4.0252 Y24.4676 F60.00
G01 X3.9804 Y24.3273 F60.00
G01 X3.9763 Y24.3132 F60.00
G01 X3.9729 Y24.2990 F60.00
G01 X3.9420 Y24.1550 F60.00
G01 X3.9393 Y24.1406 F60.00
G01 X3.9373 Y24.1261 F60.00
G01 X3.9207 Y23.9797 F60.00
G01 X3.9194 Y23.9651 F60.00
G01 X3.9189 Y23.9505 F60.00
G01 X3.9167 Y23.8032 F60.00
G01 X3.9168 Y23.7886 F60.00
G01 X3.9177 Y23.7740 F60.00
G01 X3.9300 Y23.6272 F60.00
G01 X3.9316 Y23.6126 F60.00
G01 X3.9339 Y23.5982 F60.00
G01 X3.9605 Y23.4533 F60.00
G01 X3.9635 Y23.4390 F60.00
G01 X3.9672 Y23.4248 F60.00
G01 X4.0079 Y23.2833 F60.00
G01 X4.0123 Y23.2693 F60.00
G01 X4.0173 Y23.2555 F60.00
G01 X4.0745 Y23.1119 F60.00
G01 X4.0838 Y23.0920 F60.00
G01 X4.1514 Y22.9611 F60.00
G01 X4.1584 Y22.9483 F60.00
G01 X4.1661 Y22.9358 F60.00
G01 X4.2461 Y22.8121 F60.00
G01 X4.2543 Y22.8000 F60.00
G01 X4.2632 Y22.7884 F60.00
G01 X4.3549 Y22.6732 F60.00
G01 X4.3643 Y22.6619 F60.00
G01 X4.3743 Y22.6512 F60.00
G01 X4.4769 Y22.5455 F60.00
G01 X4.4874 Y22.5353 F60.00
G01 X4.4983 Y22.5255 F60.00
G01 X4.6108 Y22.4305 F60.00
G01 X4.6222 Y22.4213 F60.00
G01 X4.6340 Y22.4127 F60.00
G01 X4.7553 Y22.3291 F60.00
G01 X4.7676 Y22.3210 F60.00
G01 X4.7802 Y22.3136 F60.00
G01 X4.9091 Y22.2423 F60.00
G01 X4.9220 Y22.2355 F60.00
G01 X4.9353 Y22.2294 F60.00
G01 X5.0706 Y22.1711 F60.00
G01 X5.0842 Y22.1656 F60.00
G01 X5.0980 Y22.1608 F60.00
G01 X5.2383 Y22.1160 F60.00
G01 X5.2595 Y22.1101 F60.00
G01 X5.4106 Y22.0776 F60.00
G01 X5.4250 Y22.0749 F60.00
G01 X5.4395 Y22.0729 F60.00
G01 X5.5859 Y22.0563 F60.00
G01 X5.6005 Y22.0550 F60.00
G01 X5.6151 Y22.0545 F60.00
G01 X5.7624 Y22.0523 F60.00
G01 X5.7770 Y22.0524 F60.00
G01 X5.7916 Y22.0533 F60.00
G01 X5.9384 Y22.0656 F60.00
G01 X5.9530 Y22.0672 F60.00
G01 X5.9674 Y22.0695 F60.00
G01 X6.1195 Y22.0975 F60.00
G01 X6.1408 Y22.1028 F60.00
G01 X6.2823 Y22.1435 F60.00
G01 X6.2963 Y22.1479 F60.00
G01 X6.3101 Y22.1529 F60.00
G01 X6.4469 Y22.2073 F60.00
G01 X6.4670 Y22.2162 F60.00
G01 X6.6045 Y22.2870 F60.00
G01 X6.6236 Y22.2977 F60.00
G01 X6.7596 Y22.3857 F60.00
G01 X6.7772 Y22.3988 F60.00
G01 X6.8194 Y22.4324 F60.00
G00 Z3.0000
G00 X6.7523 Y22.6243
G01 F60.00
G01 Z-0.0980
G01 F60.00
G01 X26.5233 Y22.6243 F60.00
G01 X28.7388 Y22.4998 F60.00
G01 X28.8913 Y22.4986 F60.00
G01 X28.8992 Y22.4988 F60.00
G01 X29.0537 Y22.5130 F60.00
G01 X29.2086 Y22.5427 F60.00
G01 X29.3598 Y22.5874 F60.00
G01 X29.5060 Y22.6468 F60.00
G01 X29.6456 Y22.7202 F60.00
G01 X29.7774 Y22.8069 F60.00
G01 X29.9000 Y22.9061 F60.00
G01 X30.0123 Y23.0168 F60.00
G01 X30.1133 Y23.1380 F60.00
G01 X30.2018 Y23.2686 F60.00
G01 X30.2772 Y23.4072 F60.00
G01 X30.3385 Y23.5525 F60.00
G01 X30.3854 Y23.7031 F60.00
G01 X30.4172 Y23.8576 F60.00
G01 X30.4338 Y24.0144 F60.00
G01 X30.4350 Y24.1669 F60.00
G01 X30.4348 Y24.1748 F60.00
G01 X30.4206 Y24.3293 F60.00
G01 X30.3909 Y24.4842 F60.00
G01 X30.3462 Y24.6354 F60.00
G01 X30.2868 Y24.7816 F60.00
G01 X30.2134 Y24.9212 F60.00
G01 X30.1267 Y25.0530 F60.00
G01 X30.0275 Y25.1756 F60.00
G01 X29.9205 Y25.2843 F60.00
G01 X29.9128 Y25.2914 F60.00
G01 X29.7997 Y25.3856 F60.00
G01 X29.7913 Y25.3919 F60.00
G01 X29.6650 Y25.4774 F60.00
G01 X29.5311 Y25.5504 F60.00
G01 X29.5217 Y25.5549 F60.00
G01 X29.3811 Y25.6141 F60.00
G01 X29.2305 Y25.6610 F60.00
G01 X29.0760 Y25.6928 F60.00
G01 X28.9192 Y25.7094 F60.00
G01 X26.6586 Y25.8364 F60.00
G01 X26.6135 Y25.8369 F60.00
G01 X26.5684 Y25.8389 F60.00
G01 X6.0706 Y25.8389 F60.00
G01 X5.9062 Y25.8305 F60.00
G01 X5.7434 Y25.8053 F60.00
G01 X5.5842 Y25.7636 F60.00
G01 X5.4300 Y25.7058 F60.00
G01 X5.2825 Y25.6325 F60.00
G01 X5.1434 Y25.5445 F60.00
G01 X5.0139 Y25.4428 F60.00
G01 X4.8994 Y25.3322 F60.00
G01 X4.5399 Y24.9473 F60.00
G01 X4.4397 Y24.8289 F60.00
G01 X4.4350 Y24.8226 F60.00
G01 X4.3486 Y24.6970 F60.00
G01 X4.2746 Y24.5636 F60.00
G01 X4.2711 Y24.5566 F60.00
G01 X4.2097 Y24.4142 F60.00
G01 X4.1617 Y24.2639 F60.00
G01 X4.1287 Y24.1097 F60.00
G01 X4.1114 Y23.9581 F60.00
G01 X4.1107 Y23.9477 F60.00
G01 X4.1086 Y23.7952 F60.00
G01 X4.1212 Y23.6432 F60.00
G01 X4.1226 Y23.6329 F60.00
G01 X4.1492 Y23.4880 F60.00
G01 X4.1516 Y23.4778 F60.00
G01 X4.1939 Y23.3313 F60.00
G01 X4.2510 Y23.1871 F60.00
G01 X4.2544 Y23.1800 F60.00
G01 X4.3244 Y23.0445 F60.00
G01 X4.4072 Y22.9164 F60.00
G01 X4.4133 Y22.9079 F60.00
G01 X4.5084 Y22.7887 F60.00
G01 X4.6145 Y22.6792 F60.00
G01 X4.6222 Y22.6721 F60.00
G01 X4.7347 Y22.5770 F60.00
G01 X4.7430 Y22.5706 F60.00
G01 X4.8686 Y22.4842 F60.00
G01 X5.0066 Y22.4078 F60.00
G01 X5.1514 Y22.3453 F60.00
G01 X5.2967 Y22.2988 F60.00
G01 X5.3068 Y22.2961 F60.00
G01 X5.4559 Y22.2643 F60.00
G01 X5.6075 Y22.2470 F60.00
G01 X5.6179 Y22.2463 F60.00
G01 X5.7652 Y22.2442 F60.00
G01 X5.7756 Y22.2445 F60.00
G01 X5.9276 Y22.2574 F60.00
G01 X6.0827 Y22.2859 F60.00
G01 X6.2343 Y22.3295 F60.00
G01 X6.3761 Y22.3856 F60.00
G01 X6.3856 Y22.3900 F60.00
G01 X6.5165 Y22.4575 F60.00
G01 X6.5256 Y22.4627 F60.00
G01 X6.6535 Y22.5457 F60.00
G01 X6.7523 Y22.6243 F60.00
G00 Z3.0000
G00 X13.2337 Y28.0299
G01 F60.00
G01 Z-0.0980
G01 F60.00
G01 X13.2409 Y28.0368 F60.00
G01 X13.7838 Y28.5933 F60.00
G01 X14.3510 Y28.5933 F60.00
G01 X14.5033 Y28.6006 F60.00
G01 X14.5137 Y28.6016 F60.00
G01 X14.6646 Y28.6241 F60.00
G01 X14.8176 Y28.6625 F60.00
G01 X14.9661 Y28.7156 F60.00
G01 X15.1040 Y28.7807 F60.00
G01 X15.1110 Y28.7843 F60.00
G01 X15.2440 Y28.8641 F60.00
G01 X15.3666 Y28.9549 F60.00
G01 X15.3747 Y28.9615 F60.00
G01 X15.4876 Y29.0640 F60.00
G01 X15.5935 Y29.1809 F60.00
G01 X15.6844 Y29.3033 F60.00
G01 X15.6903 Y29.3120 F60.00
G01 X15.7686 Y29.4429 F60.00
G01 X15.8360 Y29.5855 F60.00
G01 X15.8891 Y29.7340 F60.00
G01 X15.9275 Y29.8870 F60.00
G01 X15.9506 Y30.0431 F60.00
G01 X15.9583 Y30.2006 F60.00
G01 X15.9506 Y30.3581 F60.00
G01 X15.9275 Y30.5142 F60.00
G01 X15.8891 Y30.6672 F60.00
G01 X15.8360 Y30.8157 F60.00
G01 X15.7686 Y30.9583 F60.00
G01 X15.6875 Y31.0936 F60.00
G01 X15.5935 Y31.2203 F60.00
G01 X15.4876 Y31.3372 F60.00
G01 X15.3707 Y31.4431 F60.00
G01 X15.2440 Y31.5371 F60.00
G01 X15.1087 Y31.6182 F60.00
G01 X14.9661 Y31.6856 F60.00
G01 X14.8176 Y31.7387 F60.00
G01 X14.6646 Y31.7771 F60.00
G01 X14.5137 Y31.7996 F60.00
G01 X14.5059 Y31.8004 F60.00
G01 X14.3510 Y31.8079 F60.00
G01 X13.1064 Y31.8079 F60.00
G01 X12.9517 Y31.8004 F60.00
G01 X12.9437 Y31.7997 F60.00
G01 X12.7932 Y31.7770 F60.00
G01 X12.7828 Y31.7749 F60.00
G01 X12.6327 Y31.7366 F60.00
G01 X12.4871 Y31.6837 F60.00
G01 X12.4773 Y31.6796 F60.00
G01 X12.3378 Y31.6123 F60.00
G01 X12.2011 Y31.5287 F60.00
G01 X12.0733 Y31.4320 F60.00
G01 X11.9578 Y31.3249 F60.00
G01 X11.4130 Y30.7665 F60.00
G01 X9.0678 Y30.7665 F60.00
G01 X8.9155 Y30.7592 F60.00
G01 X8.9051 Y30.7582 F60.00
G01 X8.7594 Y30.7366 F60.00
G01 X8.7491 Y30.7345 F60.00
G01 X8.6012 Y30.6973 F60.00
G01 X8.4551 Y30.6452 F60.00
G01 X8.4479 Y30.6421 F60.00
G01 X8.3148 Y30.5791 F60.00
G01 X8.3078 Y30.5755 F60.00
G01 X8.1748 Y30.4957 F60.00
G01 X8.0946 Y30.4363 F60.00
G01 X5.7150 Y30.4363 F60.00
G01 X5.5575 Y30.4286 F60.00
G01 X5.4066 Y30.4064 F60.00
G01 X5.3963 Y30.4043 F60.00
G01 X5.2484 Y30.3671 F60.00
G01 X5.0999 Y30.3140 F60.00
G01 X4.9573 Y30.2466 F60.00
G01 X4.8264 Y30.1683 F60.00
G01 X4.8177 Y30.1624 F60.00
G01 X4.6994 Y30.0747 F60.00
G01 X4.6913 Y30.0681 F60.00
G01 X4.5784 Y29.9656 F60.00
G01 X4.4759 Y29.8527 F60.00
G01 X4.4693 Y29.8446 F60.00
G01 X4.3816 Y29.7263 F60.00
G01 X4.3757 Y29.7176 F60.00
G01 X4.2974 Y29.5867 F60.00
G01 X4.2300 Y29.4441 F60.00
G01 X4.1785 Y29.3006 F60.00
G01 X4.1755 Y29.2905 F60.00
G01 X4.1385 Y29.1426 F60.00
G01 X4.1154 Y28.9865 F60.00
G01 X4.1077 Y28.8290 F60.00
G01 X4.1154 Y28.6715 F60.00
G01 X4.1385 Y28.5154 F60.00
G01 X4.1769 Y28.3624 F60.00
G01 X4.2300 Y28.2139 F60.00
G01 X4.2974 Y28.0713 F60.00
G01 X4.3785 Y27.9360 F60.00
G01 X4.4725 Y27.8093 F60.00
G01 X4.5784 Y27.6924 F60.00
G01 X4.6953 Y27.5865 F60.00
G01 X4.8220 Y27.4925 F60.00
G01 X4.9573 Y27.4114 F60.00
G01 X5.0999 Y27.3440 F60.00
G01 X5.2484 Y27.2909 F60.00
G01 X5.4014 Y27.2525 F60.00
G01 X5.5575 Y27.2294 F60.00
G01 X5.7150 Y27.2217 F60.00
G01 X8.7630 Y27.2217 F60.00
G01 X8.9153 Y27.2290 F60.00
G01 X8.9257 Y27.2300 F60.00
G01 X9.0714 Y27.2516 F60.00
G01 X9.0817 Y27.2537 F60.00
G01 X9.2296 Y27.2909 F60.00
G01 X9.3757 Y27.3430 F60.00
G01 X9.3829 Y27.3461 F60.00
G01 X9.5160 Y27.4091 F60.00
G01 X9.5230 Y27.4127 F60.00
G01 X9.6560 Y27.4925 F60.00
G01 X9.7362 Y27.5519 F60.00
G01 X12.0904 Y27.5519 F60.00
G01 X12.1003 Y27.5522 F60.00
G01 X12.1129 Y27.5520 F60.00
G01 X12.1791 Y27.5561 F60.00
G01 X12.2479 Y27.5596 F60.00
G01 X12.2578 Y27.5609 F60.00
G01 X12.2703 Y27.5620 F60.00
G01 X12.3358 Y27.5725 F60.00
G01 X12.4040 Y27.5827 F60.00
G01 X12.4136 Y27.5850 F60.00
G01 X12.4260 Y27.5873 F60.00
G01 X12.4901 Y27.6042 F60.00
G01 X12.5519 Y27.6197 F60.00
G01 X12.5784 Y27.6278 F60.00
G01 X12.6406 Y27.6509 F60.00
G01 X12.7006 Y27.6723 F60.00
G01 X12.7285 Y27.6841 F60.00
G01 X12.7858 Y27.7120 F60.00
G01 X12.8458 Y27.7404 F60.00
G01 X12.8567 Y27.7466 F60.00
G01 X12.8655 Y27.7511 F60.00
G01 X12.9243 Y27.7872 F60.00
G01 X12.9812 Y27.8213 F60.00
G01 X12.9914 Y27.8286 F60.00
G01 X12.9998 Y27.8339 F60.00
G01 X13.0548 Y27.8755 F60.00
G01 X13.1080 Y27.9151 F60.00
G01 X13.1175 Y27.9233 F60.00
G01 X13.1253 Y27.9294 F60.00
G01 X13.1760 Y27.9762 F60.00
G01 X13.2232 Y28.0190 F60.00
G01 X13.2337 Y28.0299 F60.00
G00 Z3.0000
G00 X23.5471 Y19.0613
G01 F60.00
G01 Z-0.0980
G01 F60.00
G01 X23.5470 Y19.7609 F60.00
G01 X23.5463 Y19.7755 F60.00
G01 X23.5449 Y19.7901 F60.00
G01 X23.5427 Y19.8046 F60.00
G01 X23.5398 Y19.8190 F60.00
G01 X23.5363 Y19.8332 F60.00
G01 X23.5320 Y19.8472 F60.00
G01 X23.5271 Y19.8610 F60.00
G01 X23.5215 Y19.8745 F60.00
G01 X23.5119 Y19.8943 F60.00
G01 X23.5046 Y19.9070 F60.00
G01 X23.4968 Y19.9194 F60.00
G01 X23.4884 Y19.9314 F60.00
G01 X23.4793 Y19.9429 F60.00
G01 X23.4648 Y19.9594 F60.00
G01 X22.9124 Y20.5119 F60.00
G01 X30.8610 Y20.5119 F60.00
G01 X30.8756 Y20.5122 F60.00
G01 X30.9247 Y20.5146 F60.00
G01 X30.9393 Y20.5157 F60.00
G01 X30.9538 Y20.5175 F60.00
G01 X31.0024 Y20.5247 F60.00
G01 X31.0168 Y20.5272 F60.00
G01 X31.0311 Y20.5304 F60.00
G01 X31.0787 Y20.5424 F60.00
G01 X31.0929 Y20.5463 F60.00
G01 X31.1068 Y20.5509 F60.00
G01 X31.1530 Y20.5674 F60.00
G01 X31.1667 Y20.5727 F60.00
G01 X31.1801 Y20.5786 F60.00
G01 X31.2244 Y20.5996 F60.00
G01 X31.2375 Y20.6062 F60.00
G01 X31.2503 Y20.6134 F60.00
G01 X31.2924 Y20.6386 F60.00
G01 X31.3047 Y20.6465 F60.00
G01 X31.3167 Y20.6549 F60.00
G01 X31.3562 Y20.6842 F60.00
G01 X31.3677 Y20.6932 F60.00
G01 X31.3788 Y20.7027 F60.00
G01 X31.4152 Y20.7357 F60.00
G01 X31.4258 Y20.7458 F60.00
G01 X32.4110 Y21.7311 F60.00
G01 X34.1563 Y21.7311 F60.00
G01 X34.1707 Y21.7118 F60.00
G01 X34.1800 Y21.7005 F60.00
G01 X34.2557 Y21.6169 F60.00
G01 X34.2714 Y21.6015 F60.00
G01 X34.3442 Y21.5356 F60.00
G01 X34.3553 Y21.5261 F60.00
G01 X34.3668 Y21.5171 F60.00
G01 X34.4456 Y21.4586 F60.00
G01 X34.4576 Y21.4502 F60.00
G01 X34.4700 Y21.4423 F60.00
G01 X34.5542 Y21.3919 F60.00
G01 X34.5734 Y21.3813 F60.00
G01 X34.6687 Y21.3361 F60.00
G01 X34.6821 Y21.3302 F60.00
G01 X34.6958 Y21.3249 F60.00
G01 X34.7882 Y21.2918 F60.00
G01 X34.8021 Y21.2872 F60.00
G01 X34.8162 Y21.2833 F60.00
G01 X34.9114 Y21.2595 F60.00
G01 X34.9257 Y21.2563 F60.00
G01 X34.9401 Y21.2538 F60.00
G01 X35.0372 Y21.2394 F60.00
G01 X35.0517 Y21.2376 F60.00
G01 X35.0663 Y21.2365 F60.00
G01 X35.1644 Y21.2317 F60.00
G01 X35.1790 Y21.2313 F60.00
G01 X35.1936 Y21.2317 F60.00
G01 X35.2917 Y21.2365 F60.00
G01 X35.3063 Y21.2376 F60.00
G01 X35.3208 Y21.2394 F60.00
G01 X35.4179 Y21.2538 F60.00
G01 X35.4323 Y21.2563 F60.00
G01 X35.4466 Y21.2595 F60.00
G01 X35.5418 Y21.2833 F60.00
G01 X35.5559 Y21.2872 F60.00
G01 X35.5698 Y21.2918 F60.00
G01 X35.6622 Y21.3249 F60.00
G01 X35.6759 Y21.3302 F60.00
G01 X35.6893 Y21.3361 F60.00
G01 X35.7780 Y21.3781 F60.00
G01 X35.7911 Y21.3846 F60.00
G01 X35.8038 Y21.3919 F60.00
G01 X35.8880 Y21.4423 F60.00
G01 X35.9004 Y21.4502 F60.00
G01 X35.9124 Y21.4586 F60.00
G01 X35.9912 Y21.5171 F60.00
G01 X36.0027 Y21.5261 F60.00
G01 X36.0138 Y21.5356 F60.00
G01 X36.0866 Y21.6015 F60.00
G01 X36.0972 Y21.6116 F60.00
G01 X36.1073 Y21.6222 F60.00
G01 X36.1780 Y21.7005 F60.00
G01 X36.1917 Y21.7176 F60.00
G01 X36.2502 Y21.7964 F60.00
G01 X36.2586 Y21.8084 F60.00
G01 X36.2665 Y21.8208 F60.00
G01 X36.3169 Y21.9050 F60.00
G01 X36.3242 Y21.9177 F60.00
G01 X36.3307 Y21.9308 F60.00
G01 X36.3727 Y22.0195 F60.00
G01 X36.3786 Y22.0329 F60.00
G01 X36.3839 Y22.0466 F60.00
G01 X36.4170 Y22.1390 F60.00
G01 X36.4216 Y22.1529 F60.00
G01 X36.4255 Y22.1670 F60.00
G01 X36.4493 Y22.2622 F60.00
G01 X36.4525 Y22.2765 F60.00
G01 X36.4550 Y22.2909 F60.00
G01 X36.4694 Y22.3880 F60.00
G01 X36.4712 Y22.4025 F60.00
G01 X36.4723 Y22.4171 F60.00
G01 X36.4771 Y22.5152 F60.00
G01 X36.4775 Y22.5298 F60.00
G01 X36.4771 Y22.5444 F60.00
G01 X36.4723 Y22.6425 F60.00
G01 X36.4712 Y22.6571 F60.00
G01 X36.4694 Y22.6716 F60.00
G01 X36.4550 Y22.7687 F60.00
G01 X36.4525 Y22.7831 F60.00
G01 X36.4493 Y22.7974 F60.00
G01 X36.4255 Y22.8926 F60.00
G01 X36.4216 Y22.9067 F60.00
G01 X36.4170 Y22.9206 F60.00
G01 X36.3839 Y23.0130 F60.00
G01 X36.3786 Y23.0267 F60.00
G01 X36.3727 Y23.0401 F60.00
G01 X36.3307 Y23.1288 F60.00
G01 X36.3242 Y23.1419 F60.00
G01 X36.3169 Y23.1546 F60.00
G01 X36.2665 Y23.2388 F60.00
G01 X36.2586 Y23.2512 F60.00
G01 X36.2502 Y23.2632 F60.00
G01 X36.1873 Y23.3478 F60.00
G01 X36.1732 Y23.3646 F60.00
G01 X36.1073 Y23.4374 F60.00
G01 X36.0972 Y23.4480 F60.00
G01 X36.0866 Y23.4581 F60.00
G01 X36.0138 Y23.5240 F60.00
G01 X36.0027 Y23.5335 F60.00
G01 X35.9912 Y23.5425 F60.00
G01 X35.9124 Y23.6010 F60.00
G01 X35.9004 Y23.6094 F60.00
G01 X35.8880 Y23.6173 F60.00
G01 X35.8038 Y23.6677 F60.00
G01 X35.7911 Y23.6750 F60.00
G01 X35.7780 Y23.6815 F60.00
G01 X35.6893 Y23.7235 F60.00
G01 X35.6759 Y23.7294 F60.00
G01 X35.6622 Y23.7347 F60.00
G01 X35.5698 Y23.7678 F60.00
G01 X35.5559 Y23.7724 F60.00
G01 X35.5418 Y23.7763 F60.00
G01 X35.4466 Y23.8001 F60.00
G01 X35.4323 Y23.8033 F60.00
G01 X35.4179 Y23.8058 F60.00
G01 X35.3136 Y23.8212 F60.00
G01 X35.2917 Y23.8231 F60.00
G01 X35.1936 Y23.8279 F60.00
G01 X35.1790 Y23.8283 F60.00
G01 X35.1644 Y23.8279 F60.00
G01 X35.0590 Y23.8227 F60.00
G01 X35.0444 Y23.8212 F60.00
G01 X35.0206 Y23.8178 F60.00
G01 X32.9043 Y25.9340 F60.00
G01 X32.9043 Y27.8861 F60.00
G01 X33.1056 Y27.8861 F60.00
G01 X33.1202 Y27.8865 F60.00
G01 X33.1349 Y27.8876 F60.00
G01 X33.1494 Y27.8894 F60.00
G01 X33.1638 Y27.8919 F60.00
G01 X33.1781 Y27.8951 F60.00
G01 X33.1922 Y27.8990 F60.00
G01 X33.2062 Y27.9036 F60.00
G01 X33.2198 Y27.9088 F60.00
G01 X33.2332 Y27.9148 F60.00
G01 X33.2463 Y27.9214 F60.00
G01 X33.2590 Y27.9286 F60.00
G01 X33.2775 Y27.9406 F60.00
G01 X33.2892 Y27.9493 F60.00
G01 X33.3060 Y27.9634 F60.00
G01 X33.3218 Y27.9788 F60.00
G01 X33.3316 Y27.9896 F60.00
G01 X33.3453 Y28.0068 F60.00
G01 X33.3538 Y28.0188 F60.00
G01 X33.3653 Y28.0375 F60.00
G01 X33.3722 Y28.0504 F60.00
G01 X33.3785 Y28.0636 F60.00
G01 X33.3866 Y28.0841 F60.00
G01 X33.3912 Y28.0980 F60.00
G01 X33.3968 Y28.1192 F60.00
G01 X33.3997 Y28.1336 F60.00
G01 X33.4026 Y28.1553 F60.00
G01 X33.4037 Y28.1700 F60.00
G01 X33.4041 Y28.1846 F60.00
G01 X33.4041 Y30.1846 F60.00
G01 X33.4037 Y30.1992 F60.00
G01 X33.4026 Y30.2139 F60.00
G01 X33.4008 Y30.2284 F60.00
G01 X33.3983 Y30.2428 F60.00
G01 X33.3951 Y30.2571 F60.00
G01 X33.3912 Y30.2712 F60.00
G01 X33.3866 Y30.2852 F60.00
G01 X33.3814 Y30.2988 F60.00
G01 X33.3754 Y30.3122 F60.00
G01 X33.3688 Y30.3253 F60.00
G01 X33.3616 Y30.3380 F60.00
G01 X33.3538 Y30.3504 F60.00
G01 X33.3453 Y30.3624 F60.00
G01 X33.3363 Y30.3739 F60.00
G01 X33.3268 Y30.3850 F60.00
G01 X33.3167 Y30.3957 F60.00
G01 X33.3006 Y30.4106 F60.00
G01 X33.2834 Y30.4243 F60.00
G01 X33.2714 Y30.4328 F60.00
G01 X33.2590 Y30.4406 F60.00
G01 X33.2398 Y30.4512 F60.00
G01 X33.2266 Y30.4575 F60.00
G01 X33.2130 Y30.4631 F60.00
G01 X33.1992 Y30.4680 F60.00
G01 X33.1852 Y30.4723 F60.00
G01 X33.1638 Y30.4773 F60.00
G01 X33.1421 Y30.4808 F60.00
G01 X33.1202 Y30.4827 F60.00
G01 X33.1056 Y30.4831 F60.00
G01 X31.9367 Y30.4831 F60.00
G01 X31.6491 Y30.7705 F60.00
G01 X31.6074 Y30.8085 F60.00
G01 X31.5963 Y30.8180 F60.00
G01 X31.5848 Y30.8270 F60.00
G01 X31.5394 Y30.8606 F60.00
G01 X31.5210 Y30.8726 F60.00
G01 X31.4789 Y30.8978 F60.00
G01 X31.4661 Y30.9050 F60.00
G01 X31.4530 Y30.9116 F60.00
G01 X31.4087 Y30.9326 F60.00
G01 X31.3953 Y30.9385 F60.00
G01 X31.3816 Y30.9438 F60.00
G01 X31.3354 Y30.9603 F60.00
G01 X31.3215 Y30.9649 F60.00
G01 X31.3073 Y30.9688 F60.00
G01 X31.2597 Y30.9808 F60.00
G01 X31.2454 Y30.9840 F60.00
G01 X31.2310 Y30.9865 F60.00
G01 X31.1824 Y30.9937 F60.00
G01 X31.1679 Y30.9955 F60.00
G01 X31.1533 Y30.9966 F60.00
G01 X31.1042 Y30.9990 F60.00
G01 X31.0896 Y30.9993 F60.00
G01 X28.5149 Y30.9993 F60.00
G01 X28.4968 Y31.0156 F60.00
G01 X28.4854 Y31.0249 F60.00
G01 X28.4195 Y31.0739 F60.00
G01 X28.4014 Y31.0863 F60.00
G01 X28.3311 Y31.1286 F60.00
G01 X28.3183 Y31.1359 F60.00
G01 X28.3052 Y31.1424 F60.00
G01 X28.2376 Y31.1744 F60.00
G01 X28.2174 Y31.1831 F60.00
G01 X28.1401 Y31.2108 F60.00
G01 X28.1262 Y31.2154 F60.00
G01 X28.1121 Y31.2193 F60.00
G01 X28.0396 Y31.2375 F60.00
G01 X28.0253 Y31.2407 F60.00
G01 X28.0109 Y31.2432 F60.00
G01 X27.9369 Y31.2542 F60.00
G01 X27.9223 Y31.2560 F60.00
G01 X27.9077 Y31.2570 F60.00
G01 X27.8330 Y31.2607 F60.00
G01 X27.8184 Y31.2611 F60.00
G01 X26.8351 Y31.2610 F60.00
G01 X26.7531 Y31.2570 F60.00
G01 X26.7385 Y31.2560 F60.00
G01 X26.7239 Y31.2542 F60.00
G01 X26.6499 Y31.2432 F60.00
G01 X26.6355 Y31.2407 F60.00
G01 X26.6212 Y31.2375 F60.00
G01 X26.5487 Y31.2193 F60.00
G01 X26.5276 Y31.2132 F60.00
G01 X26.4502 Y31.1856 F60.00
G01 X26.4366 Y31.1804 F60.00
G01 X26.4232 Y31.1744 F60.00
G01 X26.3556 Y31.1424 F60.00
G01 X26.3425 Y31.1359 F60.00
G01 X26.3298 Y31.1286 F60.00
G01 X26.2656 Y31.0902 F60.00
G01 X26.2532 Y31.0824 F60.00
G01 X26.2413 Y31.0739 F60.00
G01 X26.1754 Y31.0249 F60.00
G01 X26.1640 Y31.0156 F60.00
G01 X26.1459 Y30.9993 F60.00
G01 X23.1140 Y30.9993 F60.00
G01 X23.0991 Y30.9990 F60.00
G01 X23.0493 Y30.9965 F60.00
G01 X23.0271 Y30.9945 F60.00
