(G-CODE GENERATED BY FLATCAM v8.993 - www.flatcam.org - Version Date: 2020/06/05)

(Name: cam.drl_cnc)
(Type: G-code from Excellon)
(Units: MM)

(Created on Thursday, 14 September 2023 at 19:34)

(This preprocessor is used with a motion controller loaded with GRBL firmware.)
(It is configured to be compatible with almost any version of GRBL firmware.)


(TOOLS DIAMETER: )
(Tool: 1 -> Dia: 1.0007599999999999)
(Tool: 2 -> Dia: 1.19888)
(Tool: 3 -> Dia: 1.30048)

(FEEDRATE Z: )
(Tool: 1 -> Feedrate: 10.0)
(Tool: 2 -> Feedrate: 10.0)
(Tool: 3 -> Feedrate: 10.0)

(FEEDRATE RAPIDS: )
(Tool: 1 -> Feedrate Rapids: 1500)
(Tool: 2 -> Feedrate Rapids: 1500)
(Tool: 3 -> Feedrate Rapids: 1500)

(Z_CUT: )
(Tool: 1 -> Z_Cut: -2.1)
(Tool: 2 -> Z_Cut: -2.1)
(Tool: 3 -> Z_Cut: -2.1)

(Tools Offset: )
(Tool: 1 -> Offset Z: -0.0)
(Tool: 2 -> Offset Z: -0.0)
(Tool: 3 -> Offset Z: -0.0)

(Z_MOVE: )
(Tool: 1 -> Z_Move: 3.0)
(Tool: 2 -> Z_Move: 3.0)
(Tool: 3 -> Z_Move: 3.0)

(Z Start: None mm)
(Z End: 2.0 mm)
(Steps per circle: 64)
(Preprocessor Excellon: grbl_11)

(X range:    1.2776 ...   34.1528  mm)
(Y range:    1.6586 ...   15.3314  mm)

(Spindle Speed: 1000000.0 RPM)
G21
G90
G17
G94




G00 Z3.0000

G01 F10.00
M03 S1000000
G00 X31.3690 Y4.8260
G01 Z-2.1000
G01 Z0
G00 Z3.0000
G00 X31.3690 Y9.9060
G01 Z-2.1000
G01 Z0
G00 Z3.0000
G00 X22.6060 Y14.0970
G01 Z-2.1000
G01 Z0
G00 Z3.0000
G00 X9.6266 Y14.0970
G01 Z-2.1000
G01 Z0
G00 Z3.0000
G00 X1.7780 Y13.0302
G01 Z-2.1000
G01 Z0
G00 Z3.0000
G00 X1.7780 Y8.0264
G01 Z-2.1000
G01 Z0
G00 Z3.0000
G00 X1.7780 Y3.0480
G01 Z-2.1000
G01 Z0
G00 Z3.0000
G00 X9.6266 Y2.1590
G01 Z-2.1000
G01 Z0
G00 Z3.0000
G00 X22.6060 Y2.1590
G01 Z-2.1000
G01 Z0
G00 Z3.0000
G00 X24.1046 Y8.0010
G01 Z-2.1000
G01 Z0
G00 Z3.0000
G01 F10.00
M03 S1000000
G00 X33.5534 Y14.7320
G01 Z-2.1000
G01 Z0
G00 Z3.0000
G00 X28.4480 Y14.7320
G01 Z-2.1000
G01 Z0
G00 Z3.0000
G01 F10.00
M03 S1000000
G00 X17.7546 Y3.1750
G01 Z-2.1000
G01 Z0
G00 Z3.0000
G00 X20.2184 Y8.1280
G01 Z-2.1000
G01 Z0
G00 Z3.0000
G00 X17.7546 Y13.0810
G01 Z-2.1000
G01 Z0
G00 Z3.0000
G00 X7.7470 Y13.0810
G01 Z-2.1000
G01 Z0
G00 Z3.0000
G00 X7.7470 Y3.1750
G01 Z-2.1000
G01 Z0
G00 Z3.0000
M05
G00 Z2.00
G00 X0.0 Y0.0

