(G-CODE GENERATED BY FLATCAM v8.993 - www.flatcam.org - Version Date: 2020/06/05)

(Name: pcb2.gbl_iso_combined_cnc)
(Type: G-code from Geometry)
(Units: MM)

(Created on Thursday, 14 September 2023 at 19:33)

(This preprocessor is used with a motion controller loaded with GRBL firmware.)
(It is configured to be compatible with almost any version of GRBL firmware.)

(TOOL DIAMETER: 0.2132 mm)
(Feedrate_XY: 60.0 mm/min)
(Feedrate_Z: 60.0 mm/min)
(Feedrate rapids 1500.0 mm/min)

(Z_Cut: -0.098 mm)
(Z_Move: 3.0 mm)
(Z Start: None mm)
(Z End: 3.0 mm)
(Steps per circle: 64)
(Preprocessor Geometry: grbl_11)

(X range:   -0.5969 ...   37.1729  mm)
(Y range:   -0.2159 ...   17.1069  mm)

(Spindle Speed: 400000 RPM)
G21
G90
G17
G94




G01 F60.00
G00 Z3.0000

M03 S400000
G00 X4.1763 Y4.8472
G01 F60.00
G01 Z-0.0980
G01 F60.00
G01 X1.7780 Y4.8472 F60.00
G01 X1.7634 Y4.8469 F60.00
G01 X1.6163 Y4.8396 F60.00
G01 X1.5944 Y4.8378 F60.00
G01 X1.4414 Y4.8152 F60.00
G01 X1.4270 Y4.8127 F60.00
G01 X1.4127 Y4.8094 F60.00
G01 X1.2698 Y4.7737 F60.00
G01 X1.2557 Y4.7698 F60.00
G01 X1.2418 Y4.7652 F60.00
G01 X1.1031 Y4.7155 F60.00
G01 X1.0895 Y4.7103 F60.00
G01 X1.0761 Y4.7043 F60.00
G01 X0.9429 Y4.6414 F60.00
G01 X0.9299 Y4.6348 F60.00
G01 X0.9171 Y4.6276 F60.00
G01 X0.7908 Y4.5518 F60.00
G01 X0.7784 Y4.5440 F60.00
G01 X0.7664 Y4.5356 F60.00
G01 X0.6423 Y4.4434 F60.00
G01 X0.6255 Y4.4293 F60.00
G01 X0.5164 Y4.3303 F60.00
G01 X0.5058 Y4.3202 F60.00
G01 X0.4957 Y4.3096 F60.00
G01 X0.3967 Y4.2005 F60.00
G01 X0.3872 Y4.1894 F60.00
G01 X0.3782 Y4.1779 F60.00
G01 X0.2904 Y4.0596 F60.00
G01 X0.2820 Y4.0476 F60.00
G01 X0.2742 Y4.0352 F60.00
G01 X0.1984 Y3.9089 F60.00
G01 X0.1912 Y3.8961 F60.00
G01 X0.1846 Y3.8831 F60.00
G01 X0.1217 Y3.7499 F60.00
G01 X0.1157 Y3.7365 F60.00
G01 X0.1105 Y3.7229 F60.00
G01 X0.0608 Y3.5842 F60.00
G01 X0.0562 Y3.5703 F60.00
G01 X0.0523 Y3.5562 F60.00
G01 X0.0166 Y3.4133 F60.00
G01 X0.0133 Y3.3990 F60.00
G01 X0.0108 Y3.3846 F60.00
G01 X-0.0108 Y3.2389 F60.00
G01 X-0.0126 Y3.2244 F60.00
G01 X-0.0136 Y3.2097 F60.00
G01 X-0.0209 Y3.0626 F60.00
G01 X-0.0212 Y3.0480 F60.00
G01 X-0.0209 Y3.0334 F60.00
G01 X-0.0136 Y2.8863 F60.00
G01 X-0.0126 Y2.8716 F60.00
G01 X-0.0108 Y2.8571 F60.00
G01 X0.0108 Y2.7114 F60.00
G01 X0.0133 Y2.6970 F60.00
G01 X0.0166 Y2.6827 F60.00
G01 X0.0523 Y2.5398 F60.00
G01 X0.0562 Y2.5257 F60.00
G01 X0.0608 Y2.5118 F60.00
G01 X0.1105 Y2.3731 F60.00
G01 X0.1157 Y2.3595 F60.00
G01 X0.1217 Y2.3461 F60.00
G01 X0.1846 Y2.2129 F60.00
G01 X0.1912 Y2.1999 F60.00
G01 X0.1984 Y2.1871 F60.00
G01 X0.2742 Y2.0608 F60.00
G01 X0.2820 Y2.0484 F60.00
G01 X0.2904 Y2.0364 F60.00
G01 X0.3826 Y1.9123 F60.00
G01 X0.3967 Y1.8955 F60.00
G01 X0.4957 Y1.7864 F60.00
G01 X0.5058 Y1.7758 F60.00
G01 X0.5164 Y1.7657 F60.00
G01 X0.6255 Y1.6667 F60.00
G01 X0.6366 Y1.6572 F60.00
G01 X0.6481 Y1.6482 F60.00
G01 X0.7664 Y1.5604 F60.00
G01 X0.7784 Y1.5520 F60.00
G01 X0.7908 Y1.5442 F60.00
G01 X0.9171 Y1.4684 F60.00
G01 X0.9299 Y1.4612 F60.00
G01 X0.9429 Y1.4546 F60.00
G01 X1.0761 Y1.3917 F60.00
G01 X1.0895 Y1.3857 F60.00
G01 X1.1031 Y1.3805 F60.00
G01 X1.2418 Y1.3308 F60.00
G01 X1.2557 Y1.3262 F60.00
G01 X1.2698 Y1.3223 F60.00
G01 X1.4127 Y1.2866 F60.00
G01 X1.4270 Y1.2833 F60.00
G01 X1.4414 Y1.2808 F60.00
G01 X1.5871 Y1.2592 F60.00
G01 X1.6089 Y1.2568 F60.00
G01 X1.7634 Y1.2491 F60.00
G01 X1.7780 Y1.2488 F60.00
G01 X4.7263 Y1.2489 F60.00
G01 X4.8807 Y1.2564 F60.00
G01 X4.8954 Y1.2574 F60.00
G01 X4.9099 Y1.2592 F60.00
G01 X5.0556 Y1.2808 F60.00
G01 X5.0700 Y1.2833 F60.00
G01 X5.0843 Y1.2866 F60.00
G01 X5.2272 Y1.3223 F60.00
G01 X5.2413 Y1.3262 F60.00
G01 X5.2552 Y1.3308 F60.00
G01 X5.3947 Y1.3808 F60.00
G01 X7.7470 Y1.3808 F60.00
G01 X7.7616 Y1.3811 F60.00
G01 X7.8343 Y1.3847 F60.00
G01 X8.3386 Y0.8810 F60.00
G01 X8.4532 Y0.7772 F60.00
G01 X8.4643 Y0.7676 F60.00
G01 X8.4758 Y0.7586 F60.00
G01 X8.5942 Y0.6709 F60.00
G01 X8.6123 Y0.6585 F60.00
G01 X8.7449 Y0.5790 F60.00
G01 X8.7576 Y0.5718 F60.00
G01 X8.7707 Y0.5652 F60.00
G01 X8.9039 Y0.5023 F60.00
G01 X8.9173 Y0.4964 F60.00
G01 X8.9310 Y0.4911 F60.00
G01 X9.0696 Y0.4416 F60.00
G01 X9.0836 Y0.4370 F60.00
G01 X9.0977 Y0.4331 F60.00
G01 X9.2406 Y0.3974 F60.00
G01 X9.2549 Y0.3942 F60.00
G01 X9.2693 Y0.3917 F60.00
G01 X9.4150 Y0.3701 F60.00
G01 X9.4295 Y0.3684 F60.00
G01 X9.4441 Y0.3673 F60.00
G01 X9.5912 Y0.3601 F60.00
G01 X9.6059 Y0.3598 F60.00
G01 X9.6205 Y0.3601 F60.00
G01 X9.7676 Y0.3674 F60.00
G01 X9.7822 Y0.3685 F60.00
G01 X9.7968 Y0.3703 F60.00
G01 X9.9424 Y0.3920 F60.00
G01 X9.9569 Y0.3945 F60.00
G01 X9.9712 Y0.3977 F60.00
G01 X10.1140 Y0.4336 F60.00
G01 X10.1281 Y0.4375 F60.00
G01 X10.1420 Y0.4421 F60.00
G01 X10.2807 Y0.4918 F60.00
G01 X10.2943 Y0.4971 F60.00
G01 X10.3077 Y0.5030 F60.00
G01 X10.4408 Y0.5660 F60.00
G01 X10.4539 Y0.5726 F60.00
G01 X10.4667 Y0.5799 F60.00
G01 X10.5930 Y0.6556 F60.00
G01 X10.6053 Y0.6635 F60.00
G01 X10.6173 Y0.6719 F60.00
G01 X10.7356 Y0.7597 F60.00
G01 X10.7471 Y0.7687 F60.00
G01 X10.7582 Y0.7783 F60.00
G01 X10.8673 Y0.8773 F60.00
G01 X10.8779 Y0.8874 F60.00
G01 X10.8880 Y0.8980 F60.00
G01 X10.9868 Y1.0072 F60.00
G01 X10.9964 Y1.0183 F60.00
G01 X11.0054 Y1.0298 F60.00
G01 X11.0931 Y1.1482 F60.00
G01 X11.1015 Y1.1601 F60.00
G01 X11.1093 Y1.1725 F60.00
G01 X11.1850 Y1.2989 F60.00
G01 X11.1956 Y1.3181 F60.00
G01 X11.2617 Y1.4579 F60.00
G01 X11.2676 Y1.4713 F60.00
G01 X11.2729 Y1.4850 F60.00
G01 X11.3224 Y1.6236 F60.00
G01 X11.3270 Y1.6376 F60.00
G01 X11.3309 Y1.6517 F60.00
G01 X11.3666 Y1.7946 F60.00
G01 X11.3698 Y1.8089 F60.00
G01 X11.3723 Y1.8233 F60.00
G01 X11.3939 Y1.9690 F60.00
G01 X11.3956 Y1.9835 F60.00
G01 X11.3967 Y1.9981 F60.00
G01 X11.4039 Y2.1452 F60.00
G01 X11.4042 Y2.1599 F60.00
G01 X11.4039 Y2.1745 F60.00
G01 X11.3966 Y2.3216 F60.00
G01 X11.3955 Y2.3362 F60.00
G01 X11.3937 Y2.3508 F60.00
G01 X11.3720 Y2.4964 F60.00
G01 X11.3695 Y2.5109 F60.00
G01 X11.3663 Y2.5252 F60.00
G01 X11.3304 Y2.6680 F60.00
G01 X11.3265 Y2.6821 F60.00
G01 X11.3219 Y2.6960 F60.00
G01 X11.2722 Y2.8347 F60.00
G01 X11.2669 Y2.8483 F60.00
G01 X11.2610 Y2.8617 F60.00
G01 X11.1947 Y3.0014 F60.00
G01 X11.1841 Y3.0207 F60.00
G01 X11.1084 Y3.1470 F60.00
G01 X11.1005 Y3.1593 F60.00
G01 X11.0921 Y3.1713 F60.00
G01 X11.0043 Y3.2896 F60.00
G01 X10.9953 Y3.3011 F60.00
G01 X10.9857 Y3.3122 F60.00
G01 X10.8867 Y3.4213 F60.00
G01 X10.8766 Y3.4319 F60.00
G01 X9.8546 Y4.4529 F60.00
G01 X9.8440 Y4.4630 F60.00
G01 X9.7348 Y4.5618 F60.00
G01 X9.7237 Y4.5714 F60.00
G01 X9.7122 Y4.5804 F60.00
G01 X9.5938 Y4.6681 F60.00
G01 X9.5819 Y4.6765 F60.00
G01 X9.5695 Y4.6843 F60.00
G01 X9.4431 Y4.7600 F60.00
G01 X9.4239 Y4.7706 F60.00
G01 X9.2841 Y4.8367 F60.00
G01 X9.2707 Y4.8426 F60.00
G01 X9.2570 Y4.8479 F60.00
G01 X9.1184 Y4.8974 F60.00
G01 X9.1044 Y4.9020 F60.00
G01 X9.0903 Y4.9059 F60.00
G01 X8.9474 Y4.9416 F60.00
G01 X8.9331 Y4.9448 F60.00
G01 X8.9187 Y4.9473 F60.00
G01 X8.7730 Y4.9689 F60.00
G01 X8.7585 Y4.9706 F60.00
G01 X8.7439 Y4.9717 F60.00
G01 X8.5894 Y4.9791 F60.00
G01 X8.5675 Y4.9789 F60.00
G01 X8.4204 Y4.9716 F60.00
G01 X8.3985 Y4.9697 F60.00
G01 X8.2383 Y4.9458 F60.00
G01 X8.2168 Y4.9413 F60.00
G01 X8.1650 Y4.9283 F60.00
G01 X8.1123 Y4.9414 F60.00
G01 X8.0908 Y4.9460 F60.00
G01 X7.9306 Y4.9698 F60.00
G01 X7.9087 Y4.9716 F60.00
G01 X7.7543 Y4.9791 F60.00
G01 X4.8447 Y4.9791 F60.00
G01 X4.6903 Y4.9716 F60.00
G01 X4.6756 Y4.9706 F60.00
G01 X4.6611 Y4.9688 F60.00
G01 X4.5154 Y4.9472 F60.00
G01 X4.5010 Y4.9447 F60.00
G01 X4.4867 Y4.9414 F60.00
G01 X4.3438 Y4.9057 F60.00
G01 X4.3297 Y4.9018 F60.00
G01 X4.3158 Y4.8972 F60.00
G01 X4.1763 Y4.8472 F60.00
G00 Z3.0000
G00 X4.1430 Y5.0391
G01 F60.00
G01 Z-0.0980
G01 F60.00
G01 X1.7780 Y5.0391 F60.00
G01 X1.7539 Y5.0385 F60.00
G01 X1.6068 Y5.0313 F60.00
G01 X1.5828 Y5.0295 F60.00
G01 X1.5709 Y5.0282 F60.00
G01 X1.4133 Y5.0050 F60.00
G01 X1.3896 Y5.0008 F60.00
G01 X1.3661 Y4.9956 F60.00
G01 X1.2232 Y4.9598 F60.00
G01 X1.2000 Y4.9534 F60.00
G01 X1.1772 Y4.9458 F60.00
G01 X1.0385 Y4.8962 F60.00
G01 X1.0160 Y4.8875 F60.00
G01 X0.9940 Y4.8778 F60.00
G01 X0.8609 Y4.8148 F60.00
G01 X0.8394 Y4.8040 F60.00
G01 X0.8185 Y4.7921 F60.00
G01 X0.6921 Y4.7164 F60.00
G01 X0.6718 Y4.7035 F60.00
G01 X0.6521 Y4.6897 F60.00
G01 X0.5338 Y4.6020 F60.00
G01 X0.5149 Y4.5871 F60.00
G01 X0.4966 Y4.5714 F60.00
G01 X0.3875 Y4.4725 F60.00
G01 X0.3701 Y4.4559 F60.00
G01 X0.3535 Y4.4385 F60.00
G01 X0.2546 Y4.3294 F60.00
G01 X0.2389 Y4.3111 F60.00
G01 X0.2240 Y4.2922 F60.00
G01 X0.1363 Y4.1739 F60.00
G01 X0.1225 Y4.1542 F60.00
G01 X0.1096 Y4.1339 F60.00
G01 X0.0339 Y4.0075 F60.00
G01 X0.0220 Y3.9866 F60.00
G01 X0.0112 Y3.9651 F60.00
G01 X-0.0518 Y3.8320 F60.00
G01 X-0.0615 Y3.8100 F60.00
G01 X-0.0702 Y3.7875 F60.00
G01 X-0.1198 Y3.6488 F60.00
G01 X-0.1274 Y3.6260 F60.00
G01 X-0.1338 Y3.6028 F60.00
G01 X-0.1696 Y3.4599 F60.00
G01 X-0.1748 Y3.4364 F60.00
G01 X-0.1790 Y3.4127 F60.00
G01 X-0.2006 Y3.2670 F60.00
G01 X-0.2035 Y3.2432 F60.00
G01 X-0.2053 Y3.2192 F60.00
G01 X-0.2125 Y3.0721 F60.00
G01 X-0.2131 Y3.0480 F60.00
G01 X-0.2125 Y3.0239 F60.00
G01 X-0.2053 Y2.8768 F60.00
G01 X-0.2035 Y2.8528 F60.00
G01 X-0.2006 Y2.8290 F60.00
G01 X-0.1790 Y2.6833 F60.00
G01 X-0.1748 Y2.6596 F60.00
G01 X-0.1696 Y2.6361 F60.00
G01 X-0.1338 Y2.4932 F60.00
G01 X-0.1274 Y2.4700 F60.00
G01 X-0.1198 Y2.4472 F60.00
G01 X-0.0702 Y2.3085 F60.00
G01 X-0.0615 Y2.2860 F60.00
G01 X-0.0518 Y2.2640 F60.00
G01 X0.0112 Y2.1309 F60.00
G01 X0.0220 Y2.1094 F60.00
G01 X0.0339 Y2.0885 F60.00
G01 X0.1096 Y1.9621 F60.00
G01 X0.1225 Y1.9418 F60.00
G01 X0.1363 Y1.9221 F60.00
G01 X0.2240 Y1.8038 F60.00
G01 X0.2389 Y1.7849 F60.00
G01 X0.2546 Y1.7666 F60.00
G01 X0.3535 Y1.6575 F60.00
G01 X0.3701 Y1.6401 F60.00
G01 X0.3875 Y1.6235 F60.00
G01 X0.4966 Y1.5246 F60.00
G01 X0.5149 Y1.5089 F60.00
G01 X0.5338 Y1.4940 F60.00
G01 X0.6521 Y1.4063 F60.00
G01 X0.6718 Y1.3925 F60.00
G01 X0.6921 Y1.3796 F60.00
G01 X0.8185 Y1.3039 F60.00
G01 X0.8394 Y1.2920 F60.00
G01 X0.8609 Y1.2812 F60.00
G01 X0.9940 Y1.2182 F60.00
G01 X1.0160 Y1.2085 F60.00
G01 X1.0385 Y1.1998 F60.00
G01 X1.1772 Y1.1502 F60.00
G01 X1.2000 Y1.1426 F60.00
G01 X1.2232 Y1.1362 F60.00
G01 X1.3661 Y1.1004 F60.00
G01 X1.3896 Y1.0952 F60.00
G01 X1.4133 Y1.0910 F60.00
G01 X1.5590 Y1.0694 F60.00
G01 X1.5709 Y1.0678 F60.00
G01 X1.5948 Y1.0654 F60.00
G01 X1.7539 Y1.0575 F60.00
G01 X1.7780 Y1.0569 F60.00
G01 X4.7310 Y1.0570 F60.00
G01 X4.8902 Y1.0647 F60.00
G01 X4.9142 Y1.0665 F60.00
G01 X4.9380 Y1.0694 F60.00
G01 X5.0837 Y1.0910 F60.00
G01 X5.1074 Y1.0952 F60.00
G01 X5.1309 Y1.1004 F60.00
G01 X5.2738 Y1.1362 F60.00
G01 X5.2970 Y1.1426 F60.00
G01 X5.3198 Y1.1502 F60.00
G01 X5.4280 Y1.1889 F60.00
G01 X7.7587 Y1.1890 F60.00
G01 X8.1978 Y0.7504 F60.00
G01 X8.2152 Y0.7338 F60.00
G01 X8.3244 Y0.6349 F60.00
G01 X8.3426 Y0.6192 F60.00
G01 X8.3616 Y0.6044 F60.00
G01 X8.4799 Y0.5168 F60.00
G01 X8.4996 Y0.5029 F60.00
G01 X8.5200 Y0.4900 F60.00
G01 X8.6463 Y0.4144 F60.00
G01 X8.6673 Y0.4025 F60.00
G01 X8.6888 Y0.3917 F60.00
G01 X8.8219 Y0.3288 F60.00
G01 X8.8439 Y0.3191 F60.00
G01 X8.8664 Y0.3104 F60.00
G01 X9.0051 Y0.2609 F60.00
G01 X9.0279 Y0.2533 F60.00
G01 X9.0511 Y0.2469 F60.00
G01 X9.1940 Y0.2112 F60.00
G01 X9.2175 Y0.2060 F60.00
G01 X9.2412 Y0.2019 F60.00
G01 X9.3869 Y0.1803 F60.00
G01 X9.4108 Y0.1774 F60.00
G01 X9.4348 Y0.1756 F60.00
G01 X9.5819 Y0.1685 F60.00
G01 X9.6060 Y0.1679 F60.00
G01 X9.6300 Y0.1685 F60.00
G01 X9.7771 Y0.1758 F60.00
G01 X9.8011 Y0.1776 F60.00
G01 X9.8250 Y0.1805 F60.00
G01 X9.9707 Y0.2022 F60.00
G01 X9.9944 Y0.2063 F60.00
G01 X10.0179 Y0.2116 F60.00
G01 X10.1607 Y0.2475 F60.00
G01 X10.1839 Y0.2539 F60.00
G01 X10.2068 Y0.2615 F60.00
G01 X10.3454 Y0.3112 F60.00
G01 X10.3679 Y0.3198 F60.00
G01 X10.3899 Y0.3296 F60.00
G01 X10.5230 Y0.3926 F60.00
G01 X10.5445 Y0.4035 F60.00
G01 X10.5654 Y0.4153 F60.00
G01 X10.6917 Y0.4911 F60.00
G01 X10.7120 Y0.5040 F60.00
G01 X10.7317 Y0.5179 F60.00
G01 X10.8499 Y0.6057 F60.00
G01 X10.8689 Y0.6205 F60.00
G01 X10.8871 Y0.6362 F60.00
G01 X10.9962 Y0.7352 F60.00
G01 X11.0136 Y0.7518 F60.00
G01 X11.0302 Y0.7692 F60.00
G01 X11.1291 Y0.8784 F60.00
G01 X11.1448 Y0.8966 F60.00
G01 X11.1596 Y0.9156 F60.00
G01 X11.2472 Y1.0339 F60.00
G01 X11.2611 Y1.0536 F60.00
G01 X11.2740 Y1.0740 F60.00
G01 X11.3496 Y1.2003 F60.00
G01 X11.3615 Y1.2213 F60.00
G01 X11.3723 Y1.2428 F60.00
G01 X11.4352 Y1.3759 F60.00
G01 X11.4449 Y1.3979 F60.00
G01 X11.4536 Y1.4204 F60.00
G01 X11.5031 Y1.5591 F60.00
G01 X11.5107 Y1.5819 F60.00
G01 X11.5171 Y1.6051 F60.00
G01 X11.5528 Y1.7480 F60.00
G01 X11.5580 Y1.7715 F60.00
G01 X11.5621 Y1.7952 F60.00
G01 X11.5837 Y1.9409 F60.00
G01 X11.5866 Y1.9648 F60.00
G01 X11.5884 Y1.9888 F60.00
G01 X11.5955 Y2.1359 F60.00
G01 X11.5961 Y2.1600 F60.00
G01 X11.5955 Y2.1840 F60.00
G01 X11.5882 Y2.3311 F60.00
G01 X11.5864 Y2.3551 F60.00
G01 X11.5835 Y2.3790 F60.00
G01 X11.5618 Y2.5247 F60.00
G01 X11.5577 Y2.5484 F60.00
G01 X11.5524 Y2.5719 F60.00
G01 X11.5165 Y2.7147 F60.00
G01 X11.5101 Y2.7379 F60.00
G01 X11.5025 Y2.7608 F60.00
G01 X11.4528 Y2.8994 F60.00
G01 X11.4442 Y2.9219 F60.00
G01 X11.4344 Y2.9439 F60.00
G01 X11.3661 Y3.0878 F60.00
G01 X11.3547 Y3.1090 F60.00
G01 X11.3487 Y3.1194 F60.00
G01 X11.2729 Y3.2457 F60.00
G01 X11.2600 Y3.2660 F60.00
G01 X11.2461 Y3.2857 F60.00
G01 X11.1583 Y3.4039 F60.00
G01 X11.1435 Y3.4229 F60.00
G01 X11.1278 Y3.4411 F60.00
G01 X11.0288 Y3.5502 F60.00
G01 X11.0122 Y3.5676 F60.00
G01 X9.9902 Y4.5886 F60.00
G01 X9.9728 Y4.6052 F60.00
G01 X9.8636 Y4.7041 F60.00
G01 X9.8454 Y4.7198 F60.00
G01 X9.8264 Y4.7346 F60.00
G01 X9.7081 Y4.8222 F60.00
G01 X9.6884 Y4.8361 F60.00
G01 X9.6680 Y4.8490 F60.00
G01 X9.5417 Y4.9246 F60.00
G01 X9.5207 Y4.9365 F60.00
G01 X9.4992 Y4.9473 F60.00
G01 X9.3661 Y5.0102 F60.00
G01 X9.3441 Y5.0199 F60.00
G01 X9.3216 Y5.0286 F60.00
G01 X9.1829 Y5.0781 F60.00
G01 X9.1601 Y5.0857 F60.00
G01 X9.1369 Y5.0921 F60.00
G01 X8.9940 Y5.1278 F60.00
G01 X8.9705 Y5.1330 F60.00
G01 X8.9468 Y5.1371 F60.00
G01 X8.8011 Y5.1587 F60.00
G01 X8.7772 Y5.1616 F60.00
G01 X8.7532 Y5.1634 F60.00
G01 X8.5941 Y5.1710 F60.00
G01 X8.5700 Y5.1710 F60.00
G01 X8.5580 Y5.1705 F60.00
G01 X8.4109 Y5.1632 F60.00
G01 X8.3869 Y5.1614 F60.00
G01 X8.3630 Y5.1585 F60.00
G01 X8.2173 Y5.1368 F60.00
G01 X8.1936 Y5.1327 F60.00
G01 X8.1649 Y5.1261 F60.00
G01 X8.1354 Y5.1328 F60.00
G01 X8.1117 Y5.1370 F60.00
G01 X7.9660 Y5.1586 F60.00
G01 X7.9422 Y5.1615 F60.00
G01 X7.9182 Y5.1633 F60.00
G01 X7.7590 Y5.1710 F60.00
G01 X4.8400 Y5.1710 F60.00
G01 X4.6808 Y5.1633 F60.00
G01 X4.6568 Y5.1615 F60.00
G01 X4.6330 Y5.1586 F60.00
G01 X4.4873 Y5.1370 F60.00
G01 X4.4636 Y5.1328 F60.00
G01 X4.4401 Y5.1276 F60.00
G01 X4.2972 Y5.0918 F60.00
G01 X4.2740 Y5.0854 F60.00
G01 X4.2512 Y5.0778 F60.00
G01 X4.1430 Y5.0391 F60.00
G00 Z3.0000
G00 X4.1097 Y5.2310
G01 F60.00
G01 Z-0.0980
G01 F60.00
G01 X1.7613 Y5.2308 F60.00
G01 X1.5974 Y5.2229 F60.00
G01 X1.5640 Y5.2205 F60.00
G01 X1.5308 Y5.2164 F60.00
G01 X1.3686 Y5.1921 F60.00
G01 X1.3521 Y5.1890 F60.00
G01 X1.3194 Y5.1817 F60.00
G01 X1.1766 Y5.1459 F60.00
G01 X1.1443 Y5.1370 F60.00
G01 X1.1125 Y5.1265 F60.00
G01 X0.9738 Y5.0769 F60.00
G01 X0.9426 Y5.0648 F60.00
G01 X0.9120 Y5.0512 F60.00
G01 X0.7789 Y4.9883 F60.00
G01 X0.7489 Y4.9732 F60.00
G01 X0.7198 Y4.9567 F60.00
G01 X0.5935 Y4.8810 F60.00
G01 X0.5652 Y4.8631 F60.00
G01 X0.5378 Y4.8438 F60.00
G01 X0.4195 Y4.7561 F60.00
G01 X0.3931 Y4.7355 F60.00
G01 X0.3678 Y4.7136 F60.00
G01 X0.2464 Y4.6033 F60.00
G01 X0.2344 Y4.5916 F60.00
G01 X0.2113 Y4.5674 F60.00
G01 X0.1124 Y4.4582 F60.00
G01 X0.0905 Y4.4329 F60.00
G01 X0.0699 Y4.4065 F60.00
G01 X-0.0178 Y4.2882 F60.00
G01 X-0.0371 Y4.2608 F60.00
G01 X-0.0550 Y4.2325 F60.00
G01 X-0.1307 Y4.1062 F60.00
G01 X-0.1472 Y4.0771 F60.00
G01 X-0.1623 Y4.0471 F60.00
G01 X-0.2252 Y3.9140 F60.00
G01 X-0.2388 Y3.8834 F60.00
G01 X-0.2509 Y3.8522 F60.00
G01 X-0.3005 Y3.7135 F60.00
G01 X-0.3110 Y3.6817 F60.00
G01 X-0.3199 Y3.6494 F60.00
G01 X-0.3557 Y3.5066 F60.00
G01 X-0.3630 Y3.4739 F60.00
G01 X-0.3688 Y3.4409 F60.00
G01 X-0.3904 Y3.2952 F60.00
G01 X-0.3945 Y3.2620 F60.00
G01 X-0.3969 Y3.2286 F60.00
G01 X-0.4042 Y3.0815 F60.00
G01 X-0.4050 Y3.0480 F60.00
G01 X-0.4042 Y3.0145 F60.00
G01 X-0.3969 Y2.8674 F60.00
G01 X-0.3945 Y2.8340 F60.00
G01 X-0.3904 Y2.8008 F60.00
G01 X-0.3688 Y2.6551 F60.00
G01 X-0.3630 Y2.6221 F60.00
G01 X-0.3557 Y2.5894 F60.00
G01 X-0.3199 Y2.4466 F60.00
G01 X-0.3110 Y2.4143 F60.00
G01 X-0.3005 Y2.3825 F60.00
G01 X-0.2509 Y2.2438 F60.00
G01 X-0.2388 Y2.2126 F60.00
G01 X-0.2252 Y2.1820 F60.00
G01 X-0.1623 Y2.0489 F60.00
G01 X-0.1472 Y2.0189 F60.00
G01 X-0.1307 Y1.9898 F60.00
G01 X-0.0550 Y1.8635 F60.00
G01 X-0.0371 Y1.8352 F60.00
G01 X-0.0178 Y1.8078 F60.00
G01 X0.0699 Y1.6895 F60.00
G01 X0.0905 Y1.6631 F60.00
G01 X0.1124 Y1.6378 F60.00
G01 X0.2227 Y1.5164 F60.00
G01 X0.2344 Y1.5044 F60.00
G01 X0.2586 Y1.4813 F60.00
G01 X0.3678 Y1.3824 F60.00
G01 X0.3931 Y1.3605 F60.00
G01 X0.4195 Y1.3399 F60.00
G01 X0.5378 Y1.2522 F60.00
G01 X0.5514 Y1.2424 F60.00
G01 X0.5792 Y1.2238 F60.00
G01 X0.7198 Y1.1393 F60.00
G01 X0.7489 Y1.1228 F60.00
G01 X0.7789 Y1.1077 F60.00
G01 X0.9120 Y1.0448 F60.00
G01 X0.9426 Y1.0312 F60.00
G01 X0.9738 Y1.0191 F60.00
G01 X1.1125 Y0.9695 F60.00
G01 X1.1443 Y0.9590 F60.00
G01 X1.1766 Y0.9501 F60.00
G01 X1.3194 Y0.9143 F60.00
G01 X1.3521 Y0.9070 F60.00
G01 X1.3851 Y0.9012 F60.00
G01 X1.5308 Y0.8796 F60.00
G01 X1.5640 Y0.8755 F60.00
G01 X1.5807 Y0.8741 F60.00
G01 X1.7445 Y0.8658 F60.00
G01 X1.7780 Y0.8650 F60.00
G01 X4.7357 Y0.8652 F60.00
G01 X4.8996 Y0.8731 F60.00
G01 X4.9330 Y0.8755 F60.00
G01 X4.9662 Y0.8796 F60.00
G01 X5.1284 Y0.9039 F60.00
G01 X5.1613 Y0.9104 F60.00
G01 X5.1776 Y0.9143 F60.00
G01 X5.3366 Y0.9543 F60.00
G01 X5.3687 Y0.9641 F60.00
G01 X5.4613 Y0.9970 F60.00
G01 X7.6794 Y0.9970 F60.00
G01 X8.0741 Y0.6030 F60.00
G01 X8.2081 Y0.4816 F60.00
G01 X8.2210 Y0.4709 F60.00
G01 X8.2474 Y0.4503 F60.00
G01 X8.3657 Y0.3626 F60.00
G01 X8.3931 Y0.3433 F60.00
G01 X8.4214 Y0.3254 F60.00
G01 X8.5477 Y0.2498 F60.00
G01 X8.5769 Y0.2333 F60.00
G01 X8.6068 Y0.2182 F60.00
G01 X8.7400 Y0.1553 F60.00
G01 X8.7706 Y0.1418 F60.00
G01 X8.8018 Y0.1297 F60.00
G01 X8.9405 Y0.0802 F60.00
G01 X8.9723 Y0.0697 F60.00
G01 X9.0046 Y0.0608 F60.00
G01 X9.1475 Y0.0251 F60.00
G01 X9.1802 Y0.0178 F60.00
G01 X9.2132 Y0.0120 F60.00
G01 X9.3589 Y-0.0095 F60.00
G01 X9.3755 Y-0.0117 F60.00
G01 X9.4088 Y-0.0150 F60.00
G01 X9.5893 Y-0.0238 F60.00
G01 X9.6061 Y-0.0240 F60.00
G01 X9.6395 Y-0.0231 F60.00
G01 X9.7866 Y-0.0159 F60.00
G01 X9.8200 Y-0.0134 F60.00
G01 X9.8533 Y-0.0093 F60.00
G01 X9.9989 Y0.0124 F60.00
G01 X10.0319 Y0.0182 F60.00
G01 X10.0646 Y0.0255 F60.00
G01 X10.2074 Y0.0614 F60.00
G01 X10.2397 Y0.0703 F60.00
G01 X10.2715 Y0.0808 F60.00
G01 X10.4101 Y0.1305 F60.00
G01 X10.4414 Y0.1426 F60.00
G01 X10.4720 Y0.1562 F60.00
G01 X10.6051 Y0.2192 F60.00
G01 X10.6350 Y0.2343 F60.00
G01 X10.6641 Y0.2508 F60.00
G01 X10.7904 Y0.3266 F60.00
G01 X10.8187 Y0.3445 F60.00
G01 X10.8461 Y0.3638 F60.00
G01 X10.9643 Y0.4516 F60.00
G01 X10.9907 Y0.4722 F60.00
G01 X11.0160 Y0.4941 F60.00
G01 X11.1251 Y0.5930 F60.00
G01 X11.1494 Y0.6162 F60.00
G01 X11.1724 Y0.6404 F60.00
G01 X11.2713 Y0.7496 F60.00
G01 X11.2931 Y0.7750 F60.00
G01 X11.3137 Y0.8014 F60.00
G01 X11.4014 Y0.9197 F60.00
G01 X11.4207 Y0.9471 F60.00
G01 X11.4386 Y0.9754 F60.00
G01 X11.5227 Y1.1162 F60.00
G01 X11.5384 Y1.1458 F60.00
G01 X11.5458 Y1.1608 F60.00
G01 X11.6087 Y1.2940 F60.00
G01 X11.6222 Y1.3246 F60.00
G01 X11.6343 Y1.3558 F60.00
G01 X11.6838 Y1.4945 F60.00
G01 X11.6943 Y1.5263 F60.00
G01 X11.7032 Y1.5586 F60.00
G01 X11.7389 Y1.7015 F60.00
G01 X11.7462 Y1.7342 F60.00
G01 X11.7520 Y1.7672 F60.00
G01 X11.7735 Y1.9129 F60.00
G01 X11.7776 Y1.9461 F60.00
G01 X11.7800 Y1.9795 F60.00
G01 X11.7872 Y2.1266 F60.00
G01 X11.7880 Y2.1601 F60.00
G01 X11.7871 Y2.1935 F60.00
G01 X11.7799 Y2.3406 F60.00
G01 X11.7774 Y2.3740 F60.00
G01 X11.7733 Y2.4073 F60.00
G01 X11.7516 Y2.5529 F60.00
G01 X11.7458 Y2.5859 F60.00
G01 X11.7385 Y2.6186 F60.00
G01 X11.7026 Y2.7614 F60.00
G01 X11.6937 Y2.7937 F60.00
G01 X11.6832 Y2.8255 F60.00
G01 X11.6335 Y2.9641 F60.00
G01 X11.6276 Y2.9798 F60.00
G01 X11.6148 Y3.0108 F60.00
G01 X11.5448 Y3.1591 F60.00
G01 X11.5297 Y3.1890 F60.00
G01 X11.5216 Y3.2037 F60.00
G01 X11.4374 Y3.3444 F60.00
G01 X11.4195 Y3.3727 F60.00
G01 X11.4002 Y3.4001 F60.00
G01 X11.3124 Y3.5183 F60.00
G01 X11.2918 Y3.5447 F60.00
G01 X11.2699 Y3.5700 F60.00
G01 X11.1710 Y3.6791 F60.00
G01 X11.1478 Y3.7034 F60.00
G01 X10.1258 Y4.7244 F60.00
G01 X10.1016 Y4.7474 F60.00
G01 X9.9924 Y4.8463 F60.00
G01 X9.9670 Y4.8681 F60.00
G01 X9.9406 Y4.8887 F60.00
G01 X9.8223 Y4.9764 F60.00
G01 X9.7949 Y4.9957 F60.00
G01 X9.7809 Y5.0048 F60.00
G01 X9.6258 Y5.0977 F60.00
G01 X9.5962 Y5.1134 F60.00
G01 X9.5812 Y5.1208 F60.00
G01 X9.4480 Y5.1837 F60.00
G01 X9.4174 Y5.1972 F60.00
G01 X9.3862 Y5.2093 F60.00
G01 X9.2475 Y5.2588 F60.00
G01 X9.2157 Y5.2693 F60.00
G01 X9.1834 Y5.2782 F60.00
G01 X9.0405 Y5.3139 F60.00
G01 X9.0078 Y5.3212 F60.00
G01 X8.9748 Y5.3270 F60.00
G01 X8.8291 Y5.3485 F60.00
G01 X8.8125 Y5.3507 F60.00
G01 X8.7792 Y5.3540 F60.00
G01 X8.5987 Y5.3628 F60.00
G01 X8.5652 Y5.3628 F60.00
G01 X8.5485 Y5.3621 F60.00
G01 X8.4014 Y5.3549 F60.00
G01 X8.3680 Y5.3524 F60.00
G01 X8.3347 Y5.3483 F60.00
G01 X8.1891 Y5.3266 F60.00
G01 X8.1650 Y5.3225 F60.00
G01 X8.1399 Y5.3268 F60.00
G01 X7.9942 Y5.3484 F60.00
G01 X7.9610 Y5.3525 F60.00
G01 X7.9276 Y5.3549 F60.00
G01 X7.7805 Y5.3622 F60.00
G01 X7.7470 Y5.3630 F60.00
G01 X4.8353 Y5.3628 F60.00
G01 X4.6714 Y5.3549 F60.00
G01 X4.6380 Y5.3525 F60.00
G01 X4.6048 Y5.3484 F60.00
G01 X4.4426 Y5.3241 F60.00
G01 X4.4261 Y5.3210 F60.00
G01 X4.3934 Y5.3137 F60.00
G01 X4.2344 Y5.2737 F60.00
G01 X4.2023 Y5.2639 F60.00
G01 X4.1097 Y5.2310 F60.00
G00 Z3.0000
G00 X4.0764 Y5.4229
G01 F60.00
G01 Z-0.0980
G01 F60.00
G01 X1.7780 Y5.4229 F60.00
G01 X1.7565 Y5.4226 F60.00
G01 X1.5880 Y5.4146 F60.00
G01 X1.5666 Y5.4133 F60.00
G01 X1.5452 Y5.4114 F60.00
G01 X1.5239 Y5.4091 F60.00
G01 X1.5026 Y5.4062 F60.00
G01 X1.3358 Y5.3812 F60.00
G01 X1.3147 Y5.3772 F60.00
G01 X1.2937 Y5.3728 F60.00
G01 X1.2728 Y5.3678 F60.00
G01 X1.1300 Y5.3320 F60.00
G01 X1.1092 Y5.3266 F60.00
G01 X1.0886 Y5.3206 F60.00
G01 X1.0682 Y5.3141 F60.00
G01 X1.0479 Y5.3071 F60.00
G01 X0.9092 Y5.2575 F60.00
G01 X0.8891 Y5.2501 F60.00
G01 X0.8692 Y5.2421 F60.00
G01 X0.8495 Y5.2336 F60.00
G01 X0.8300 Y5.2247 F60.00
G01 X0.6968 Y5.1617 F60.00
G01 X0.6775 Y5.1523 F60.00
G01 X0.6585 Y5.1424 F60.00
G01 X0.6397 Y5.1321 F60.00
G01 X0.6212 Y5.1213 F60.00
G01 X0.4948 Y5.0456 F60.00
G01 X0.4766 Y5.0343 F60.00
G01 X0.4586 Y5.0226 F60.00
G01 X0.4409 Y5.0105 F60.00
G01 X0.4235 Y4.9979 F60.00
G01 X0.3052 Y4.9102 F60.00
G01 X0.2881 Y4.8972 F60.00
G01 X0.2714 Y4.8838 F60.00
G01 X0.2550 Y4.8700 F60.00
G01 X0.2389 Y4.8558 F60.00
G01 X0.1298 Y4.7569 F60.00
G01 X0.1141 Y4.7423 F60.00
G01 X0.0987 Y4.7273 F60.00
G01 X0.0837 Y4.7119 F60.00
G01 X0.0691 Y4.6962 F60.00
G01 X-0.0298 Y4.5871 F60.00
G01 X-0.0440 Y4.5710 F60.00
G01 X-0.0578 Y4.5546 F60.00
G01 X-0.0712 Y4.5379 F60.00
G01 X-0.0842 Y4.5208 F60.00
G01 X-0.1719 Y4.4025 F60.00
G01 X-0.1845 Y4.3851 F60.00
G01 X-0.1966 Y4.3674 F60.00
G01 X-0.2083 Y4.3494 F60.00
G01 X-0.2196 Y4.3312 F60.00
G01 X-0.2953 Y4.2048 F60.00
G01 X-0.3061 Y4.1863 F60.00
G01 X-0.3164 Y4.1675 F60.00
G01 X-0.3263 Y4.1485 F60.00
G01 X-0.3357 Y4.1292 F60.00
G01 X-0.3987 Y3.9960 F60.00
G01 X-0.4076 Y3.9765 F60.00
G01 X-0.4161 Y3.9568 F60.00
G01 X-0.4241 Y3.9369 F60.00
G01 X-0.4315 Y3.9168 F60.00
G01 X-0.4811 Y3.7781 F60.00
G01 X-0.4881 Y3.7578 F60.00
G01 X-0.4946 Y3.7374 F60.00
G01 X-0.5006 Y3.7168 F60.00
G01 X-0.5060 Y3.6960 F60.00
G01 X-0.5418 Y3.5532 F60.00
G01 X-0.5468 Y3.5323 F60.00
G01 X-0.5512 Y3.5113 F60.00
G01 X-0.5552 Y3.4902 F60.00
G01 X-0.5586 Y3.4690 F60.00
G01 X-0.5802 Y3.3234 F60.00
G01 X-0.5831 Y3.3021 F60.00
G01 X-0.5854 Y3.2808 F60.00
G01 X-0.5873 Y3.2594 F60.00
G01 X-0.5886 Y3.2380 F60.00
G01 X-0.5958 Y3.0909 F60.00
G01 X-0.5966 Y3.0695 F60.00
G01 X-0.5969 Y3.0480 F60.00
G01 X-0.5966 Y3.0265 F60.00
G01 X-0.5958 Y3.0051 F60.00
G01 X-0.5886 Y2.8580 F60.00
G01 X-0.5873 Y2.8366 F60.00
G01 X-0.5854 Y2.8152 F60.00
G01 X-0.5831 Y2.7939 F60.00
G01 X-0.5802 Y2.7726 F60.00
G01 X-0.5586 Y2.6270 F60.00
G01 X-0.5552 Y2.6058 F60.00
G01 X-0.5512 Y2.5847 F60.00
G01 X-0.5468 Y2.5637 F60.00
G01 X-0.5418 Y2.5428 F60.00
G01 X-0.5060 Y2.4000 F60.00
G01 X-0.5006 Y2.3792 F60.00
G01 X-0.4946 Y2.3586 F60.00
G01 X-0.4881 Y2.3382 F60.00
G01 X-0.4811 Y2.3179 F60.00
G01 X-0.4315 Y2.1792 F60.00
G01 X-0.4241 Y2.1591 F60.00
G01 X-0.4161 Y2.1392 F60.00
G01 X-0.4076 Y2.1195 F60.00
G01 X-0.3987 Y2.1000 F60.00
G01 X-0.3357 Y1.9668 F60.00
G01 X-0.3263 Y1.9475 F60.00
G01 X-0.3164 Y1.9285 F60.00
G01 X-0.3061 Y1.9097 F60.00
G01 X-0.2953 Y1.8912 F60.00
G01 X-0.2196 Y1.7648 F60.00
G01 X-0.2083 Y1.7466 F60.00
G01 X-0.1966 Y1.7286 F60.00
G01 X-0.1845 Y1.7109 F60.00
G01 X-0.1719 Y1.6935 F60.00
G01 X-0.0842 Y1.5752 F60.00
G01 X-0.0712 Y1.5581 F60.00
G01 X-0.0578 Y1.5414 F60.00
G01 X-0.0440 Y1.5250 F60.00
G01 X-0.0298 Y1.5089 F60.00
G01 X0.0691 Y1.3998 F60.00
G01 X0.0837 Y1.3841 F60.00
G01 X0.0987 Y1.3687 F60.00
G01 X0.1141 Y1.3537 F60.00
G01 X0.1298 Y1.3391 F60.00
G01 X0.2389 Y1.2402 F60.00
G01 X0.2550 Y1.2260 F60.00
G01 X0.2714 Y1.2122 F60.00
G01 X0.2881 Y1.1988 F60.00
G01 X0.3052 Y1.1858 F60.00
G01 X0.4235 Y1.0981 F60.00
G01 X0.4409 Y1.0855 F60.00
G01 X0.4586 Y1.0734 F60.00
G01 X0.4766 Y1.0617 F60.00
G01 X0.4948 Y1.0504 F60.00
G01 X0.6212 Y0.9747 F60.00
G01 X0.6397 Y0.9639 F60.00
G01 X0.6585 Y0.9536 F60.00
G01 X0.6775 Y0.9437 F60.00
G01 X0.6968 Y0.9343 F60.00
G01 X0.8300 Y0.8713 F60.00
G01 X0.8495 Y0.8624 F60.00
G01 X0.8692 Y0.8539 F60.00
G01 X0.8891 Y0.8459 F60.00
G01 X1.0479 Y0.7889 F60.00
G01 X1.0682 Y0.7819 F60.00
G01 X1.0886 Y0.7754 F60.00
G01 X1.1092 Y0.7694 F60.00
G01 X1.1300 Y0.7640 F60.00
G01 X1.2728 Y0.7282 F60.00
G01 X1.2937 Y0.7232 F60.00
G01 X1.3147 Y0.7188 F60.00
G01 X1.3358 Y0.7148 F60.00
G01 X1.5026 Y0.6898 F60.00
G01 X1.5239 Y0.6869 F60.00
G01 X1.5452 Y0.6846 F60.00
G01 X1.5666 Y0.6827 F60.00
G01 X1.7351 Y0.6742 F60.00
G01 X1.7565 Y0.6734 F60.00
G01 X1.7780 Y0.6731 F60.00
G01 X4.7190 Y0.6731 F60.00
G01 X4.7405 Y0.6734 F60.00
G01 X4.9090 Y0.6814 F60.00
G01 X4.9304 Y0.6827 F60.00
G01 X4.9518 Y0.6846 F60.00
G01 X4.9731 Y0.6869 F60.00
G01 X4.9944 Y0.6898 F60.00
G01 X5.1612 Y0.7148 F60.00
G01 X5.1823 Y0.7188 F60.00
G01 X5.2033 Y0.7232 F60.00
G01 X5.2242 Y0.7282 F60.00
G01 X5.3878 Y0.7694 F60.00
G01 X5.4084 Y0.7754 F60.00
G01 X5.4288 Y0.7819 F60.00
G01 X5.4946 Y0.8051 F60.00
G01 X7.6000 Y0.8051 F60.00
G01 X7.9265 Y0.4789 F60.00
G01 X7.9419 Y0.4639 F60.00
G01 X8.0668 Y0.3505 F60.00
G01 X8.0829 Y0.3363 F60.00
G01 X8.0993 Y0.3225 F60.00
G01 X8.1161 Y0.3091 F60.00
G01 X8.1331 Y0.2961 F60.00
G01 X8.2515 Y0.2084 F60.00
G01 X8.2689 Y0.1959 F60.00
G01 X8.2866 Y0.1837 F60.00
G01 X8.3045 Y0.1720 F60.00
G01 X8.3228 Y0.1608 F60.00
G01 X8.4492 Y0.0851 F60.00
G01 X8.4677 Y0.0743 F60.00
G01 X8.4865 Y0.0640 F60.00
G01 X8.5056 Y0.0541 F60.00
G01 X8.5249 Y0.0447 F60.00
G01 X8.6775 Y-0.0271 F60.00
G01 X8.6973 Y-0.0355 F60.00
G01 X8.7172 Y-0.0435 F60.00
G01 X8.7373 Y-0.0510 F60.00
G01 X8.8760 Y-0.1005 F60.00
G01 X8.8963 Y-0.1075 F60.00
G01 X8.9167 Y-0.1139 F60.00
G01 X8.9373 Y-0.1199 F60.00
G01 X8.9581 Y-0.1254 F60.00
G01 X9.1010 Y-0.1611 F60.00
G01 X9.1218 Y-0.1660 F60.00
G01 X9.1428 Y-0.1705 F60.00
G01 X9.1639 Y-0.1744 F60.00
G01 X9.1851 Y-0.1778 F60.00
G01 X9.3521 Y-0.2022 F60.00
G01 X9.3734 Y-0.2045 F60.00
G01 X9.3948 Y-0.2064 F60.00
G01 X9.4162 Y-0.2077 F60.00
G01 X9.5847 Y-0.2156 F60.00
G01 X9.6062 Y-0.2159 F60.00
G01 X9.6276 Y-0.2156 F60.00
G01 X9.6491 Y-0.2148 F60.00
G01 X9.7961 Y-0.2075 F60.00
G01 X9.8176 Y-0.2062 F60.00
G01 X9.8389 Y-0.2043 F60.00
G01 X9.8603 Y-0.2019 F60.00
G01 X10.0272 Y-0.1774 F60.00
G01 X10.0484 Y-0.1739 F60.00
G01 X10.0695 Y-0.1700 F60.00
G01 X10.0904 Y-0.1656 F60.00
G01 X10.1113 Y-0.1606 F60.00
G01 X10.2542 Y-0.1247 F60.00
G01 X10.2749 Y-0.1193 F60.00
G01 X10.2955 Y-0.1133 F60.00
G01 X10.3159 Y-0.1068 F60.00
G01 X10.3362 Y-0.0998 F60.00
G01 X10.4749 Y-0.0501 F60.00
G01 X10.4950 Y-0.0426 F60.00
G01 X10.5149 Y-0.0346 F60.00
G01 X10.5346 Y-0.0262 F60.00
G01 X10.5541 Y-0.0172 F60.00
G01 X10.6872 Y0.0458 F60.00
G01 X10.7065 Y0.0552 F60.00
G01 X10.7255 Y0.0651 F60.00
G01 X10.7443 Y0.0755 F60.00
G01 X10.7628 Y0.0863 F60.00
G01 X10.8891 Y0.1620 F60.00
G01 X10.9074 Y0.1733 F60.00
G01 X10.9254 Y0.1850 F60.00
G01 X10.9431 Y0.1972 F60.00
G01 X10.9604 Y0.2097 F60.00
G01 X11.0787 Y0.2975 F60.00
G01 X11.0958 Y0.3105 F60.00
G01 X11.1125 Y0.3239 F60.00
G01 X11.1289 Y0.3378 F60.00
G01 X11.1450 Y0.3520 F60.00
G01 X11.2540 Y0.4509 F60.00
G01 X11.2698 Y0.4655 F60.00
G01 X11.2851 Y0.4805 F60.00
G01 X11.3001 Y0.4959 F60.00
G01 X11.3147 Y0.5116 F60.00
G01 X11.4135 Y0.6208 F60.00
G01 X11.4277 Y0.6369 F60.00
G01 X11.4415 Y0.6533 F60.00
G01 X11.4549 Y0.6701 F60.00
G01 X11.4679 Y0.6871 F60.00
G01 X11.5556 Y0.8055 F60.00
G01 X11.5681 Y0.8229 F60.00
G01 X11.5803 Y0.8406 F60.00
G01 X11.5920 Y0.8585 F60.00
G01 X11.6032 Y0.8768 F60.00
G01 X11.6897 Y1.0217 F60.00
G01 X11.7000 Y1.0405 F60.00
G01 X11.7099 Y1.0596 F60.00
G01 X11.7193 Y1.0789 F60.00
G01 X11.7822 Y1.2120 F60.00
G01 X11.7911 Y1.2315 F60.00
G01 X11.7995 Y1.2513 F60.00
G01 X11.8075 Y1.2712 F60.00
G01 X11.8150 Y1.2913 F60.00
G01 X11.8645 Y1.4300 F60.00
G01 X11.8715 Y1.4503 F60.00
G01 X11.8779 Y1.4707 F60.00
G01 X11.8839 Y1.4913 F60.00
G01 X11.9251 Y1.6550 F60.00
G01 X11.9300 Y1.6758 F60.00
G01 X11.9345 Y1.6968 F60.00
G01 X11.9384 Y1.7179 F60.00
G01 X11.9418 Y1.7391 F60.00
G01 X11.9633 Y1.8848 F60.00
G01 X11.9662 Y1.9061 F60.00
G01 X11.9685 Y1.9274 F60.00
G01 X11.9704 Y1.9488 F60.00
G01 X11.9717 Y1.9702 F60.00
G01 X11.9788 Y2.1173 F60.00
G01 X11.9796 Y2.1387 F60.00
G01 X11.9799 Y2.1602 F60.00
G01 X11.9796 Y2.1816 F60.00
G01 X11.9788 Y2.2031 F60.00
G01 X11.9715 Y2.3501 F60.00
G01 X11.9702 Y2.3716 F60.00
G01 X11.9683 Y2.3929 F60.00
G01 X11.9659 Y2.4143 F60.00
G01 X11.9630 Y2.4355 F60.00
G01 X11.9414 Y2.5812 F60.00
G01 X11.9379 Y2.6024 F60.00
G01 X11.9340 Y2.6235 F60.00
G01 X11.9296 Y2.6444 F60.00
G01 X11.9246 Y2.6653 F60.00
G01 X11.8887 Y2.8082 F60.00
G01 X11.8833 Y2.8289 F60.00
G01 X11.8773 Y2.8495 F60.00
G01 X11.8708 Y2.8699 F60.00
G01 X11.8638 Y2.8902 F60.00
G01 X11.8141 Y3.0289 F60.00
G01 X11.8066 Y3.0490 F60.00
G01 X11.7986 Y3.0689 F60.00
G01 X11.7902 Y3.0886 F60.00
G01 X11.7812 Y3.1081 F60.00
G01 X11.7182 Y3.2412 F60.00
G01 X11.7088 Y3.2605 F60.00
G01 X11.6989 Y3.2795 F60.00
G01 X11.6885 Y3.2983 F60.00
G01 X11.6777 Y3.3168 F60.00
G01 X11.6020 Y3.4431 F60.00
G01 X11.5907 Y3.4614 F60.00
G01 X11.5790 Y3.4794 F60.00
G01 X11.5668 Y3.4971 F60.00
G01 X11.5543 Y3.5144 F60.00
G01 X11.4665 Y3.6327 F60.00
G01 X11.4535 Y3.6498 F60.00
G01 X11.4401 Y3.6665 F60.00
G01 X11.4262 Y3.6829 F60.00
G01 X11.4120 Y3.6990 F60.00
G01 X11.2985 Y3.8238 F60.00
G01 X11.2835 Y3.8391 F60.00
G01 X10.2615 Y4.8601 F60.00
G01 X10.2461 Y4.8751 F60.00
G01 X10.2304 Y4.8897 F60.00
G01 X10.1212 Y4.9885 F60.00
G01 X10.1051 Y5.0027 F60.00
G01 X10.0887 Y5.0165 F60.00
G01 X10.0719 Y5.0299 F60.00
G01 X10.0549 Y5.0429 F60.00
G01 X9.9365 Y5.1306 F60.00
G01 X9.9191 Y5.1431 F60.00
G01 X9.9014 Y5.1553 F60.00
G01 X9.8835 Y5.1670 F60.00
G01 X9.7388 Y5.2539 F60.00
G01 X9.7203 Y5.2647 F60.00
G01 X9.7015 Y5.2750 F60.00
G01 X9.6824 Y5.2849 F60.00
G01 X9.6631 Y5.2943 F60.00
G01 X9.5300 Y5.3572 F60.00
G01 X9.5105 Y5.3661 F60.00
G01 X9.4907 Y5.3745 F60.00
G01 X9.4708 Y5.3825 F60.00
G01 X9.4507 Y5.3900 F60.00
G01 X9.3120 Y5.4395 F60.00
G01 X9.2917 Y5.4465 F60.00
G01 X9.2713 Y5.4529 F60.00
G01 X9.2507 Y5.4589 F60.00
G01 X9.2299 Y5.4644 F60.00
G01 X9.0870 Y5.5001 F60.00
G01 X9.0662 Y5.5050 F60.00
G01 X9.0452 Y5.5095 F60.00
G01 X9.0241 Y5.5134 F60.00
G01 X9.0029 Y5.5168 F60.00
G01 X8.8572 Y5.5383 F60.00
G01 X8.8359 Y5.5412 F60.00
G01 X8.8146 Y5.5435 F60.00
G01 X8.7932 Y5.5454 F60.00
G01 X8.6247 Y5.5538 F60.00
G01 X8.6033 Y5.5546 F60.00
G01 X8.5818 Y5.5549 F60.00
G01 X8.5604 Y5.5546 F60.00
G01 X8.5389 Y5.5538 F60.00
G01 X8.3704 Y5.5452 F60.00
G01 X8.3491 Y5.5433 F60.00
G01 X8.3277 Y5.5409 F60.00
G01 X8.3065 Y5.5380 F60.00
G01 X8.1651 Y5.5170 F60.00
G01 X8.0224 Y5.5382 F60.00
G01 X8.0011 Y5.5411 F60.00
G01 X7.9798 Y5.5434 F60.00
G01 X7.9584 Y5.5453 F60.00
G01 X7.9370 Y5.5466 F60.00
G01 X7.7899 Y5.5538 F60.00
G01 X7.7685 Y5.5546 F60.00
G01 X7.7470 Y5.5549 F60.00
G01 X4.8520 Y5.5549 F60.00
G01 X4.8305 Y5.5546 F60.00
G01 X4.6620 Y5.5466 F60.00
G01 X4.6406 Y5.5453 F60.00
G01 X4.6192 Y5.5434 F60.00
G01 X4.5979 Y5.5411 F60.00
G01 X4.5766 Y5.5382 F60.00
G01 X4.4098 Y5.5132 F60.00
G01 X4.3887 Y5.5092 F60.00
G01 X4.3677 Y5.5048 F60.00
G01 X4.3468 Y5.4998 F60.00
G01 X4.1832 Y5.4586 F60.00
G01 X4.1626 Y5.4526 F60.00
G01 X4.1422 Y5.4461 F60.00
G01 X4.0764 Y5.4229 F60.00
G00 Z3.0000
G00 X7.9093 Y1.5810
G01 F60.00
G01 Z-0.0980
G01 F60.00
G01 X8.4690 Y1.0219 F60.00
G01 X8.5859 Y0.9160 F60.00
G01 X8.7084 Y0.8251 F60.00
G01 X8.7171 Y0.8193 F60.00
G01 X8.8480 Y0.7411 F60.00
G01 X8.9882 Y0.6747 F60.00
G01 X8.9955 Y0.6718 F60.00
G01 X9.1392 Y0.6206 F60.00
G01 X9.2922 Y0.5824 F60.00
G01 X9.4482 Y0.5593 F60.00
G01 X9.6006 Y0.5518 F60.00
G01 X9.6110 Y0.5518 F60.00
G01 X9.7581 Y0.5591 F60.00
G01 X9.7685 Y0.5601 F60.00
G01 X9.9193 Y0.5827 F60.00
G01 X10.0673 Y0.6197 F60.00
G01 X10.0748 Y0.6219 F60.00
G01 X10.2208 Y0.6743 F60.00
G01 X10.3634 Y0.7418 F60.00
G01 X10.4986 Y0.8230 F60.00
G01 X10.6253 Y0.9170 F60.00
G01 X10.7421 Y1.0230 F60.00
G01 X10.8480 Y1.1399 F60.00
G01 X10.9419 Y1.2667 F60.00
G01 X11.0229 Y1.4020 F60.00
G01 X11.0903 Y1.5446 F60.00
G01 X11.1434 Y1.6932 F60.00
G01 X11.1816 Y1.8462 F60.00
G01 X11.2047 Y2.0022 F60.00
G01 X11.2123 Y2.1598 F60.00
G01 X11.2045 Y2.3173 F60.00
G01 X11.1813 Y2.4733 F60.00
G01 X11.1443 Y2.6213 F60.00
G01 X11.1421 Y2.6288 F60.00
G01 X11.0897 Y2.7748 F60.00
G01 X11.0222 Y2.9174 F60.00
G01 X10.9410 Y3.0526 F60.00
G01 X10.8502 Y3.1752 F60.00
G01 X10.8453 Y3.1813 F60.00
G01 X10.7410 Y3.2961 F60.00
G01 X9.7190 Y4.3171 F60.00
G01 X9.6060 Y4.4196 F60.00
G01 X9.5980 Y4.4262 F60.00
G01 X9.4796 Y4.5139 F60.00
G01 X9.4709 Y4.5197 F60.00
G01 X9.3400 Y4.5979 F60.00
G01 X9.1974 Y4.6653 F60.00
G01 X9.0488 Y4.7184 F60.00
G01 X8.9009 Y4.7555 F60.00
G01 X8.8907 Y4.7575 F60.00
G01 X8.7450 Y4.7790 F60.00
G01 X8.7372 Y4.7799 F60.00
G01 X8.5822 Y4.7873 F60.00
G01 X8.4273 Y4.7798 F60.00
G01 X8.4195 Y4.7789 F60.00
G01 X8.2687 Y4.7563 F60.00
G01 X8.1650 Y4.7304 F60.00
G01 X8.0606 Y4.7565 F60.00
G01 X7.9097 Y4.7790 F60.00
G01 X7.8993 Y4.7800 F60.00
G01 X7.7496 Y4.7873 F60.00
G01 X4.8494 Y4.7873 F60.00
G01 X4.6945 Y4.7796 F60.00
G01 X4.5384 Y4.7565 F60.00
G01 X4.3854 Y4.7181 F60.00
G01 X4.2418 Y4.6669 F60.00
G01 X4.2345 Y4.6640 F60.00
G01 X4.2162 Y4.6553 F60.00
G01 X1.7780 Y4.6553 F60.00
G01 X1.6205 Y4.6476 F60.00
G01 X1.4670 Y4.6249 F60.00
G01 X1.4593 Y4.6233 F60.00
G01 X1.3165 Y4.5875 F60.00
G01 X1.3064 Y4.5845 F60.00
G01 X1.1629 Y4.5330 F60.00
G01 X1.0203 Y4.4656 F60.00
G01 X0.8894 Y4.3873 F60.00
G01 X0.8807 Y4.3814 F60.00
G01 X0.7583 Y4.2905 F60.00
G01 X0.6414 Y4.1846 F60.00
G01 X0.5355 Y4.0677 F60.00
G01 X0.4446 Y3.9453 F60.00
G01 X0.4387 Y3.9366 F60.00
G01 X0.3604 Y3.8057 F60.00
G01 X0.2951 Y3.6679 F60.00
G01 X0.2911 Y3.6582 F60.00
G01 X0.2399 Y3.5146 F60.00
G01 X0.2021 Y3.3641 F60.00
G01 X0.2006 Y3.3564 F60.00
G01 X0.1784 Y3.2055 F60.00
G01 X0.1707 Y3.0480 F60.00
G01 X0.1784 Y2.8905 F60.00
G01 X0.2015 Y2.7344 F60.00
G01 X0.2399 Y2.5814 F60.00
G01 X0.2930 Y2.4329 F60.00
G01 X0.3604 Y2.2903 F60.00
G01 X0.4415 Y2.1550 F60.00
G01 X0.5355 Y2.0283 F60.00
G01 X0.6414 Y1.9114 F60.00
G01 X0.7583 Y1.8055 F60.00
G01 X0.8850 Y1.7115 F60.00
G01 X1.0203 Y1.6304 F60.00
G01 X1.1629 Y1.5630 F60.00
G01 X1.3114 Y1.5099 F60.00
G01 X1.4619 Y1.4721 F60.00
G01 X1.4696 Y1.4706 F60.00
G01 X1.6205 Y1.4484 F60.00
G01 X1.7780 Y1.4407 F60.00
G01 X4.7216 Y1.4407 F60.00
G01 X4.8765 Y1.4484 F60.00
G01 X5.0326 Y1.4715 F60.00
G01 X5.1856 Y1.5099 F60.00
G01 X5.3292 Y1.5611 F60.00
G01 X5.3365 Y1.5640 F60.00
G01 X5.3548 Y1.5727 F60.00
G01 X7.7470 Y1.5727 F60.00
G01 X7.8993 Y1.5800 F60.00
G01 X7.9093 Y1.5810 F60.00
G00 Z3.0000
G00 X10.4804 Y10.0381
G01 F60.00
G01 Z-0.0980
G01 F60.00
G01 X1.7780 Y10.0381 F60.00
G01 X1.7539 Y10.0375 F60.00
G01 X1.6068 Y10.0303 F60.00
G01 X1.5828 Y10.0285 F60.00
G01 X1.5590 Y10.0256 F60.00
G01 X1.4133 Y10.0040 F60.00
G01 X1.4014 Y10.0021 F60.00
G01 X1.3778 Y9.9974 F60.00
G01 X1.2232 Y9.9588 F60.00
G01 X1.2000 Y9.9524 F60.00
G01 X1.1772 Y9.9448 F60.00
G01 X1.0385 Y9.8952 F60.00
G01 X1.0160 Y9.8865 F60.00
G01 X0.9940 Y9.8768 F60.00
G01 X0.8609 Y9.8138 F60.00
G01 X0.8394 Y9.8030 F60.00
G01 X0.8185 Y9.7911 F60.00
G01 X0.6921 Y9.7154 F60.00
G01 X0.6718 Y9.7025 F60.00
G01 X0.6521 Y9.6887 F60.00
G01 X0.5338 Y9.6010 F60.00
G01 X0.5149 Y9.5861 F60.00
G01 X0.4966 Y9.5704 F60.00
G01 X0.3875 Y9.4715 F60.00
G01 X0.3701 Y9.4549 F60.00
G01 X0.3535 Y9.4375 F60.00
G01 X0.2546 Y9.3284 F60.00
G01 X0.2389 Y9.3101 F60.00
G01 X0.2240 Y9.2912 F60.00
G01 X0.1363 Y9.1729 F60.00
G01 X0.1225 Y9.1532 F60.00
G01 X0.1096 Y9.1329 F60.00
G01 X0.0339 Y9.0065 F60.00
G01 X0.0220 Y8.9856 F60.00
G01 X0.0112 Y8.9641 F60.00
G01 X-0.0518 Y8.8310 F60.00
G01 X-0.0615 Y8.8090 F60.00
G01 X-0.0702 Y8.7865 F60.00
G01 X-0.1198 Y8.6478 F60.00
G01 X-0.1274 Y8.6250 F60.00
G01 X-0.1338 Y8.6018 F60.00
G01 X-0.1696 Y8.4589 F60.00
G01 X-0.1748 Y8.4354 F60.00
G01 X-0.1790 Y8.4117 F60.00
G01 X-0.2006 Y8.2660 F60.00
G01 X-0.2035 Y8.2422 F60.00
G01 X-0.2053 Y8.2182 F60.00
G01 X-0.2125 Y8.0711 F60.00
G01 X-0.2131 Y8.0470 F60.00
G01 X-0.2125 Y8.0229 F60.00
G01 X-0.2053 Y7.8758 F60.00
G01 X-0.2035 Y7.8518 F60.00
G01 X-0.2006 Y7.8280 F60.00
G01 X-0.1790 Y7.6823 F60.00
G01 X-0.1771 Y7.6704 F60.00
G01 X-0.1724 Y7.6468 F60.00
G01 X-0.1338 Y7.4922 F60.00
G01 X-0.1274 Y7.4690 F60.00
G01 X-0.1198 Y7.4462 F60.00
G01 X-0.0702 Y7.3075 F60.00
G01 X-0.0615 Y7.2850 F60.00
G01 X-0.0518 Y7.2630 F60.00
G01 X0.0112 Y7.1299 F60.00
G01 X0.0220 Y7.1084 F60.00
G01 X0.0339 Y7.0875 F60.00
G01 X0.1096 Y6.9611 F60.00
G01 X0.1225 Y6.9408 F60.00
G01 X0.1363 Y6.9211 F60.00
G01 X0.2240 Y6.8028 F60.00
G01 X0.2389 Y6.7839 F60.00
G01 X0.2546 Y6.7656 F60.00
G01 X0.3535 Y6.6565 F60.00
G01 X0.3701 Y6.6391 F60.00
G01 X0.3875 Y6.6225 F60.00
G01 X0.4966 Y6.5236 F60.00
G01 X0.5149 Y6.5079 F60.00
G01 X0.5338 Y6.4930 F60.00
G01 X0.6521 Y6.4053 F60.00
G01 X0.6718 Y6.3915 F60.00
G01 X0.6921 Y6.3786 F60.00
G01 X0.8185 Y6.3029 F60.00
G01 X0.8394 Y6.2910 F60.00
G01 X0.8609 Y6.2802 F60.00
G01 X0.9940 Y6.2172 F60.00
G01 X1.0160 Y6.2075 F60.00
G01 X1.0385 Y6.1988 F60.00
G01 X1.1772 Y6.1492 F60.00
G01 X1.2000 Y6.1416 F60.00
G01 X1.2232 Y6.1352 F60.00
G01 X1.3661 Y6.0994 F60.00
G01 X1.3896 Y6.0942 F60.00
G01 X1.4133 Y6.0900 F60.00
G01 X1.5590 Y6.0684 F60.00
G01 X1.5709 Y6.0668 F60.00
G01 X1.5948 Y6.0644 F60.00
G01 X1.7539 Y6.0565 F60.00
G01 X1.7780 Y6.0559 F60.00
G01 X10.9670 Y6.0559 F60.00
G01 X10.9911 Y6.0565 F60.00
G01 X11.1382 Y6.0637 F60.00
G01 X11.1622 Y6.0655 F60.00
G01 X11.1860 Y6.0684 F60.00
G01 X11.3317 Y6.0900 F60.00
G01 X11.3554 Y6.0942 F60.00
G01 X11.3789 Y6.0994 F60.00
G01 X11.5356 Y6.1389 F60.00
G01 X21.5243 Y6.1389 F60.00
G01 X21.6242 Y6.1032 F60.00
G01 X21.6355 Y6.0993 F60.00
G01 X21.6586 Y6.0923 F60.00
G01 X21.8131 Y6.0534 F60.00
G01 X21.8248 Y6.0506 F60.00
G01 X21.8484 Y6.0459 F60.00
G01 X22.0060 Y6.0224 F60.00
G01 X22.0298 Y6.0195 F60.00
G01 X22.0538 Y6.0177 F60.00
G01 X22.2009 Y6.0105 F60.00
G01 X22.2250 Y6.0099 F60.00
G01 X24.0830 Y6.0099 F60.00
G01 X24.1071 Y6.0105 F60.00
G01 X24.2542 Y6.0177 F60.00
G01 X24.2782 Y6.0195 F60.00
G01 X24.3020 Y6.0224 F60.00
G01 X24.4477 Y6.0440 F60.00
G01 X24.4714 Y6.0482 F60.00
G01 X24.4949 Y6.0534 F60.00
G01 X24.6378 Y6.0892 F60.00
G01 X24.6610 Y6.0956 F60.00
G01 X24.6838 Y6.1032 F60.00
G01 X24.8225 Y6.1528 F60.00
G01 X24.8450 Y6.1615 F60.00
G01 X24.8670 Y6.1712 F60.00
G01 X25.0001 Y6.2342 F60.00
G01 X25.0216 Y6.2450 F60.00
G01 X25.0425 Y6.2569 F60.00
G01 X25.1689 Y6.3326 F60.00
G01 X25.1892 Y6.3455 F60.00
G01 X25.2089 Y6.3593 F60.00
G01 X25.3272 Y6.4470 F60.00
G01 X25.3461 Y6.4619 F60.00
G01 X25.3644 Y6.4776 F60.00
G01 X25.4735 Y6.5765 F60.00
G01 X25.4909 Y6.5931 F60.00
G01 X25.5075 Y6.6105 F60.00
G01 X25.6064 Y6.7196 F60.00
G01 X25.6221 Y6.7379 F60.00
G01 X25.6370 Y6.7568 F60.00
G01 X25.7247 Y6.8751 F60.00
G01 X25.7385 Y6.8948 F60.00
G01 X25.7514 Y6.9151 F60.00
G01 X25.8271 Y7.0415 F60.00
G01 X25.8390 Y7.0624 F60.00
G01 X25.8498 Y7.0839 F60.00
G01 X25.9128 Y7.2170 F60.00
G01 X25.9225 Y7.2390 F60.00
G01 X25.9312 Y7.2615 F60.00
G01 X25.9808 Y7.4002 F60.00
G01 X25.9884 Y7.4230 F60.00
G01 X25.9948 Y7.4462 F60.00
G01 X26.0306 Y7.5891 F60.00
G01 X26.0358 Y7.6126 F60.00
G01 X26.0400 Y7.6363 F60.00
G01 X26.0616 Y7.7820 F60.00
G01 X26.0645 Y7.8058 F60.00
G01 X26.0663 Y7.8298 F60.00
G01 X26.0735 Y7.9769 F60.00
G01 X26.0741 Y8.0010 F60.00
G01 X26.0735 Y8.0251 F60.00
G01 X26.0663 Y8.1722 F60.00
G01 X26.0645 Y8.1962 F60.00
G01 X26.0616 Y8.2200 F60.00
G01 X26.0400 Y8.3657 F60.00
G01 X26.0358 Y8.3894 F60.00
G01 X26.0306 Y8.4129 F60.00
G01 X25.9948 Y8.5558 F60.00
G01 X25.9884 Y8.5790 F60.00
G01 X25.9808 Y8.6018 F60.00
G01 X25.9312 Y8.7405 F60.00
G01 X25.9225 Y8.7630 F60.00
G01 X25.9128 Y8.7850 F60.00
G01 X25.8498 Y8.9181 F60.00
G01 X25.8390 Y8.9396 F60.00
G01 X25.8271 Y8.9605 F60.00
G01 X25.7514 Y9.0869 F60.00
G01 X25.7385 Y9.1072 F60.00
G01 X25.7247 Y9.1269 F60.00
G01 X25.6370 Y9.2452 F60.00
G01 X25.6221 Y9.2641 F60.00
G01 X25.6064 Y9.2824 F60.00
G01 X25.5075 Y9.3915 F60.00
G01 X25.4909 Y9.4089 F60.00
G01 X25.4735 Y9.4255 F60.00
G01 X25.3644 Y9.5244 F60.00
G01 X25.3461 Y9.5401 F60.00
G01 X25.3272 Y9.5550 F60.00
G01 X25.2089 Y9.6427 F60.00
G01 X25.1892 Y9.6565 F60.00
G01 X25.1689 Y9.6694 F60.00
G01 X25.0425 Y9.7451 F60.00
G01 X25.0216 Y9.7570 F60.00
G01 X25.0001 Y9.7678 F60.00
G01 X24.8670 Y9.8308 F60.00
G01 X24.8450 Y9.8405 F60.00
G01 X24.8225 Y9.8492 F60.00
G01 X24.6838 Y9.8988 F60.00
G01 X24.6610 Y9.9064 F60.00
G01 X24.6378 Y9.9128 F60.00
G01 X24.4949 Y9.9486 F60.00
G01 X24.4714 Y9.9538 F60.00
G01 X24.4477 Y9.9580 F60.00
G01 X24.3020 Y9.9796 F60.00
G01 X24.2782 Y9.9825 F60.00
G01 X24.2542 Y9.9843 F60.00
G01 X24.0950 Y9.9920 F60.00
G01 X22.7967 Y9.9921 F60.00
G01 X22.6968 Y10.0278 F60.00
G01 X22.6855 Y10.0317 F60.00
G01 X22.6624 Y10.0387 F60.00
G01 X22.5079 Y10.0776 F60.00
G01 X22.4844 Y10.0828 F60.00
G01 X22.4726 Y10.0851 F60.00
G01 X22.3150 Y10.1086 F60.00
G01 X22.2912 Y10.1115 F60.00
G01 X22.2672 Y10.1133 F60.00
G01 X22.1201 Y10.1205 F60.00
G01 X22.0960 Y10.1211 F60.00
G01 X11.0490 Y10.1211 F60.00
G01 X11.0249 Y10.1205 F60.00
G01 X10.8778 Y10.1133 F60.00
G01 X10.8538 Y10.1115 F60.00
G01 X10.8300 Y10.1086 F60.00
G01 X10.6843 Y10.0870 F60.00
G01 X10.6606 Y10.0828 F60.00
G01 X10.6371 Y10.0776 F60.00
G01 X10.4804 Y10.0381 F60.00
G00 Z3.0000
G00 X10.4558 Y10.2300
G01 F60.00
G01 Z-0.0980
G01 F60.00
G01 X1.7780 Y10.2300 F60.00
G01 X1.7445 Y10.2292 F60.00
G01 X1.5974 Y10.2219 F60.00
G01 X1.5640 Y10.2195 F60.00
G01 X1.5308 Y10.2154 F60.00
G01 X1.3851 Y10.1938 F60.00
G01 X1.3521 Y10.1880 F60.00
G01 X1.3194 Y10.1807 F60.00
G01 X1.1766 Y10.1449 F60.00
G01 X1.1443 Y10.1360 F60.00
G01 X1.1125 Y10.1255 F60.00
G01 X0.9738 Y10.0759 F60.00
G01 X0.9426 Y10.0638 F60.00
G01 X0.9120 Y10.0502 F60.00
G01 X0.7789 Y9.9873 F60.00
G01 X0.7489 Y9.9722 F60.00
G01 X0.7198 Y9.9557 F60.00
G01 X0.5935 Y9.8800 F60.00
G01 X0.5652 Y9.8621 F60.00
G01 X0.5378 Y9.8428 F60.00
G01 X0.4195 Y9.7551 F60.00
G01 X0.3931 Y9.7345 F60.00
G01 X0.3678 Y9.7126 F60.00
G01 X0.2586 Y9.6137 F60.00
G01 X0.2344 Y9.5906 F60.00
G01 X0.2113 Y9.5664 F60.00
G01 X0.1124 Y9.4572 F60.00
G01 X0.0905 Y9.4319 F60.00
G01 X0.0699 Y9.4055 F60.00
G01 X-0.0178 Y9.2872 F60.00
G01 X-0.0371 Y9.2598 F60.00
G01 X-0.0550 Y9.2315 F60.00
G01 X-0.1391 Y9.0907 F60.00
G01 X-0.1472 Y9.0761 F60.00
G01 X-0.1623 Y9.0461 F60.00
G01 X-0.2252 Y8.9130 F60.00
G01 X-0.2388 Y8.8824 F60.00
G01 X-0.2509 Y8.8512 F60.00
G01 X-0.3005 Y8.7125 F60.00
G01 X-0.3110 Y8.6807 F60.00
G01 X-0.3199 Y8.6484 F60.00
G01 X-0.3557 Y8.5056 F60.00
G01 X-0.3630 Y8.4729 F60.00
G01 X-0.3688 Y8.4399 F60.00
G01 X-0.3904 Y8.2942 F60.00
G01 X-0.3945 Y8.2610 F60.00
G01 X-0.3969 Y8.2276 F60.00
G01 X-0.4042 Y8.0805 F60.00
G01 X-0.4050 Y8.0470 F60.00
G01 X-0.4042 Y8.0135 F60.00
G01 X-0.3969 Y7.8664 F60.00
G01 X-0.3945 Y7.8330 F60.00
G01 X-0.3904 Y7.7998 F60.00
G01 X-0.3688 Y7.6541 F60.00
G01 X-0.3630 Y7.6211 F60.00
G01 X-0.3557 Y7.5884 F60.00
G01 X-0.3199 Y7.4456 F60.00
G01 X-0.3110 Y7.4133 F60.00
G01 X-0.3059 Y7.3973 F60.00
G01 X-0.2509 Y7.2428 F60.00
G01 X-0.2388 Y7.2116 F60.00
G01 X-0.2252 Y7.1810 F60.00
G01 X-0.1623 Y7.0479 F60.00
G01 X-0.1472 Y7.0179 F60.00
G01 X-0.1307 Y6.9888 F60.00
G01 X-0.0550 Y6.8625 F60.00
G01 X-0.0371 Y6.8342 F60.00
G01 X-0.0178 Y6.8068 F60.00
G01 X0.0699 Y6.6885 F60.00
G01 X0.0905 Y6.6621 F60.00
G01 X0.1124 Y6.6368 F60.00
G01 X0.2113 Y6.5276 F60.00
G01 X0.2344 Y6.5034 F60.00
G01 X0.2586 Y6.4803 F60.00
G01 X0.3678 Y6.3814 F60.00
G01 X0.3931 Y6.3595 F60.00
G01 X0.4195 Y6.3389 F60.00
G01 X0.5378 Y6.2512 F60.00
G01 X0.5652 Y6.2319 F60.00
G01 X0.5935 Y6.2140 F60.00
G01 X0.7198 Y6.1383 F60.00
G01 X0.7489 Y6.1218 F60.00
G01 X0.7789 Y6.1067 F60.00
G01 X0.9120 Y6.0438 F60.00
G01 X0.9426 Y6.0302 F60.00
G01 X0.9738 Y6.0181 F60.00
G01 X1.1125 Y5.9685 F60.00
G01 X1.1443 Y5.9580 F60.00
G01 X1.1766 Y5.9491 F60.00
G01 X1.3194 Y5.9133 F60.00
G01 X1.3521 Y5.9060 F60.00
G01 X1.3851 Y5.9002 F60.00
G01 X1.5308 Y5.8786 F60.00
G01 X1.5640 Y5.8745 F60.00
G01 X1.5807 Y5.8731 F60.00
G01 X1.7445 Y5.8648 F60.00
G01 X1.7780 Y5.8640 F60.00
G01 X10.9670 Y5.8640 F60.00
G01 X11.0005 Y5.8648 F60.00
G01 X11.1476 Y5.8721 F60.00
G01 X11.1810 Y5.8745 F60.00
G01 X11.2142 Y5.8786 F60.00
G01 X11.3599 Y5.9002 F60.00
G01 X11.3929 Y5.9060 F60.00
G01 X11.4256 Y5.9133 F60.00
G01 X11.5602 Y5.9470 F60.00
G01 X21.4911 Y5.9470 F60.00
G01 X21.5753 Y5.9171 F60.00
G01 X21.6074 Y5.9073 F60.00
G01 X21.7827 Y5.8634 F60.00
G01 X21.7991 Y5.8600 F60.00
G01 X21.8321 Y5.8542 F60.00
G01 X21.9778 Y5.8326 F60.00
G01 X22.0110 Y5.8285 F60.00
G01 X22.0444 Y5.8261 F60.00
G01 X22.1915 Y5.8188 F60.00
G01 X22.2250 Y5.8180 F60.00
G01 X24.0830 Y5.8180 F60.00
G01 X24.1165 Y5.8188 F60.00
G01 X24.2636 Y5.8261 F60.00
G01 X24.2970 Y5.8285 F60.00
G01 X24.3302 Y5.8326 F60.00
G01 X24.4759 Y5.8542 F60.00
G01 X24.5089 Y5.8600 F60.00
G01 X24.5416 Y5.8673 F60.00
G01 X24.7006 Y5.9073 F60.00
G01 X24.7167 Y5.9120 F60.00
G01 X24.7485 Y5.9225 F60.00
G01 X24.8872 Y5.9721 F60.00
G01 X24.9184 Y5.9842 F60.00
G01 X24.9490 Y5.9978 F60.00
G01 X25.0821 Y6.0607 F60.00
G01 X25.1121 Y6.0758 F60.00
G01 X25.1412 Y6.0923 F60.00
G01 X25.2675 Y6.1680 F60.00
G01 X25.2958 Y6.1859 F60.00
G01 X25.3232 Y6.2052 F60.00
G01 X25.4415 Y6.2929 F60.00
G01 X25.4679 Y6.3135 F60.00
G01 X25.4932 Y6.3354 F60.00
G01 X25.6024 Y6.4343 F60.00
G01 X25.6266 Y6.4574 F60.00
G01 X25.6497 Y6.4816 F60.00
G01 X25.7486 Y6.5908 F60.00
G01 X25.7705 Y6.6161 F60.00
G01 X25.7911 Y6.6425 F60.00
G01 X25.8788 Y6.7608 F60.00
G01 X25.8981 Y6.7882 F60.00
G01 X25.9160 Y6.8165 F60.00
G01 X25.9917 Y6.9428 F60.00
G01 X26.0082 Y6.9719 F60.00
G01 X26.0233 Y7.0019 F60.00
G01 X26.0932 Y7.1502 F60.00
G01 X26.1060 Y7.1812 F60.00
G01 X26.1119 Y7.1968 F60.00
G01 X26.1615 Y7.3355 F60.00
G01 X26.1720 Y7.3673 F60.00
G01 X26.1809 Y7.3996 F60.00
G01 X26.2167 Y7.5424 F60.00
G01 X26.2240 Y7.5751 F60.00
G01 X26.2271 Y7.5916 F60.00
G01 X26.2514 Y7.7538 F60.00
G01 X26.2555 Y7.7870 F60.00
G01 X26.2579 Y7.8204 F60.00
G01 X26.2652 Y7.9675 F60.00
G01 X26.2660 Y8.0010 F60.00
G01 X26.2652 Y8.0345 F60.00
G01 X26.2579 Y8.1816 F60.00
G01 X26.2555 Y8.2150 F60.00
G01 X26.2514 Y8.2482 F60.00
G01 X26.2298 Y8.3939 F60.00
G01 X26.2240 Y8.4269 F60.00
G01 X26.2167 Y8.4596 F60.00
G01 X26.1809 Y8.6024 F60.00
G01 X26.1720 Y8.6347 F60.00
G01 X26.1615 Y8.6665 F60.00
G01 X26.1119 Y8.8052 F60.00
G01 X26.0998 Y8.8364 F60.00
G01 X26.0862 Y8.8670 F60.00
G01 X26.0233 Y9.0001 F60.00
G01 X26.0082 Y9.0301 F60.00
G01 X25.9917 Y9.0592 F60.00
G01 X25.9160 Y9.1855 F60.00
G01 X25.8981 Y9.2138 F60.00
G01 X25.8788 Y9.2412 F60.00
G01 X25.7911 Y9.3595 F60.00
G01 X25.7705 Y9.3859 F60.00
G01 X25.7486 Y9.4112 F60.00
G01 X25.6497 Y9.5204 F60.00
G01 X25.6266 Y9.5446 F60.00
G01 X25.6024 Y9.5677 F60.00
G01 X25.4932 Y9.6666 F60.00
G01 X25.4679 Y9.6885 F60.00
G01 X25.4415 Y9.7091 F60.00
G01 X25.3232 Y9.7968 F60.00
G01 X25.2958 Y9.8161 F60.00
G01 X25.2675 Y9.8340 F60.00
G01 X25.1412 Y9.9097 F60.00
G01 X25.1121 Y9.9262 F60.00
G01 X25.0821 Y9.9413 F60.00
G01 X24.9490 Y10.0042 F60.00
G01 X24.9184 Y10.0178 F60.00
G01 X24.8872 Y10.0299 F60.00
G01 X24.7485 Y10.0795 F60.00
G01 X24.7167 Y10.0900 F60.00
G01 X24.6844 Y10.0989 F60.00
G01 X24.5416 Y10.1347 F60.00
G01 X24.5253 Y10.1386 F60.00
G01 X24.4924 Y10.1451 F60.00
G01 X24.3302 Y10.1694 F60.00
G01 X24.2970 Y10.1735 F60.00
G01 X24.2636 Y10.1759 F60.00
G01 X24.0997 Y10.1838 F60.00
G01 X22.8299 Y10.1840 F60.00
G01 X22.7457 Y10.2139 F60.00
G01 X22.7136 Y10.2237 F60.00
G01 X22.5546 Y10.2637 F60.00
G01 X22.5383 Y10.2676 F60.00
G01 X22.5054 Y10.2741 F60.00
G01 X22.3432 Y10.2984 F60.00
G01 X22.3100 Y10.3025 F60.00
G01 X22.2766 Y10.3049 F60.00
G01 X22.1295 Y10.3122 F60.00
G01 X22.0960 Y10.3130 F60.00
G01 X11.0490 Y10.3130 F60.00
G01 X11.0155 Y10.3122 F60.00
G01 X10.8684 Y10.3049 F60.00
G01 X10.8350 Y10.3025 F60.00
G01 X10.8018 Y10.2984 F60.00
G01 X10.6561 Y10.2768 F60.00
G01 X10.6231 Y10.2710 F60.00
G01 X10.5904 Y10.2637 F60.00
G01 X10.4558 Y10.2300 F60.00
G00 Z3.0000
G00 X10.4322 Y10.4219
G01 F60.00
G01 Z-0.0980
G01 F60.00
G01 X1.7780 Y10.4219 F60.00
G01 X1.7565 Y10.4216 F60.00
G01 X1.7351 Y10.4208 F60.00
G01 X1.5880 Y10.4136 F60.00
G01 X1.5666 Y10.4123 F60.00
G01 X1.5452 Y10.4104 F60.00
G01 X1.5239 Y10.4081 F60.00
G01 X1.5026 Y10.4052 F60.00
G01 X1.3570 Y10.3836 F60.00
G01 X1.3358 Y10.3802 F60.00
G01 X1.3147 Y10.3762 F60.00
G01 X1.2937 Y10.3718 F60.00
G01 X1.2728 Y10.3668 F60.00
G01 X1.1092 Y10.3256 F60.00
G01 X1.0886 Y10.3196 F60.00
G01 X1.0682 Y10.3131 F60.00
G01 X1.0479 Y10.3061 F60.00
G01 X0.9092 Y10.2565 F60.00
G01 X0.8891 Y10.2491 F60.00
G01 X0.8692 Y10.2411 F60.00
G01 X0.8495 Y10.2326 F60.00
G01 X0.8300 Y10.2237 F60.00
G01 X0.6968 Y10.1607 F60.00
G01 X0.6775 Y10.1513 F60.00
G01 X0.6585 Y10.1414 F60.00
G01 X0.6397 Y10.1311 F60.00
G01 X0.6212 Y10.1203 F60.00
G01 X0.4948 Y10.0446 F60.00
G01 X0.4766 Y10.0333 F60.00
G01 X0.4586 Y10.0216 F60.00
G01 X0.4409 Y10.0095 F60.00
G01 X0.4235 Y9.9969 F60.00
G01 X0.3052 Y9.9092 F60.00
G01 X0.2881 Y9.8962 F60.00
G01 X0.2714 Y9.8828 F60.00
G01 X0.2550 Y9.8690 F60.00
G01 X0.2389 Y9.8548 F60.00
G01 X0.1298 Y9.7559 F60.00
G01 X0.1141 Y9.7413 F60.00
G01 X0.0987 Y9.7263 F60.00
G01 X0.0837 Y9.7109 F60.00
G01 X0.0691 Y9.6952 F60.00
G01 X-0.0298 Y9.5861 F60.00
G01 X-0.0440 Y9.5700 F60.00
G01 X-0.0578 Y9.5536 F60.00
G01 X-0.0712 Y9.5369 F60.00
G01 X-0.0842 Y9.5198 F60.00
G01 X-0.1719 Y9.4015 F60.00
G01 X-0.1845 Y9.3841 F60.00
G01 X-0.1966 Y9.3664 F60.00
G01 X-0.2083 Y9.3484 F60.00
G01 X-0.2196 Y9.3302 F60.00
G01 X-0.2953 Y9.2038 F60.00
G01 X-0.3061 Y9.1853 F60.00
G01 X-0.3164 Y9.1665 F60.00
G01 X-0.3263 Y9.1475 F60.00
G01 X-0.3357 Y9.1282 F60.00
G01 X-0.3987 Y8.9950 F60.00
G01 X-0.4076 Y8.9755 F60.00
G01 X-0.4161 Y8.9558 F60.00
G01 X-0.4241 Y8.9359 F60.00
G01 X-0.4315 Y8.9158 F60.00
G01 X-0.4811 Y8.7771 F60.00
G01 X-0.4881 Y8.7568 F60.00
G01 X-0.4946 Y8.7364 F60.00
G01 X-0.5006 Y8.7158 F60.00
G01 X-0.5060 Y8.6950 F60.00
G01 X-0.5418 Y8.5522 F60.00
G01 X-0.5468 Y8.5313 F60.00
G01 X-0.5512 Y8.5103 F60.00
G01 X-0.5552 Y8.4892 F60.00
G01 X-0.5586 Y8.4680 F60.00
G01 X-0.5802 Y8.3224 F60.00
G01 X-0.5831 Y8.3011 F60.00
G01 X-0.5854 Y8.2798 F60.00
G01 X-0.5873 Y8.2584 F60.00
G01 X-0.5886 Y8.2370 F60.00
G01 X-0.5958 Y8.0899 F60.00
G01 X-0.5966 Y8.0685 F60.00
G01 X-0.5969 Y8.0470 F60.00
G01 X-0.5966 Y8.0255 F60.00
G01 X-0.5958 Y8.0041 F60.00
G01 X-0.5886 Y7.8570 F60.00
G01 X-0.5873 Y7.8356 F60.00
G01 X-0.5854 Y7.8142 F60.00
G01 X-0.5831 Y7.7929 F60.00
G01 X-0.5802 Y7.7716 F60.00
G01 X-0.5586 Y7.6260 F60.00
G01 X-0.5552 Y7.6048 F60.00
G01 X-0.5512 Y7.5837 F60.00
G01 X-0.5468 Y7.5627 F60.00
G01 X-0.5418 Y7.5418 F60.00
G01 X-0.5006 Y7.3782 F60.00
G01 X-0.4946 Y7.3576 F60.00
G01 X-0.4881 Y7.3372 F60.00
G01 X-0.4811 Y7.3169 F60.00
G01 X-0.4315 Y7.1782 F60.00
G01 X-0.4241 Y7.1581 F60.00
G01 X-0.4161 Y7.1382 F60.00
G01 X-0.4076 Y7.1185 F60.00
G01 X-0.3987 Y7.0990 F60.00
G01 X-0.3357 Y6.9658 F60.00
G01 X-0.3263 Y6.9465 F60.00
G01 X-0.3164 Y6.9275 F60.00
G01 X-0.3061 Y6.9087 F60.00
G01 X-0.2953 Y6.8902 F60.00
G01 X-0.2196 Y6.7638 F60.00
G01 X-0.2083 Y6.7456 F60.00
G01 X-0.1966 Y6.7276 F60.00
G01 X-0.1845 Y6.7099 F60.00
G01 X-0.1719 Y6.6925 F60.00
G01 X-0.0842 Y6.5742 F60.00
G01 X-0.0712 Y6.5571 F60.00
G01 X-0.0578 Y6.5404 F60.00
G01 X-0.0440 Y6.5240 F60.00
G01 X-0.0298 Y6.5079 F60.00
G01 X0.0691 Y6.3988 F60.00
G01 X0.0837 Y6.3831 F60.00
G01 X0.0987 Y6.3677 F60.00
G01 X0.1141 Y6.3527 F60.00
G01 X0.1298 Y6.3381 F60.00
G01 X0.2389 Y6.2392 F60.00
G01 X0.2550 Y6.2250 F60.00
G01 X0.2714 Y6.2112 F60.00
G01 X0.2881 Y6.1978 F60.00
G01 X0.3052 Y6.1848 F60.00
G01 X0.4235 Y6.0971 F60.00
G01 X0.4409 Y6.0845 F60.00
G01 X0.4586 Y6.0724 F60.00
G01 X0.4766 Y6.0607 F60.00
G01 X0.4948 Y6.0494 F60.00
G01 X0.6212 Y5.9737 F60.00
G01 X0.6397 Y5.9629 F60.00
G01 X0.6585 Y5.9526 F60.00
G01 X0.6775 Y5.9427 F60.00
G01 X0.6968 Y5.9333 F60.00
G01 X0.8300 Y5.8703 F60.00
G01 X0.8495 Y5.8614 F60.00
G01 X0.8692 Y5.8529 F60.00
G01 X0.8891 Y5.8449 F60.00
G01 X0.9092 Y5.8375 F60.00
G01 X1.0479 Y5.7879 F60.00
G01 X1.0682 Y5.7809 F60.00
G01 X1.0886 Y5.7744 F60.00
G01 X1.1092 Y5.7684 F60.00
G01 X1.1300 Y5.7630 F60.00
G01 X1.2728 Y5.7272 F60.00
G01 X1.2937 Y5.7222 F60.00
G01 X1.3147 Y5.7178 F60.00
G01 X1.3358 Y5.7138 F60.00
G01 X1.3570 Y5.7104 F60.00
G01 X1.5026 Y5.6888 F60.00
G01 X1.5239 Y5.6859 F60.00
G01 X1.5452 Y5.6836 F60.00
G01 X1.5666 Y5.6817 F60.00
G01 X1.7351 Y5.6732 F60.00
G01 X1.7565 Y5.6724 F60.00
G01 X1.7780 Y5.6721 F60.00
G01 X10.9670 Y5.6721 F60.00
G01 X10.9885 Y5.6724 F60.00
G01 X11.0099 Y5.6732 F60.00
G01 X11.1570 Y5.6804 F60.00
G01 X11.1784 Y5.6817 F60.00
G01 X11.1998 Y5.6836 F60.00
G01 X11.2211 Y5.6859 F60.00
G01 X11.3880 Y5.7104 F60.00
G01 X11.4092 Y5.7138 F60.00
G01 X11.4303 Y5.7178 F60.00
G01 X11.4513 Y5.7222 F60.00
G01 X11.4722 Y5.7272 F60.00
G01 X11.5838 Y5.7551 F60.00
G01 X21.4578 Y5.7551 F60.00
G01 X21.5152 Y5.7349 F60.00
G01 X21.5356 Y5.7284 F60.00
G01 X21.5562 Y5.7224 F60.00
G01 X21.7198 Y5.6812 F60.00
G01 X21.7407 Y5.6762 F60.00
G01 X21.7617 Y5.6718 F60.00
G01 X21.7828 Y5.6678 F60.00
G01 X21.8040 Y5.6644 F60.00
G01 X21.9496 Y5.6428 F60.00
G01 X21.9709 Y5.6399 F60.00
G01 X21.9922 Y5.6376 F60.00
G01 X22.0136 Y5.6357 F60.00
G01 X22.0350 Y5.6344 F60.00
G01 X22.1821 Y5.6272 F60.00
G01 X22.2035 Y5.6264 F60.00
G01 X22.2250 Y5.6261 F60.00
G01 X24.0830 Y5.6261 F60.00
G01 X24.1045 Y5.6264 F60.00
G01 X24.1259 Y5.6272 F60.00
G01 X24.2730 Y5.6344 F60.00
G01 X24.2944 Y5.6357 F60.00
G01 X24.3158 Y5.6376 F60.00
G01 X24.3371 Y5.6399 F60.00
G01 X24.3584 Y5.6428 F60.00
G01 X24.5040 Y5.6644 F60.00
G01 X24.5252 Y5.6678 F60.00
G01 X24.5463 Y5.6718 F60.00
G01 X24.5673 Y5.6762 F60.00
G01 X24.5882 Y5.6812 F60.00
G01 X24.7518 Y5.7224 F60.00
G01 X24.7724 Y5.7284 F60.00
G01 X24.7928 Y5.7349 F60.00
G01 X24.8131 Y5.7419 F60.00
G01 X24.9518 Y5.7915 F60.00
G01 X24.9719 Y5.7989 F60.00
G01 X24.9918 Y5.8069 F60.00
G01 X25.0115 Y5.8154 F60.00
G01 X25.0310 Y5.8243 F60.00
G01 X25.1642 Y5.8873 F60.00
G01 X25.1835 Y5.8967 F60.00
G01 X25.2025 Y5.9066 F60.00
G01 X25.2213 Y5.9169 F60.00
G01 X25.2398 Y5.9277 F60.00
G01 X25.3662 Y6.0034 F60.00
G01 X25.3844 Y6.0147 F60.00
G01 X25.4024 Y6.0264 F60.00
G01 X25.4201 Y6.0385 F60.00
G01 X25.4375 Y6.0511 F60.00
G01 X25.5558 Y6.1388 F60.00
G01 X25.5729 Y6.1518 F60.00
G01 X25.5896 Y6.1652 F60.00
G01 X25.6060 Y6.1790 F60.00
G01 X25.6221 Y6.1932 F60.00
G01 X25.7312 Y6.2921 F60.00
G01 X25.7469 Y6.3067 F60.00
G01 X25.7623 Y6.3217 F60.00
G01 X25.7773 Y6.3371 F60.00
G01 X25.7919 Y6.3528 F60.00
G01 X25.8908 Y6.4619 F60.00
G01 X25.9050 Y6.4780 F60.00
G01 X25.9188 Y6.4944 F60.00
G01 X25.9322 Y6.5111 F60.00
G01 X25.9452 Y6.5282 F60.00
G01 X26.0329 Y6.6465 F60.00
G01 X26.0455 Y6.6639 F60.00
G01 X26.0576 Y6.6816 F60.00
G01 X26.0693 Y6.6996 F60.00
G01 X26.0806 Y6.7178 F60.00
G01 X26.1563 Y6.8442 F60.00
G01 X26.1671 Y6.8627 F60.00
G01 X26.1774 Y6.8815 F60.00
G01 X26.1873 Y6.9005 F60.00
G01 X26.1967 Y6.9198 F60.00
G01 X26.2686 Y7.0725 F60.00
G01 X26.2771 Y7.0922 F60.00
G01 X26.2851 Y7.1121 F60.00
G01 X26.2925 Y7.1322 F60.00
G01 X26.3421 Y7.2709 F60.00
G01 X26.3491 Y7.2912 F60.00
G01 X26.3556 Y7.3116 F60.00
G01 X26.3616 Y7.3322 F60.00
G01 X26.4028 Y7.4958 F60.00
G01 X26.4078 Y7.5167 F60.00
G01 X26.4122 Y7.5377 F60.00
G01 X26.4162 Y7.5588 F60.00
G01 X26.4412 Y7.7256 F60.00
G01 X26.4441 Y7.7469 F60.00
G01 X26.4464 Y7.7682 F60.00
G01 X26.4483 Y7.7896 F60.00
G01 X26.4496 Y7.8110 F60.00
G01 X26.4568 Y7.9581 F60.00
G01 X26.4576 Y7.9795 F60.00
G01 X26.4579 Y8.0010 F60.00
G01 X26.4576 Y8.0225 F60.00
G01 X26.4568 Y8.0439 F60.00
G01 X26.4496 Y8.1910 F60.00
G01 X26.4483 Y8.2124 F60.00
G01 X26.4464 Y8.2338 F60.00
G01 X26.4441 Y8.2551 F60.00
G01 X26.4412 Y8.2764 F60.00
G01 X26.4196 Y8.4220 F60.00
G01 X26.4162 Y8.4432 F60.00
G01 X26.4122 Y8.4643 F60.00
G01 X26.4078 Y8.4853 F60.00
G01 X26.4028 Y8.5062 F60.00
G01 X26.3670 Y8.6490 F60.00
G01 X26.3616 Y8.6698 F60.00
G01 X26.3556 Y8.6904 F60.00
G01 X26.3491 Y8.7108 F60.00
G01 X26.3421 Y8.7311 F60.00
G01 X26.2925 Y8.8698 F60.00
G01 X26.2851 Y8.8899 F60.00
G01 X26.2771 Y8.9098 F60.00
G01 X26.2686 Y8.9295 F60.00
G01 X26.2597 Y8.9490 F60.00
G01 X26.1967 Y9.0822 F60.00
G01 X26.1873 Y9.1015 F60.00
G01 X26.1774 Y9.1205 F60.00
G01 X26.1671 Y9.1393 F60.00
G01 X26.1563 Y9.1578 F60.00
G01 X26.0806 Y9.2842 F60.00
G01 X26.0693 Y9.3024 F60.00
G01 X26.0576 Y9.3204 F60.00
G01 X26.0455 Y9.3381 F60.00
G01 X26.0329 Y9.3555 F60.00
G01 X25.9452 Y9.4738 F60.00
G01 X25.9322 Y9.4909 F60.00
G01 X25.9188 Y9.5076 F60.00
G01 X25.9050 Y9.5240 F60.00
G01 X25.8908 Y9.5401 F60.00
G01 X25.7919 Y9.6492 F60.00
G01 X25.7773 Y9.6649 F60.00
G01 X25.7623 Y9.6803 F60.00
G01 X25.7469 Y9.6953 F60.00
G01 X25.7312 Y9.7099 F60.00
G01 X25.6221 Y9.8088 F60.00
G01 X25.6060 Y9.8230 F60.00
G01 X25.5896 Y9.8368 F60.00
G01 X25.5729 Y9.8502 F60.00
G01 X25.5558 Y9.8632 F60.00
G01 X25.4375 Y9.9509 F60.00
G01 X25.4201 Y9.9635 F60.00
G01 X25.4024 Y9.9756 F60.00
G01 X25.3844 Y9.9873 F60.00
G01 X25.3662 Y9.9986 F60.00
G01 X25.2398 Y10.0743 F60.00
G01 X25.2213 Y10.0851 F60.00
G01 X25.2025 Y10.0954 F60.00
G01 X25.1835 Y10.1053 F60.00
G01 X25.1642 Y10.1147 F60.00
G01 X25.0310 Y10.1777 F60.00
G01 X25.0115 Y10.1866 F60.00
G01 X24.9918 Y10.1951 F60.00
G01 X24.9719 Y10.2031 F60.00
G01 X24.9518 Y10.2105 F60.00
G01 X24.8131 Y10.2601 F60.00
G01 X24.7928 Y10.2671 F60.00
G01 X24.7724 Y10.2736 F60.00
G01 X24.7518 Y10.2796 F60.00
G01 X24.7310 Y10.2850 F60.00
G01 X24.5882 Y10.3208 F60.00
G01 X24.5673 Y10.3258 F60.00
G01 X24.5463 Y10.3302 F60.00
G01 X24.5252 Y10.3342 F60.00
G01 X24.3584 Y10.3592 F60.00
G01 X24.3371 Y10.3621 F60.00
G01 X24.3158 Y10.3644 F60.00
G01 X24.2944 Y10.3663 F60.00
G01 X24.2730 Y10.3676 F60.00
G01 X24.1045 Y10.3756 F60.00
G01 X24.0830 Y10.3759 F60.00
G01 X22.8632 Y10.3759 F60.00
G01 X22.8058 Y10.3961 F60.00
G01 X22.7854 Y10.4026 F60.00
G01 X22.7648 Y10.4086 F60.00
G01 X22.6012 Y10.4498 F60.00
G01 X22.5803 Y10.4548 F60.00
G01 X22.5593 Y10.4592 F60.00
G01 X22.5382 Y10.4632 F60.00
G01 X22.3714 Y10.4882 F60.00
G01 X22.3501 Y10.4911 F60.00
G01 X22.3288 Y10.4934 F60.00
G01 X22.3074 Y10.4953 F60.00
G01 X22.2860 Y10.4966 F60.00
G01 X22.1389 Y10.5038 F60.00
G01 X22.1175 Y10.5046 F60.00
G01 X22.0960 Y10.5049 F60.00
G01 X11.0490 Y10.5049 F60.00
G01 X11.0275 Y10.5046 F60.00
G01 X11.0061 Y10.5038 F60.00
G01 X10.8590 Y10.4966 F60.00
G01 X10.8376 Y10.4953 F60.00
G01 X10.8162 Y10.4934 F60.00
G01 X10.7949 Y10.4911 F60.00
G01 X10.6280 Y10.4666 F60.00
G01 X10.6068 Y10.4632 F60.00
G01 X10.5857 Y10.4592 F60.00
G01 X10.5647 Y10.4548 F60.00
G01 X10.5438 Y10.4498 F60.00
G01 X10.4322 Y10.4219 F60.00
G00 Z3.0000
G00 X9.2208 Y12.4897
G01 F60.00
G01 Z-0.0980
G01 F60.00
G01 X9.6102 Y12.4898 F60.00
G01 X9.7625 Y12.4974 F60.00
G01 X9.9134 Y12.5196 F60.00
G01 X9.9211 Y12.5211 F60.00
G01 X10.0716 Y12.5589 F60.00
G01 X10.2201 Y12.6120 F60.00
G01 X10.3627 Y12.6794 F60.00
G01 X10.4980 Y12.7605 F60.00
G01 X10.6247 Y12.8545 F60.00
G01 X10.7416 Y12.9604 F60.00
G01 X10.8475 Y13.0773 F60.00
G01 X10.9415 Y13.2040 F60.00
G01 X11.0226 Y13.3393 F60.00
G01 X11.0900 Y13.4819 F60.00
G01 X11.1431 Y13.6304 F60.00
G01 X11.1809 Y13.7809 F60.00
G01 X11.1824 Y13.7886 F60.00
G01 X11.2046 Y13.9395 F60.00
G01 X11.2123 Y14.0970 F60.00
G01 X11.2046 Y14.2545 F60.00
G01 X11.1815 Y14.4106 F60.00
G01 X11.1431 Y14.5636 F60.00
G01 X11.0900 Y14.7121 F60.00
G01 X11.0226 Y14.8547 F60.00
G01 X10.9415 Y14.9900 F60.00
G01 X10.8475 Y15.1167 F60.00
G01 X10.7416 Y15.2336 F60.00
G01 X10.6247 Y15.3395 F60.00
G01 X10.4980 Y15.4335 F60.00
G01 X10.3627 Y15.5146 F60.00
G01 X10.2201 Y15.5820 F60.00
G01 X10.0716 Y15.6351 F60.00
G01 X9.9211 Y15.6729 F60.00
G01 X9.9134 Y15.6744 F60.00
G01 X9.7625 Y15.6966 F60.00
G01 X9.6076 Y15.7043 F60.00
G01 X8.7630 Y15.7043 F60.00
G01 X8.6107 Y15.6970 F60.00
G01 X8.6003 Y15.6960 F60.00
G01 X8.4546 Y15.6744 F60.00
G01 X8.4443 Y15.6723 F60.00
G01 X8.2964 Y15.6351 F60.00
G01 X8.1503 Y15.5830 F60.00
G01 X8.1431 Y15.5799 F60.00
G01 X8.0053 Y15.5146 F60.00
G01 X7.8700 Y15.4335 F60.00
G01 X7.7433 Y15.3395 F60.00
G01 X7.6302 Y15.2372 F60.00
G01 X7.6246 Y15.2317 F60.00
G01 X7.5205 Y15.1167 F60.00
G01 X7.4296 Y14.9943 F60.00
G01 X7.4251 Y14.9878 F60.00
G01 X7.3480 Y14.8593 F60.00
G01 X7.3442 Y14.8524 F60.00
G01 X7.2790 Y14.7145 F60.00
G01 X7.2761 Y14.7072 F60.00
G01 X7.2572 Y14.6543 F60.00
G01 X1.7780 Y14.6543 F60.00
G01 X1.6257 Y14.6470 F60.00
G01 X1.6153 Y14.6460 F60.00
G01 X1.4644 Y14.6235 F60.00
G01 X1.3165 Y14.5865 F60.00
G01 X1.3064 Y14.5835 F60.00
G01 X1.1678 Y14.5339 F60.00
G01 X1.1581 Y14.5299 F60.00
G01 X1.0203 Y14.4646 F60.00
G01 X0.8850 Y14.3835 F60.00
G01 X0.7583 Y14.2895 F60.00
G01 X0.6452 Y14.1872 F60.00
G01 X0.6378 Y14.1798 F60.00
G01 X0.5355 Y14.0667 F60.00
G01 X0.4415 Y13.9400 F60.00
G01 X0.3630 Y13.8093 F60.00
G01 X0.3581 Y13.8000 F60.00
G01 X0.2930 Y13.6621 F60.00
G01 X0.2399 Y13.5136 F60.00
G01 X0.2027 Y13.3657 F60.00
G01 X0.2006 Y13.3554 F60.00
G01 X0.1790 Y13.2097 F60.00
G01 X0.1782 Y13.2019 F60.00
G01 X0.1707 Y13.0470 F60.00
G01 X0.1784 Y12.8895 F60.00
G01 X0.2015 Y12.7334 F60.00
G01 X0.2399 Y12.5804 F60.00
G01 X0.2930 Y12.4319 F60.00
G01 X0.3604 Y12.2893 F60.00
G01 X0.4415 Y12.1540 F60.00
G01 X0.5355 Y12.0273 F60.00
G01 X0.6414 Y11.9104 F60.00
G01 X0.7583 Y11.8045 F60.00
G01 X0.8850 Y11.7105 F60.00
G01 X1.0203 Y11.6294 F60.00
G01 X1.1629 Y11.5620 F60.00
G01 X1.3114 Y11.5089 F60.00
G01 X1.4644 Y11.4705 F60.00
G01 X1.6153 Y11.4480 F60.00
G01 X1.6231 Y11.4472 F60.00
G01 X1.7780 Y11.4397 F60.00
G01 X7.7150 Y11.4397 F60.00
G01 X7.8673 Y11.4470 F60.00
G01 X7.8777 Y11.4480 F60.00
G01 X8.0286 Y11.4705 F60.00
G01 X8.1765 Y11.5075 F60.00
G01 X8.1866 Y11.5105 F60.00
G01 X8.3301 Y11.5620 F60.00
G01 X8.4680 Y11.6271 F60.00
G01 X8.4773 Y11.6320 F60.00
G01 X8.6080 Y11.7105 F60.00
G01 X8.7326 Y11.8029 F60.00
G01 X8.7387 Y11.8079 F60.00
G01 X8.8478 Y11.9068 F60.00
G01 X8.8552 Y11.9142 F60.00
G01 X8.9575 Y12.0273 F60.00
G01 X9.0500 Y12.1518 F60.00
G01 X9.0543 Y12.1584 F60.00
G01 X9.1300 Y12.2847 F60.00
G01 X9.1338 Y12.2916 F60.00
G01 X9.1990 Y12.4295 F60.00
G01 X9.2019 Y12.4368 F60.00
G01 X9.2208 Y12.4897 F60.00
G00 Z3.0000
G00 X7.1290 Y14.8462
G01 F60.00
G01 Z-0.0980
G01 F60.00
G01 X1.7707 Y14.8461 F60.00
G01 X1.6163 Y14.8386 F60.00
G01 X1.6016 Y14.8376 F60.00
G01 X1.5871 Y14.8358 F60.00
G01 X1.4414 Y14.8142 F60.00
G01 X1.4270 Y14.8117 F60.00
G01 X1.4127 Y14.8084 F60.00
G01 X1.2698 Y14.7727 F60.00
G01 X1.2487 Y14.7665 F60.00
G01 X1.1031 Y14.7145 F60.00
G01 X1.0895 Y14.7093 F60.00
G01 X1.0761 Y14.7033 F60.00
G01 X0.9429 Y14.6404 F60.00
G01 X0.9299 Y14.6338 F60.00
G01 X0.9171 Y14.6266 F60.00
G01 X0.7908 Y14.5508 F60.00
G01 X0.7784 Y14.5430 F60.00
G01 X0.7664 Y14.5346 F60.00
G01 X0.6481 Y14.4468 F60.00
G01 X0.6366 Y14.4378 F60.00
G01 X0.6255 Y14.4283 F60.00
G01 X0.5164 Y14.3293 F60.00
G01 X0.5058 Y14.3192 F60.00
G01 X0.4957 Y14.3086 F60.00
G01 X0.3967 Y14.1995 F60.00
G01 X0.3872 Y14.1884 F60.00
G01 X0.3782 Y14.1769 F60.00
G01 X0.2904 Y14.0586 F60.00
G01 X0.2820 Y14.0466 F60.00
G01 X0.2742 Y14.0342 F60.00
G01 X0.1984 Y13.9079 F60.00
G01 X0.1912 Y13.8951 F60.00
G01 X0.1846 Y13.8821 F60.00
G01 X0.1217 Y13.7489 F60.00
G01 X0.1157 Y13.7355 F60.00
G01 X0.1105 Y13.7219 F60.00
G01 X0.0608 Y13.5832 F60.00
G01 X0.0562 Y13.5693 F60.00
G01 X0.0523 Y13.5552 F60.00
G01 X0.0166 Y13.4123 F60.00
G01 X0.0133 Y13.3980 F60.00
G01 X0.0108 Y13.3836 F60.00
G01 X-0.0108 Y13.2379 F60.00
G01 X-0.0126 Y13.2234 F60.00
G01 X-0.0136 Y13.2087 F60.00
G01 X-0.0209 Y13.0616 F60.00
G01 X-0.0212 Y13.0470 F60.00
G01 X-0.0209 Y13.0324 F60.00
G01 X-0.0136 Y12.8853 F60.00
G01 X-0.0126 Y12.8706 F60.00
G01 X-0.0108 Y12.8561 F60.00
G01 X0.0108 Y12.7104 F60.00
G01 X0.0133 Y12.6960 F60.00
G01 X0.0166 Y12.6817 F60.00
G01 X0.0523 Y12.5388 F60.00
G01 X0.0585 Y12.5177 F60.00
G01 X0.1105 Y12.3721 F60.00
G01 X0.1157 Y12.3585 F60.00
G01 X0.1217 Y12.3451 F60.00
G01 X0.1846 Y12.2119 F60.00
G01 X0.1912 Y12.1989 F60.00
G01 X0.1984 Y12.1861 F60.00
G01 X0.2742 Y12.0598 F60.00
G01 X0.2820 Y12.0474 F60.00
G01 X0.2904 Y12.0354 F60.00
G01 X0.3782 Y11.9171 F60.00
G01 X0.3872 Y11.9056 F60.00
G01 X0.3967 Y11.8945 F60.00
G01 X0.4957 Y11.7854 F60.00
G01 X0.5058 Y11.7748 F60.00
G01 X0.5164 Y11.7647 F60.00
G01 X0.6255 Y11.6657 F60.00
G01 X0.6366 Y11.6562 F60.00
G01 X0.6481 Y11.6472 F60.00
G01 X0.7664 Y11.5594 F60.00
G01 X0.7784 Y11.5510 F60.00
G01 X0.7908 Y11.5432 F60.00
G01 X0.9171 Y11.4674 F60.00
G01 X0.9299 Y11.4602 F60.00
G01 X0.9429 Y11.4536 F60.00
G01 X1.0761 Y11.3907 F60.00
G01 X1.0895 Y11.3847 F60.00
G01 X1.1031 Y11.3795 F60.00
G01 X1.2418 Y11.3298 F60.00
G01 X1.2557 Y11.3252 F60.00
G01 X1.2698 Y11.3213 F60.00
G01 X1.4127 Y11.2856 F60.00
G01 X1.4342 Y11.2810 F60.00
G01 X1.5871 Y11.2582 F60.00
G01 X1.6016 Y11.2564 F60.00
G01 X1.6163 Y11.2554 F60.00
G01 X1.7634 Y11.2481 F60.00
G01 X1.7780 Y11.2478 F60.00
G01 X7.7150 Y11.2478 F60.00
G01 X7.7296 Y11.2481 F60.00
G01 X7.8767 Y11.2554 F60.00
G01 X7.8914 Y11.2564 F60.00
G01 X7.9059 Y11.2582 F60.00
G01 X8.0516 Y11.2798 F60.00
G01 X8.0660 Y11.2823 F60.00
G01 X8.0803 Y11.2856 F60.00
G01 X8.2232 Y11.3213 F60.00
G01 X8.2373 Y11.3252 F60.00
G01 X8.2512 Y11.3298 F60.00
G01 X8.3899 Y11.3795 F60.00
G01 X8.4035 Y11.3847 F60.00
G01 X8.4169 Y11.3907 F60.00
G01 X8.5501 Y11.4536 F60.00
G01 X8.5631 Y11.4602 F60.00
G01 X8.5759 Y11.4674 F60.00
G01 X8.7022 Y11.5432 F60.00
G01 X8.7206 Y11.5551 F60.00
G01 X8.8449 Y11.6472 F60.00
G01 X8.8564 Y11.6562 F60.00
G01 X8.8675 Y11.6657 F60.00
G01 X8.9766 Y11.7647 F60.00
G01 X8.9872 Y11.7748 F60.00
G01 X8.9973 Y11.7854 F60.00
G01 X9.1011 Y11.9000 F60.00
G01 X9.1148 Y11.9171 F60.00
G01 X9.2026 Y12.0354 F60.00
G01 X9.2150 Y12.0535 F60.00
G01 X9.2946 Y12.1861 F60.00
G01 X9.3018 Y12.1989 F60.00
G01 X9.3084 Y12.2119 F60.00
G01 X9.3490 Y12.2978 F60.00
G01 X9.6123 Y12.2979 F60.00
G01 X9.7667 Y12.3054 F60.00
G01 X9.7814 Y12.3064 F60.00
G01 X9.7959 Y12.3082 F60.00
G01 X9.9416 Y12.3298 F60.00
G01 X9.9560 Y12.3323 F60.00
G01 X9.9703 Y12.3356 F60.00
G01 X10.1132 Y12.3713 F60.00
G01 X10.1273 Y12.3752 F60.00
G01 X10.1412 Y12.3798 F60.00
G01 X10.2799 Y12.4295 F60.00
G01 X10.2935 Y12.4347 F60.00
G01 X10.3069 Y12.4407 F60.00
G01 X10.4401 Y12.5036 F60.00
G01 X10.4531 Y12.5102 F60.00
G01 X10.4659 Y12.5174 F60.00
G01 X10.5922 Y12.5932 F60.00
G01 X10.6046 Y12.6010 F60.00
G01 X10.6166 Y12.6094 F60.00
G01 X10.7349 Y12.6972 F60.00
G01 X10.7464 Y12.7062 F60.00
G01 X10.7575 Y12.7157 F60.00
G01 X10.8666 Y12.8147 F60.00
G01 X10.8772 Y12.8248 F60.00
G01 X10.8873 Y12.8354 F60.00
G01 X10.9863 Y12.9445 F60.00
G01 X10.9958 Y12.9556 F60.00
G01 X11.0048 Y12.9671 F60.00
G01 X11.0926 Y13.0854 F60.00
G01 X11.1010 Y13.0974 F60.00
G01 X11.1088 Y13.1098 F60.00
G01 X11.1846 Y13.2361 F60.00
G01 X11.1918 Y13.2489 F60.00
G01 X11.1984 Y13.2619 F60.00
G01 X11.2613 Y13.3951 F60.00
G01 X11.2673 Y13.4085 F60.00
G01 X11.2725 Y13.4221 F60.00
G01 X11.3222 Y13.5608 F60.00
G01 X11.3268 Y13.5747 F60.00
G01 X11.3307 Y13.5888 F60.00
G01 X11.3664 Y13.7317 F60.00
G01 X11.3697 Y13.7460 F60.00
G01 X11.3722 Y13.7604 F60.00
G01 X11.3938 Y13.9061 F60.00
G01 X11.3956 Y13.9206 F60.00
G01 X11.3966 Y13.9353 F60.00
G01 X11.4039 Y14.0824 F60.00
G01 X11.4042 Y14.0970 F60.00
G01 X11.4039 Y14.1116 F60.00
G01 X11.3966 Y14.2587 F60.00
G01 X11.3956 Y14.2734 F60.00
G01 X11.3938 Y14.2879 F60.00
G01 X11.3722 Y14.4336 F60.00
G01 X11.3697 Y14.4480 F60.00
G01 X11.3664 Y14.4623 F60.00
G01 X11.3307 Y14.6052 F60.00
G01 X11.3268 Y14.6193 F60.00
G01 X11.3222 Y14.6332 F60.00
G01 X11.2725 Y14.7719 F60.00
G01 X11.2673 Y14.7855 F60.00
G01 X11.2613 Y14.7989 F60.00
G01 X11.1984 Y14.9321 F60.00
G01 X11.1918 Y14.9451 F60.00
G01 X11.1846 Y14.9579 F60.00
G01 X11.1088 Y15.0842 F60.00
G01 X11.1010 Y15.0966 F60.00
G01 X11.0926 Y15.1086 F60.00
G01 X11.0048 Y15.2269 F60.00
G01 X10.9958 Y15.2384 F60.00
G01 X10.9863 Y15.2495 F60.00
G01 X10.8873 Y15.3586 F60.00
G01 X10.8772 Y15.3692 F60.00
G01 X10.8666 Y15.3793 F60.00
G01 X10.7575 Y15.4783 F60.00
G01 X10.7464 Y15.4878 F60.00
G01 X10.7349 Y15.4968 F60.00
G01 X10.6166 Y15.5846 F60.00
G01 X10.6046 Y15.5930 F60.00
G01 X10.5922 Y15.6008 F60.00
G01 X10.4659 Y15.6766 F60.00
G01 X10.4531 Y15.6838 F60.00
G01 X10.4401 Y15.6904 F60.00
G01 X10.3069 Y15.7533 F60.00
G01 X10.2935 Y15.7593 F60.00
G01 X10.2799 Y15.7645 F60.00
G01 X10.1412 Y15.8142 F60.00
G01 X10.1273 Y15.8188 F60.00
G01 X10.1132 Y15.8227 F60.00
G01 X9.9703 Y15.8584 F60.00
G01 X9.9560 Y15.8617 F60.00
G01 X9.9416 Y15.8642 F60.00
G01 X9.7959 Y15.8858 F60.00
G01 X9.7814 Y15.8876 F60.00
G01 X9.7667 Y15.8886 F60.00
G01 X9.6196 Y15.8959 F60.00
G01 X9.6050 Y15.8962 F60.00
G01 X8.7630 Y15.8962 F60.00
G01 X8.7484 Y15.8959 F60.00
G01 X8.6013 Y15.8886 F60.00
G01 X8.5866 Y15.8876 F60.00
G01 X8.5721 Y15.8858 F60.00
G01 X8.4264 Y15.8642 F60.00
G01 X8.4120 Y15.8617 F60.00
G01 X8.3977 Y15.8584 F60.00
G01 X8.2548 Y15.8227 F60.00
G01 X8.2337 Y15.8165 F60.00
G01 X8.0881 Y15.7645 F60.00
G01 X8.0745 Y15.7593 F60.00
G01 X8.0611 Y15.7533 F60.00
G01 X7.9279 Y15.6904 F60.00
G01 X7.9149 Y15.6838 F60.00
G01 X7.9021 Y15.6766 F60.00
G01 X7.7758 Y15.6008 F60.00
G01 X7.7634 Y15.5930 F60.00
G01 X7.7514 Y15.5846 F60.00
G01 X7.6331 Y15.4968 F60.00
G01 X7.6160 Y15.4831 F60.00
G01 X7.5014 Y15.3793 F60.00
G01 X7.4908 Y15.3692 F60.00
G01 X7.4807 Y15.3586 F60.00
G01 X7.3817 Y15.2495 F60.00
G01 X7.3676 Y15.2327 F60.00
G01 X7.2754 Y15.1086 F60.00
G01 X7.2630 Y15.0905 F60.00
G01 X7.1834 Y14.9579 F60.00
G01 X7.1762 Y14.9451 F60.00
G01 X7.1696 Y14.9321 F60.00
G01 X7.1290 Y14.8462 F60.00
G00 Z3.0000
G00 X7.0084 Y15.0381
G01 F60.00
G01 Z-0.0980
G01 F60.00
G01 X1.7660 Y15.0380 F60.00
G01 X1.6068 Y15.0303 F60.00
G01 X1.5828 Y15.0285 F60.00
G01 X1.5590 Y15.0256 F60.00
G01 X1.4133 Y15.0040 F60.00
G01 X1.3896 Y14.9998 F60.00
G01 X1.3661 Y14.9946 F60.00
G01 X1.2232 Y14.9588 F60.00
G01 X1.2000 Y14.9524 F60.00
G01 X1.1772 Y14.9448 F60.00
G01 X1.0272 Y14.8910 F60.00
G01 X1.0160 Y14.8865 F60.00
G01 X0.9940 Y14.8768 F60.00
G01 X0.8609 Y14.8138 F60.00
G01 X0.8394 Y14.8030 F60.00
G01 X0.8185 Y14.7911 F60.00
G01 X0.6921 Y14.7154 F60.00
G01 X0.6718 Y14.7025 F60.00
G01 X0.6521 Y14.6887 F60.00
G01 X0.5338 Y14.6010 F60.00
G01 X0.5149 Y14.5861 F60.00
G01 X0.4966 Y14.5704 F60.00
G01 X0.3875 Y14.4715 F60.00
G01 X0.3701 Y14.4549 F60.00
G01 X0.3535 Y14.4375 F60.00
G01 X0.2546 Y14.3284 F60.00
G01 X0.2389 Y14.3101 F60.00
G01 X0.2240 Y14.2912 F60.00
G01 X0.1363 Y14.1729 F60.00
G01 X0.1225 Y14.1532 F60.00
G01 X0.1096 Y14.1329 F60.00
G01 X0.0339 Y14.0065 F60.00
G01 X0.0220 Y13.9856 F60.00
G01 X0.0112 Y13.9641 F60.00
G01 X-0.0518 Y13.8310 F60.00
G01 X-0.0615 Y13.8090 F60.00
G01 X-0.0702 Y13.7865 F60.00
G01 X-0.1198 Y13.6478 F60.00
G01 X-0.1274 Y13.6250 F60.00
G01 X-0.1338 Y13.6018 F60.00
G01 X-0.1696 Y13.4589 F60.00
G01 X-0.1748 Y13.4354 F60.00
G01 X-0.1790 Y13.4117 F60.00
G01 X-0.2006 Y13.2660 F60.00
G01 X-0.2035 Y13.2422 F60.00
G01 X-0.2053 Y13.2182 F60.00
G01 X-0.2125 Y13.0711 F60.00
G01 X-0.2131 Y13.0470 F60.00
G01 X-0.2125 Y13.0229 F60.00
G01 X-0.2053 Y12.8758 F60.00
G01 X-0.2035 Y12.8518 F60.00
G01 X-0.2006 Y12.8280 F60.00
G01 X-0.1790 Y12.6823 F60.00
G01 X-0.1748 Y12.6586 F60.00
G01 X-0.1696 Y12.6351 F60.00
G01 X-0.1338 Y12.4922 F60.00
G01 X-0.1274 Y12.4690 F60.00
G01 X-0.1198 Y12.4462 F60.00
G01 X-0.0660 Y12.2962 F60.00
G01 X-0.0615 Y12.2850 F60.00
G01 X-0.0518 Y12.2630 F60.00
G01 X0.0112 Y12.1299 F60.00
G01 X0.0220 Y12.1084 F60.00
G01 X0.0339 Y12.0875 F60.00
G01 X0.1096 Y11.9611 F60.00
G01 X0.1225 Y11.9408 F60.00
G01 X0.1363 Y11.9211 F60.00
G01 X0.2240 Y11.8028 F60.00
G01 X0.2389 Y11.7839 F60.00
G01 X0.2546 Y11.7656 F60.00
G01 X0.3535 Y11.6565 F60.00
G01 X0.3701 Y11.6391 F60.00
G01 X0.3875 Y11.6225 F60.00
G01 X0.4966 Y11.5236 F60.00
G01 X0.5149 Y11.5079 F60.00
G01 X0.5338 Y11.4930 F60.00
G01 X0.6521 Y11.4053 F60.00
G01 X0.6718 Y11.3915 F60.00
G01 X0.6921 Y11.3786 F60.00
G01 X0.8185 Y11.3029 F60.00
G01 X0.8394 Y11.2910 F60.00
G01 X0.8609 Y11.2802 F60.00
G01 X0.9940 Y11.2172 F60.00
G01 X1.0160 Y11.2075 F60.00
G01 X1.0385 Y11.1988 F60.00
G01 X1.1772 Y11.1492 F60.00
G01 X1.2000 Y11.1416 F60.00
G01 X1.2232 Y11.1352 F60.00
G01 X1.3661 Y11.0994 F60.00
G01 X1.3896 Y11.0942 F60.00
G01 X1.4133 Y11.0900 F60.00
G01 X1.5590 Y11.0684 F60.00
G01 X1.5828 Y11.0655 F60.00
G01 X1.6068 Y11.0637 F60.00
G01 X1.7539 Y11.0565 F60.00
G01 X1.7780 Y11.0559 F60.00
G01 X7.7150 Y11.0559 F60.00
G01 X7.7391 Y11.0565 F60.00
G01 X7.8862 Y11.0637 F60.00
G01 X7.9102 Y11.0655 F60.00
G01 X7.9340 Y11.0684 F60.00
G01 X8.0797 Y11.0900 F60.00
G01 X8.1034 Y11.0942 F60.00
G01 X8.1269 Y11.0994 F60.00
G01 X8.2698 Y11.1352 F60.00
G01 X8.2930 Y11.1416 F60.00
G01 X8.3158 Y11.1492 F60.00
G01 X8.4545 Y11.1988 F60.00
G01 X8.4770 Y11.2075 F60.00
G01 X8.4990 Y11.2172 F60.00
G01 X8.6321 Y11.2802 F60.00
G01 X8.6536 Y11.2910 F60.00
G01 X8.6745 Y11.3029 F60.00
G01 X8.8009 Y11.3786 F60.00
G01 X8.8212 Y11.3915 F60.00
G01 X8.8409 Y11.4053 F60.00
G01 X8.9592 Y11.4930 F60.00
G01 X8.9781 Y11.5079 F60.00
G01 X8.9964 Y11.5236 F60.00
G01 X9.1055 Y11.6225 F60.00
G01 X9.1229 Y11.6391 F60.00
G01 X9.1395 Y11.6565 F60.00
G01 X9.2384 Y11.7656 F60.00
G01 X9.2541 Y11.7839 F60.00
G01 X9.2690 Y11.8028 F60.00
G01 X9.3567 Y11.9211 F60.00
G01 X9.3705 Y11.9408 F60.00
G01 X9.3834 Y11.9611 F60.00
G01 X9.4591 Y12.0875 F60.00
G01 X9.4696 Y12.1059 F60.00
G01 X9.6170 Y12.1060 F60.00
G01 X9.7762 Y12.1137 F60.00
G01 X9.8002 Y12.1155 F60.00
G01 X9.8121 Y12.1168 F60.00
G01 X9.9697 Y12.1400 F60.00
G01 X9.9934 Y12.1442 F60.00
G01 X10.0169 Y12.1494 F60.00
G01 X10.1714 Y12.1883 F60.00
G01 X10.1830 Y12.1916 F60.00
G01 X10.2058 Y12.1992 F60.00
G01 X10.3445 Y12.2488 F60.00
G01 X10.3670 Y12.2575 F60.00
G01 X10.3890 Y12.2672 F60.00
G01 X10.5221 Y12.3302 F60.00
G01 X10.5436 Y12.3410 F60.00
G01 X10.5645 Y12.3529 F60.00
G01 X10.7011 Y12.4349 F60.00
G01 X10.7211 Y12.4483 F60.00
G01 X10.7309 Y12.4553 F60.00
G01 X10.8492 Y12.5430 F60.00
G01 X10.8681 Y12.5579 F60.00
G01 X10.8864 Y12.5736 F60.00
G01 X10.9955 Y12.6725 F60.00
G01 X11.0129 Y12.6891 F60.00
G01 X11.0295 Y12.7065 F60.00
G01 X11.1284 Y12.8156 F60.00
G01 X11.1441 Y12.8339 F60.00
G01 X11.1590 Y12.8528 F60.00
G01 X11.2467 Y12.9711 F60.00
G01 X11.2605 Y12.9908 F60.00
G01 X11.2734 Y13.0111 F60.00
G01 X11.3491 Y13.1375 F60.00
G01 X11.3610 Y13.1584 F60.00
G01 X11.3718 Y13.1799 F60.00
G01 X11.4348 Y13.3130 F60.00
G01 X11.4445 Y13.3350 F60.00
G01 X11.4490 Y13.3462 F60.00
G01 X11.5028 Y13.4962 F60.00
G01 X11.5104 Y13.5190 F60.00
G01 X11.5168 Y13.5422 F60.00
G01 X11.5526 Y13.6851 F60.00
G01 X11.5578 Y13.7086 F60.00
G01 X11.5620 Y13.7323 F60.00
G01 X11.5836 Y13.8780 F60.00
G01 X11.5865 Y13.9018 F60.00
G01 X11.5883 Y13.9258 F60.00
G01 X11.5955 Y14.0729 F60.00
G01 X11.5961 Y14.0970 F60.00
G01 X11.5955 Y14.1211 F60.00
G01 X11.5883 Y14.2682 F60.00
G01 X11.5865 Y14.2922 F60.00
G01 X11.5836 Y14.3160 F60.00
G01 X11.5620 Y14.4617 F60.00
G01 X11.5578 Y14.4854 F60.00
G01 X11.5526 Y14.5089 F60.00
G01 X11.5168 Y14.6518 F60.00
G01 X11.5104 Y14.6750 F60.00
G01 X11.5028 Y14.6978 F60.00
G01 X11.4532 Y14.8365 F60.00
G01 X11.4445 Y14.8590 F60.00
G01 X11.4348 Y14.8810 F60.00
G01 X11.3718 Y15.0141 F60.00
G01 X11.3610 Y15.0356 F60.00
G01 X11.3491 Y15.0565 F60.00
G01 X11.2734 Y15.1829 F60.00
G01 X11.2605 Y15.2032 F60.00
G01 X11.2467 Y15.2229 F60.00
G01 X11.1590 Y15.3412 F60.00
G01 X11.1441 Y15.3601 F60.00
G01 X11.1284 Y15.3784 F60.00
G01 X11.0295 Y15.4875 F60.00
G01 X11.0129 Y15.5049 F60.00
G01 X10.9955 Y15.5215 F60.00
G01 X10.8864 Y15.6204 F60.00
G01 X10.8681 Y15.6361 F60.00
G01 X10.8492 Y15.6510 F60.00
G01 X10.7309 Y15.7387 F60.00
G01 X10.7112 Y15.7525 F60.00
G01 X10.6909 Y15.7654 F60.00
G01 X10.5645 Y15.8411 F60.00
G01 X10.5436 Y15.8530 F60.00
G01 X10.5221 Y15.8638 F60.00
G01 X10.3890 Y15.9268 F60.00
G01 X10.3780 Y15.9318 F60.00
G01 X10.3558 Y15.9410 F60.00
G01 X10.2058 Y15.9948 F60.00
G01 X10.1830 Y16.0024 F60.00
G01 X10.1598 Y16.0088 F60.00
G01 X10.0169 Y16.0446 F60.00
G01 X9.9934 Y16.0498 F60.00
G01 X9.9697 Y16.0540 F60.00
G01 X9.8240 Y16.0756 F60.00
G01 X9.8002 Y16.0785 F60.00
G01 X9.7762 Y16.0803 F60.00
G01 X9.6170 Y16.0880 F60.00
G01 X8.7630 Y16.0881 F60.00
G01 X8.7389 Y16.0875 F60.00
G01 X8.5918 Y16.0803 F60.00
G01 X8.5678 Y16.0785 F60.00
G01 X8.5440 Y16.0756 F60.00
G01 X8.3983 Y16.0540 F60.00
G01 X8.3746 Y16.0498 F60.00
G01 X8.3511 Y16.0446 F60.00
G01 X8.1966 Y16.0057 F60.00
G01 X8.1850 Y16.0024 F60.00
G01 X8.1622 Y15.9948 F60.00
G01 X8.0235 Y15.9452 F60.00
G01 X8.0010 Y15.9365 F60.00
G01 X7.9790 Y15.9268 F60.00
G01 X7.8459 Y15.8638 F60.00
G01 X7.8244 Y15.8530 F60.00
G01 X7.8035 Y15.8411 F60.00
G01 X7.6771 Y15.7654 F60.00
G01 X7.6568 Y15.7525 F60.00
G01 X7.6371 Y15.7387 F60.00
G01 X7.5188 Y15.6510 F60.00
G01 X7.4999 Y15.6361 F60.00
G01 X7.4816 Y15.6204 F60.00
G01 X7.3725 Y15.5215 F60.00
G01 X7.3551 Y15.5049 F60.00
G01 X7.3385 Y15.4875 F60.00
G01 X7.2396 Y15.3784 F60.00
G01 X7.2239 Y15.3601 F60.00
G01 X7.2090 Y15.3412 F60.00
G01 X7.1213 Y15.2229 F60.00
G01 X7.1075 Y15.2032 F60.00
G01 X7.0946 Y15.1829 F60.00
G01 X7.0189 Y15.0565 F60.00
G01 X7.0084 Y15.0381 F60.00
G00 Z3.0000
G00 X6.8991 Y15.2300
G01 F60.00
G01 Z-0.0980
G01 F60.00
G01 X1.7613 Y15.2298 F60.00
G01 X1.5974 Y15.2219 F60.00
G01 X1.5640 Y15.2195 F60.00
G01 X1.5308 Y15.2154 F60.00
G01 X1.3851 Y15.1938 F60.00
G01 X1.3521 Y15.1880 F60.00
G01 X1.3194 Y15.1807 F60.00
G01 X1.1766 Y15.1449 F60.00
G01 X1.1443 Y15.1360 F60.00
G01 X1.1125 Y15.1255 F60.00
G01 X0.9738 Y15.0759 F60.00
G01 X0.9426 Y15.0638 F60.00
G01 X0.9120 Y15.0502 F60.00
G01 X0.7789 Y14.9873 F60.00
G01 X0.7489 Y14.9722 F60.00
G01 X0.7198 Y14.9557 F60.00
G01 X0.5935 Y14.8800 F60.00
G01 X0.5652 Y14.8621 F60.00
G01 X0.5378 Y14.8428 F60.00
G01 X0.4195 Y14.7551 F60.00
G01 X0.3931 Y14.7345 F60.00
G01 X0.3678 Y14.7126 F60.00
G01 X0.2586 Y14.6137 F60.00
G01 X0.2344 Y14.5906 F60.00
G01 X0.2113 Y14.5664 F60.00
G01 X0.1124 Y14.4572 F60.00
G01 X0.0905 Y14.4319 F60.00
G01 X0.0699 Y14.4055 F60.00
G01 X-0.0178 Y14.2872 F60.00
G01 X-0.0371 Y14.2598 F60.00
G01 X-0.0550 Y14.2315 F60.00
G01 X-0.1307 Y14.1052 F60.00
G01 X-0.1472 Y14.0761 F60.00
G01 X-0.1623 Y14.0461 F60.00
G01 X-0.2252 Y13.9130 F60.00
G01 X-0.2388 Y13.8824 F60.00
G01 X-0.2509 Y13.8512 F60.00
G01 X-0.3005 Y13.7125 F60.00
G01 X-0.3110 Y13.6807 F60.00
G01 X-0.3199 Y13.6484 F60.00
G01 X-0.3557 Y13.5056 F60.00
G01 X-0.3630 Y13.4729 F60.00
G01 X-0.3688 Y13.4399 F60.00
G01 X-0.3904 Y13.2942 F60.00
G01 X-0.3945 Y13.2610 F60.00
G01 X-0.3969 Y13.2276 F60.00
G01 X-0.4042 Y13.0805 F60.00
G01 X-0.4050 Y13.0470 F60.00
G01 X-0.4042 Y13.0135 F60.00
G01 X-0.3969 Y12.8664 F60.00
G01 X-0.3945 Y12.8330 F60.00
G01 X-0.3904 Y12.7998 F60.00
G01 X-0.3688 Y12.6541 F60.00
G01 X-0.3630 Y12.6211 F60.00
G01 X-0.3557 Y12.5884 F60.00
G01 X-0.3199 Y12.4456 F60.00
G01 X-0.3110 Y12.4133 F60.00
G01 X-0.3005 Y12.3815 F60.00
G01 X-0.2509 Y12.2428 F60.00
G01 X-0.2388 Y12.2116 F60.00
G01 X-0.2252 Y12.1810 F60.00
G01 X-0.1623 Y12.0479 F60.00
G01 X-0.1472 Y12.0179 F60.00
G01 X-0.1307 Y11.9888 F60.00
G01 X-0.0550 Y11.8625 F60.00
G01 X-0.0371 Y11.8342 F60.00
G01 X-0.0178 Y11.8068 F60.00
G01 X0.0699 Y11.6885 F60.00
G01 X0.0905 Y11.6621 F60.00
G01 X0.1124 Y11.6368 F60.00
G01 X0.2113 Y11.5276 F60.00
G01 X0.2344 Y11.5034 F60.00
G01 X0.2586 Y11.4803 F60.00
G01 X0.3678 Y11.3814 F60.00
G01 X0.3931 Y11.3595 F60.00
G01 X0.4195 Y11.3389 F60.00
G01 X0.5378 Y11.2512 F60.00
G01 X0.5652 Y11.2319 F60.00
G01 X0.5935 Y11.2140 F60.00
G01 X0.7198 Y11.1383 F60.00
G01 X0.7489 Y11.1218 F60.00
G01 X0.7789 Y11.1067 F60.00
G01 X0.9120 Y11.0438 F60.00
G01 X0.9426 Y11.0302 F60.00
G01 X0.9738 Y11.0181 F60.00
G01 X1.1125 Y10.9685 F60.00
G01 X1.1443 Y10.9580 F60.00
G01 X1.1766 Y10.9491 F60.00
G01 X1.3194 Y10.9133 F60.00
G01 X1.3521 Y10.9060 F60.00
G01 X1.3686 Y10.9029 F60.00
G01 X1.5308 Y10.8786 F60.00
G01 X1.5640 Y10.8745 F60.00
G01 X1.5974 Y10.8721 F60.00
G01 X1.7445 Y10.8648 F60.00
G01 X1.7780 Y10.8640 F60.00
G01 X7.7150 Y10.8640 F60.00
G01 X7.7485 Y10.8648 F60.00
G01 X7.8956 Y10.8721 F60.00
G01 X7.9290 Y10.8745 F60.00
G01 X7.9622 Y10.8786 F60.00
G01 X8.1079 Y10.9002 F60.00
G01 X8.1409 Y10.9060 F60.00
G01 X8.1736 Y10.9133 F60.00
G01 X8.3164 Y10.9491 F60.00
G01 X8.3487 Y10.9580 F60.00
G01 X8.3805 Y10.9685 F60.00
G01 X8.5192 Y11.0181 F60.00
G01 X8.5504 Y11.0302 F60.00
G01 X8.5810 Y11.0438 F60.00
G01 X8.7141 Y11.1067 F60.00
G01 X8.7292 Y11.1141 F60.00
G01 X8.7587 Y11.1299 F60.00
G01 X8.9138 Y11.2228 F60.00
G01 X8.9416 Y11.2414 F60.00
G01 X8.9552 Y11.2512 F60.00
G01 X9.0735 Y11.3389 F60.00
G01 X9.0999 Y11.3595 F60.00
G01 X9.1252 Y11.3814 F60.00
G01 X9.2344 Y11.4803 F60.00
G01 X9.2466 Y11.4917 F60.00
G01 X9.2703 Y11.5154 F60.00
G01 X9.3806 Y11.6368 F60.00
G01 X9.4025 Y11.6621 F60.00
G01 X9.4129 Y11.6752 F60.00
G01 X9.5206 Y11.8204 F60.00
G01 X9.5392 Y11.8482 F60.00
G01 X9.5789 Y11.9140 F60.00
G01 X9.6217 Y11.9142 F60.00
G01 X9.6385 Y11.9148 F60.00
G01 X9.7856 Y11.9221 F60.00
G01 X9.8190 Y11.9245 F60.00
G01 X9.8522 Y11.9286 F60.00
G01 X9.9979 Y11.9502 F60.00
G01 X10.0309 Y11.9560 F60.00
G01 X10.0636 Y11.9633 F60.00
G01 X10.2064 Y11.9991 F60.00
G01 X10.2387 Y12.0080 F60.00
G01 X10.2705 Y12.0185 F60.00
G01 X10.4092 Y12.0681 F60.00
G01 X10.4404 Y12.0802 F60.00
G01 X10.4710 Y12.0938 F60.00
G01 X10.6041 Y12.1567 F60.00
G01 X10.6341 Y12.1718 F60.00
G01 X10.6632 Y12.1883 F60.00
G01 X10.8038 Y12.2728 F60.00
G01 X10.8316 Y12.2914 F60.00
G01 X10.8452 Y12.3012 F60.00
G01 X10.9635 Y12.3889 F60.00
G01 X10.9899 Y12.4095 F60.00
G01 X11.0152 Y12.4314 F60.00
G01 X11.1244 Y12.5303 F60.00
G01 X11.1486 Y12.5534 F60.00
G01 X11.1717 Y12.5776 F60.00
G01 X11.2706 Y12.6868 F60.00
G01 X11.2925 Y12.7121 F60.00
G01 X11.3131 Y12.7385 F60.00
G01 X11.4008 Y12.8568 F60.00
G01 X11.4201 Y12.8842 F60.00
G01 X11.4380 Y12.9125 F60.00
G01 X11.5137 Y13.0388 F60.00
G01 X11.5302 Y13.0679 F60.00
G01 X11.5453 Y13.0979 F60.00
G01 X11.6082 Y13.2310 F60.00
G01 X11.6218 Y13.2616 F60.00
G01 X11.6339 Y13.2928 F60.00
G01 X11.6835 Y13.4315 F60.00
G01 X11.6940 Y13.4633 F60.00
G01 X11.7029 Y13.4956 F60.00
G01 X11.7387 Y13.6384 F60.00
G01 X11.7460 Y13.6711 F60.00
G01 X11.7518 Y13.7041 F60.00
G01 X11.7734 Y13.8498 F60.00
G01 X11.7775 Y13.8830 F60.00
G01 X11.7799 Y13.9164 F60.00
G01 X11.7872 Y14.0635 F60.00
G01 X11.7880 Y14.0970 F60.00
G01 X11.7872 Y14.1305 F60.00
G01 X11.7799 Y14.2776 F60.00
G01 X11.7775 Y14.3110 F60.00
G01 X11.7734 Y14.3442 F60.00
G01 X11.7518 Y14.4899 F60.00
G01 X11.7460 Y14.5229 F60.00
G01 X11.7387 Y14.5556 F60.00
G01 X11.7029 Y14.6984 F60.00
G01 X11.6940 Y14.7307 F60.00
G01 X11.6835 Y14.7625 F60.00
G01 X11.6339 Y14.9012 F60.00
G01 X11.6218 Y14.9324 F60.00
G01 X11.6082 Y14.9630 F60.00
G01 X11.5453 Y15.0961 F60.00
G01 X11.5302 Y15.1261 F60.00
G01 X11.5137 Y15.1552 F60.00
G01 X11.4380 Y15.2815 F60.00
G01 X11.4201 Y15.3098 F60.00
G01 X11.4008 Y15.3372 F60.00
G01 X11.3131 Y15.4555 F60.00
G01 X11.2925 Y15.4819 F60.00
G01 X11.2706 Y15.5072 F60.00
G01 X11.1717 Y15.6164 F60.00
G01 X11.1486 Y15.6406 F60.00
G01 X11.1244 Y15.6637 F60.00
G01 X11.0152 Y15.7626 F60.00
G01 X10.9899 Y15.7845 F60.00
G01 X10.9635 Y15.8051 F60.00
G01 X10.8452 Y15.8928 F60.00
G01 X10.8178 Y15.9121 F60.00
G01 X10.7895 Y15.9300 F60.00
G01 X10.6632 Y16.0057 F60.00
G01 X10.6341 Y16.0222 F60.00
G01 X10.6041 Y16.0373 F60.00
G01 X10.4710 Y16.1002 F60.00
G01 X10.4404 Y16.1138 F60.00
G01 X10.4092 Y16.1259 F60.00
G01 X10.2705 Y16.1755 F60.00
G01 X10.2387 Y16.1860 F60.00
G01 X10.2064 Y16.1949 F60.00
G01 X10.0636 Y16.2307 F60.00
G01 X10.0473 Y16.2346 F60.00
G01 X10.0144 Y16.2411 F60.00
G01 X9.8522 Y16.2654 F60.00
G01 X9.8190 Y16.2695 F60.00
G01 X9.7856 Y16.2719 F60.00
G01 X9.6385 Y16.2792 F60.00
G01 X9.6050 Y16.2800 F60.00
G01 X8.7463 Y16.2798 F60.00
G01 X8.5824 Y16.2719 F60.00
G01 X8.5657 Y16.2709 F60.00
G01 X8.5324 Y16.2676 F60.00
G01 X8.3536 Y16.2411 F60.00
G01 X8.3371 Y16.2380 F60.00
G01 X8.3044 Y16.2307 F60.00
G01 X8.1616 Y16.1949 F60.00
G01 X8.1293 Y16.1860 F60.00
G01 X8.0975 Y16.1755 F60.00
G01 X7.9588 Y16.1259 F60.00
G01 X7.9276 Y16.1138 F60.00
G01 X7.8970 Y16.1002 F60.00
G01 X7.7639 Y16.0373 F60.00
G01 X7.7339 Y16.0222 F60.00
G01 X7.7048 Y16.0057 F60.00
G01 X7.5785 Y15.9300 F60.00
G01 X7.5502 Y15.9121 F60.00
G01 X7.5364 Y15.9026 F60.00
G01 X7.4045 Y15.8051 F60.00
G01 X7.3781 Y15.7845 F60.00
G01 X7.3528 Y15.7626 F60.00
G01 X7.2436 Y15.6637 F60.00
G01 X7.2314 Y15.6523 F60.00
G01 X7.2077 Y15.6286 F60.00
G01 X7.0974 Y15.5072 F60.00
G01 X7.0755 Y15.4819 F60.00
G01 X7.0651 Y15.4688 F60.00
G01 X6.9574 Y15.3236 F60.00
G01 X6.9388 Y15.2958 F60.00
G01 X6.8991 Y15.2300 F60.00
G00 Z3.0000
G00 X6.7921 Y15.4219
G01 F60.00
G01 Z-0.0980
G01 F60.00
G01 X1.7780 Y15.4219 F60.00
G01 X1.7565 Y15.4216 F60.00
G01 X1.7351 Y15.4208 F60.00
G01 X1.5880 Y15.4136 F60.00
G01 X1.5666 Y15.4123 F60.00
G01 X1.5452 Y15.4104 F60.00
G01 X1.5239 Y15.4081 F60.00
G01 X1.3570 Y15.3836 F60.00
G01 X1.3358 Y15.3802 F60.00
G01 X1.3147 Y15.3762 F60.00
G01 X1.2937 Y15.3718 F60.00
G01 X1.2728 Y15.3668 F60.00
G01 X1.1300 Y15.3310 F60.00
G01 X1.1092 Y15.3256 F60.00
G01 X1.0886 Y15.3196 F60.00
G01 X1.0682 Y15.3131 F60.00
G01 X1.0479 Y15.3061 F60.00
G01 X0.9092 Y15.2565 F60.00
G01 X0.8891 Y15.2491 F60.00
G01 X0.8692 Y15.2411 F60.00
G01 X0.8495 Y15.2326 F60.00
G01 X0.6968 Y15.1607 F60.00
G01 X0.6775 Y15.1513 F60.00
G01 X0.6585 Y15.1414 F60.00
G01 X0.6397 Y15.1311 F60.00
G01 X0.6212 Y15.1203 F60.00
G01 X0.4766 Y15.0333 F60.00
G01 X0.4586 Y15.0216 F60.00
G01 X0.4409 Y15.0095 F60.00
G01 X0.4235 Y14.9969 F60.00
G01 X0.2881 Y14.8962 F60.00
G01 X0.2714 Y14.8828 F60.00
G01 X0.2550 Y14.8690 F60.00
G01 X0.2389 Y14.8548 F60.00
G01 X0.1298 Y14.7559 F60.00
G01 X0.1141 Y14.7413 F60.00
G01 X0.0987 Y14.7263 F60.00
G01 X0.0837 Y14.7109 F60.00
G01 X0.0691 Y14.6952 F60.00
G01 X-0.0440 Y14.5700 F60.00
G01 X-0.0578 Y14.5536 F60.00
G01 X-0.0712 Y14.5369 F60.00
G01 X-0.0842 Y14.5198 F60.00
G01 X-0.1719 Y14.4015 F60.00
G01 X-0.1845 Y14.3841 F60.00
G01 X-0.1966 Y14.3664 F60.00
G01 X-0.2083 Y14.3484 F60.00
G01 X-0.2196 Y14.3302 F60.00
G01 X-0.2953 Y14.2038 F60.00
G01 X-0.3061 Y14.1853 F60.00
G01 X-0.3164 Y14.1665 F60.00
G01 X-0.3263 Y14.1475 F60.00
G01 X-0.3357 Y14.1282 F60.00
G01 X-0.3987 Y13.9950 F60.00
G01 X-0.4076 Y13.9755 F60.00
G01 X-0.4161 Y13.9558 F60.00
G01 X-0.4241 Y13.9359 F60.00
G01 X-0.4315 Y13.9158 F60.00
G01 X-0.4881 Y13.7568 F60.00
G01 X-0.4946 Y13.7364 F60.00
G01 X-0.5006 Y13.7158 F60.00
G01 X-0.5060 Y13.6950 F60.00
G01 X-0.5418 Y13.5522 F60.00
G01 X-0.5468 Y13.5313 F60.00
G01 X-0.5512 Y13.5103 F60.00
G01 X-0.5552 Y13.4892 F60.00
G01 X-0.5586 Y13.4680 F60.00
G01 X-0.5802 Y13.3224 F60.00
G01 X-0.5831 Y13.3011 F60.00
G01 X-0.5854 Y13.2798 F60.00
G01 X-0.5873 Y13.2584 F60.00
G01 X-0.5886 Y13.2370 F60.00
G01 X-0.5958 Y13.0899 F60.00
G01 X-0.5966 Y13.0685 F60.00
G01 X-0.5969 Y13.0470 F60.00
G01 X-0.5966 Y13.0255 F60.00
G01 X-0.5958 Y13.0041 F60.00
G01 X-0.5873 Y12.8356 F60.00
G01 X-0.5854 Y12.8142 F60.00
G01 X-0.5831 Y12.7929 F60.00
G01 X-0.5802 Y12.7716 F60.00
G01 X-0.5586 Y12.6260 F60.00
G01 X-0.5552 Y12.6048 F60.00
G01 X-0.5512 Y12.5837 F60.00
G01 X-0.5468 Y12.5627 F60.00
G01 X-0.5418 Y12.5418 F60.00
G01 X-0.5006 Y12.3782 F60.00
G01 X-0.4946 Y12.3576 F60.00
G01 X-0.4881 Y12.3372 F60.00
G01 X-0.4811 Y12.3169 F60.00
G01 X-0.4241 Y12.1581 F60.00
G01 X-0.4161 Y12.1382 F60.00
G01 X-0.4076 Y12.1185 F60.00
G01 X-0.3987 Y12.0990 F60.00
G01 X-0.3357 Y11.9658 F60.00
G01 X-0.3263 Y11.9465 F60.00
G01 X-0.3164 Y11.9275 F60.00
G01 X-0.3061 Y11.9087 F60.00
G01 X-0.2953 Y11.8902 F60.00
G01 X-0.2196 Y11.7638 F60.00
G01 X-0.2083 Y11.7456 F60.00
G01 X-0.1966 Y11.7276 F60.00
G01 X-0.1845 Y11.7099 F60.00
G01 X-0.1719 Y11.6925 F60.00
G01 X-0.0842 Y11.5742 F60.00
G01 X-0.0712 Y11.5571 F60.00
G01 X-0.0578 Y11.5404 F60.00
G01 X-0.0440 Y11.5240 F60.00
G01 X0.0691 Y11.3988 F60.00
G01 X0.0837 Y11.3831 F60.00
G01 X0.0987 Y11.3677 F60.00
G01 X0.1141 Y11.3527 F60.00
G01 X0.1298 Y11.3381 F60.00
G01 X0.2389 Y11.2392 F60.00
G01 X0.2550 Y11.2250 F60.00
G01 X0.2714 Y11.2112 F60.00
G01 X0.2881 Y11.1978 F60.00
G01 X0.3052 Y11.1848 F60.00
G01 X0.4235 Y11.0971 F60.00
G01 X0.4409 Y11.0845 F60.00
G01 X0.4586 Y11.0724 F60.00
G01 X0.4766 Y11.0607 F60.00
G01 X0.4948 Y11.0494 F60.00
G01 X0.6212 Y10.9737 F60.00
G01 X0.6397 Y10.9629 F60.00
G01 X0.6585 Y10.9526 F60.00
G01 X0.6775 Y10.9427 F60.00
G01 X0.6968 Y10.9333 F60.00
G01 X0.8300 Y10.8703 F60.00
G01 X0.8495 Y10.8614 F60.00
G01 X0.8692 Y10.8529 F60.00
G01 X0.8891 Y10.8449 F60.00
G01 X0.9092 Y10.8375 F60.00
G01 X1.0479 Y10.7879 F60.00
G01 X1.0682 Y10.7809 F60.00
G01 X1.0886 Y10.7744 F60.00
G01 X1.1092 Y10.7684 F60.00
G01 X1.1300 Y10.7630 F60.00
G01 X1.2728 Y10.7272 F60.00
G01 X1.2937 Y10.7222 F60.00
G01 X1.3147 Y10.7178 F60.00
G01 X1.3358 Y10.7138 F60.00
G01 X1.3570 Y10.7104 F60.00
G01 X1.5026 Y10.6888 F60.00
G01 X1.5239 Y10.6859 F60.00
G01 X1.5452 Y10.6836 F60.00
G01 X1.5666 Y10.6817 F60.00
G01 X1.5880 Y10.6804 F60.00
G01 X1.7351 Y10.6732 F60.00
G01 X1.7565 Y10.6724 F60.00
G01 X1.7780 Y10.6721 F60.00
G01 X7.7150 Y10.6721 F60.00
G01 X7.7365 Y10.6724 F60.00
G01 X7.7579 Y10.6732 F60.00
G01 X7.9050 Y10.6804 F60.00
G01 X7.9264 Y10.6817 F60.00
G01 X7.9478 Y10.6836 F60.00
G01 X7.9691 Y10.6859 F60.00
G01 X7.9904 Y10.6888 F60.00
G01 X8.1360 Y10.7104 F60.00
G01 X8.1572 Y10.7138 F60.00
G01 X8.1783 Y10.7178 F60.00
G01 X8.1993 Y10.7222 F60.00
G01 X8.2202 Y10.7272 F60.00
G01 X8.3630 Y10.7630 F60.00
G01 X8.3838 Y10.7684 F60.00
G01 X8.4044 Y10.7744 F60.00
G01 X8.4248 Y10.7809 F60.00
G01 X8.4451 Y10.7879 F60.00
G01 X8.5838 Y10.8375 F60.00
G01 X8.6039 Y10.8449 F60.00
G01 X8.6238 Y10.8529 F60.00
G01 X8.6435 Y10.8614 F60.00
G01 X8.6630 Y10.8703 F60.00
G01 X8.7962 Y10.9333 F60.00
G01 X8.8155 Y10.9427 F60.00
G01 X8.8345 Y10.9526 F60.00
G01 X8.8533 Y10.9629 F60.00
G01 X8.8718 Y10.9737 F60.00
G01 X9.0164 Y11.0607 F60.00
G01 X9.0344 Y11.0724 F60.00
G01 X9.0521 Y11.0845 F60.00
G01 X9.0695 Y11.0971 F60.00
G01 X9.1878 Y11.1848 F60.00
G01 X9.2049 Y11.1978 F60.00
G01 X9.2216 Y11.2112 F60.00
G01 X9.2380 Y11.2250 F60.00
G01 X9.2541 Y11.2392 F60.00
G01 X9.3632 Y11.3381 F60.00
G01 X9.3789 Y11.3527 F60.00
G01 X9.3943 Y11.3677 F60.00
G01 X9.4093 Y11.3831 F60.00
G01 X9.4239 Y11.3988 F60.00
G01 X9.5228 Y11.5079 F60.00
G01 X9.5370 Y11.5240 F60.00
G01 X9.5508 Y11.5404 F60.00
G01 X9.5642 Y11.5571 F60.00
G01 X9.5772 Y11.5742 F60.00
G01 X9.6649 Y11.6925 F60.00
G01 X9.6880 Y11.7252 F60.00
G01 X9.7950 Y11.7304 F60.00
G01 X9.8164 Y11.7317 F60.00
G01 X9.8378 Y11.7336 F60.00
G01 X9.8591 Y11.7359 F60.00
G01 X9.8804 Y11.7388 F60.00
G01 X10.0472 Y11.7638 F60.00
G01 X10.0683 Y11.7678 F60.00
G01 X10.0893 Y11.7722 F60.00
G01 X10.1102 Y11.7772 F60.00
G01 X10.2530 Y11.8130 F60.00
G01 X10.2738 Y11.8184 F60.00
G01 X10.2944 Y11.8244 F60.00
G01 X10.3148 Y11.8309 F60.00
G01 X10.3351 Y11.8379 F60.00
G01 X10.4738 Y11.8875 F60.00
G01 X10.4939 Y11.8949 F60.00
G01 X10.5138 Y11.9029 F60.00
G01 X10.5335 Y11.9114 F60.00
G01 X10.5530 Y11.9203 F60.00
G01 X10.6862 Y11.9833 F60.00
G01 X10.7055 Y11.9927 F60.00
G01 X10.7245 Y12.0026 F60.00
G01 X10.7433 Y12.0129 F60.00
G01 X10.7618 Y12.0237 F60.00
G01 X10.9064 Y12.1107 F60.00
G01 X10.9244 Y12.1224 F60.00
G01 X10.9421 Y12.1345 F60.00
G01 X10.9595 Y12.1471 F60.00
G01 X11.0778 Y12.2348 F60.00
G01 X11.0949 Y12.2478 F60.00
G01 X11.1116 Y12.2612 F60.00
G01 X11.1280 Y12.2750 F60.00
G01 X11.1441 Y12.2892 F60.00
G01 X11.2532 Y12.3881 F60.00
G01 X11.2689 Y12.4027 F60.00
G01 X11.2843 Y12.4177 F60.00
G01 X11.2993 Y12.4331 F60.00
G01 X11.3139 Y12.4488 F60.00
G01 X11.4128 Y12.5579 F60.00
G01 X11.4270 Y12.5740 F60.00
G01 X11.4408 Y12.5904 F60.00
G01 X11.4542 Y12.6071 F60.00
G01 X11.4672 Y12.6242 F60.00
G01 X11.5549 Y12.7425 F60.00
G01 X11.5675 Y12.7599 F60.00
G01 X11.5796 Y12.7776 F60.00
G01 X11.5913 Y12.7956 F60.00
G01 X11.6026 Y12.8138 F60.00
G01 X11.6783 Y12.9402 F60.00
G01 X11.6891 Y12.9587 F60.00
G01 X11.6994 Y12.9775 F60.00
G01 X11.7093 Y12.9965 F60.00
G01 X11.7187 Y13.0158 F60.00
G01 X11.7906 Y13.1685 F60.00
G01 X11.7991 Y13.1882 F60.00
G01 X11.8071 Y13.2081 F60.00
G01 X11.8145 Y13.2282 F60.00
G01 X11.8641 Y13.3669 F60.00
G01 X11.8711 Y13.3872 F60.00
G01 X11.8776 Y13.4076 F60.00
G01 X11.8836 Y13.4282 F60.00
G01 X11.8890 Y13.4490 F60.00
G01 X11.9248 Y13.5918 F60.00
G01 X11.9298 Y13.6127 F60.00
G01 X11.9342 Y13.6337 F60.00
G01 X11.9382 Y13.6548 F60.00
G01 X11.9416 Y13.6760 F60.00
G01 X11.9632 Y13.8216 F60.00
G01 X11.9661 Y13.8429 F60.00
G01 X11.9684 Y13.8642 F60.00
G01 X11.9703 Y13.8856 F60.00
G01 X11.9716 Y13.9070 F60.00
G01 X11.9788 Y14.0541 F60.00
G01 X11.9796 Y14.0755 F60.00
G01 X11.9799 Y14.0970 F60.00
G01 X11.9796 Y14.1185 F60.00
G01 X11.9788 Y14.1399 F60.00
G01 X11.9716 Y14.2870 F60.00
G01 X11.9703 Y14.3084 F60.00
G01 X11.9684 Y14.3298 F60.00
G01 X11.9661 Y14.3511 F60.00
G01 X11.9632 Y14.3724 F60.00
G01 X11.9416 Y14.5180 F60.00
G01 X11.9382 Y14.5392 F60.00
G01 X11.9342 Y14.5603 F60.00
G01 X11.9298 Y14.5813 F60.00
G01 X11.9248 Y14.6022 F60.00
G01 X11.8890 Y14.7450 F60.00
G01 X11.8836 Y14.7658 F60.00
G01 X11.8776 Y14.7864 F60.00
G01 X11.8711 Y14.8068 F60.00
G01 X11.8641 Y14.8271 F60.00
G01 X11.8145 Y14.9658 F60.00
G01 X11.8071 Y14.9859 F60.00
G01 X11.7991 Y15.0058 F60.00
G01 X11.7906 Y15.0255 F60.00
G01 X11.7817 Y15.0450 F60.00
G01 X11.7187 Y15.1782 F60.00
G01 X11.7093 Y15.1975 F60.00
G01 X11.6994 Y15.2165 F60.00
G01 X11.6891 Y15.2353 F60.00
G01 X11.6783 Y15.2538 F60.00
G01 X11.6026 Y15.3802 F60.00
G01 X11.5913 Y15.3984 F60.00
G01 X11.5796 Y15.4164 F60.00
G01 X11.5675 Y15.4341 F60.00
G01 X11.5549 Y15.4515 F60.00
G01 X11.4672 Y15.5698 F60.00
G01 X11.4542 Y15.5869 F60.00
G01 X11.4408 Y15.6036 F60.00
G01 X11.4270 Y15.6200 F60.00
G01 X11.4128 Y15.6361 F60.00
G01 X11.3139 Y15.7452 F60.00
G01 X11.2993 Y15.7609 F60.00
G01 X11.2843 Y15.7763 F60.00
G01 X11.2689 Y15.7913 F60.00
G01 X11.2532 Y15.8059 F60.00
G01 X11.1441 Y15.9048 F60.00
G01 X11.1280 Y15.9190 F60.00
G01 X11.1116 Y15.9328 F60.00
G01 X11.0949 Y15.9462 F60.00
G01 X11.0778 Y15.9592 F60.00
G01 X10.9595 Y16.0469 F60.00
G01 X10.9421 Y16.0595 F60.00
G01 X10.9244 Y16.0716 F60.00
G01 X10.9064 Y16.0833 F60.00
G01 X10.8882 Y16.0946 F60.00
G01 X10.7618 Y16.1703 F60.00
G01 X10.7433 Y16.1811 F60.00
G01 X10.7245 Y16.1914 F60.00
G01 X10.7055 Y16.2013 F60.00
G01 X10.6862 Y16.2107 F60.00
G01 X10.5335 Y16.2826 F60.00
G01 X10.5138 Y16.2911 F60.00
G01 X10.4939 Y16.2991 F60.00
G01 X10.4738 Y16.3065 F60.00
G01 X10.3148 Y16.3631 F60.00
G01 X10.2944 Y16.3696 F60.00
G01 X10.2738 Y16.3756 F60.00
G01 X10.2530 Y16.3810 F60.00
G01 X10.1102 Y16.4168 F60.00
G01 X10.0893 Y16.4218 F60.00
G01 X10.0683 Y16.4262 F60.00
G01 X10.0472 Y16.4302 F60.00
G01 X10.0260 Y16.4336 F60.00
G01 X9.8804 Y16.4552 F60.00
G01 X9.8591 Y16.4581 F60.00
G01 X9.8378 Y16.4604 F60.00
G01 X9.8164 Y16.4623 F60.00
G01 X9.6479 Y16.4708 F60.00
G01 X9.6265 Y16.4716 F60.00
G01 X9.6050 Y16.4719 F60.00
G01 X8.7630 Y16.4719 F60.00
G01 X8.7415 Y16.4716 F60.00
G01 X8.5730 Y16.4636 F60.00
G01 X8.5516 Y16.4623 F60.00
G01 X8.5302 Y16.4604 F60.00
G01 X8.5089 Y16.4581 F60.00
G01 X8.4876 Y16.4552 F60.00
G01 X8.3420 Y16.4336 F60.00
G01 X8.3208 Y16.4302 F60.00
G01 X8.2997 Y16.4262 F60.00
G01 X8.2787 Y16.4218 F60.00
G01 X8.1150 Y16.3810 F60.00
G01 X8.0942 Y16.3756 F60.00
G01 X8.0736 Y16.3696 F60.00
G01 X8.0532 Y16.3631 F60.00
G01 X8.0329 Y16.3561 F60.00
G01 X7.8942 Y16.3065 F60.00
G01 X7.8741 Y16.2991 F60.00
G01 X7.8542 Y16.2911 F60.00
G01 X7.8345 Y16.2826 F60.00
G01 X7.8150 Y16.2737 F60.00
G01 X7.6818 Y16.2107 F60.00
G01 X7.6625 Y16.2013 F60.00
G01 X7.6435 Y16.1914 F60.00
G01 X7.6247 Y16.1811 F60.00
G01 X7.6062 Y16.1703 F60.00
G01 X7.4798 Y16.0946 F60.00
G01 X7.4616 Y16.0833 F60.00
G01 X7.4436 Y16.0716 F60.00
G01 X7.4259 Y16.0595 F60.00
G01 X7.4085 Y16.0469 F60.00
G01 X7.2902 Y15.9592 F60.00
G01 X7.2731 Y15.9462 F60.00
G01 X7.2564 Y15.9328 F60.00
G01 X7.2400 Y15.9190 F60.00
G01 X7.2239 Y15.9048 F60.00
G01 X7.1148 Y15.8059 F60.00
G01 X7.0991 Y15.7913 F60.00
G01 X7.0837 Y15.7763 F60.00
G01 X7.0687 Y15.7609 F60.00
G01 X7.0541 Y15.7452 F60.00
G01 X6.9552 Y15.6361 F60.00
G01 X6.9410 Y15.6200 F60.00
G01 X6.9272 Y15.6036 F60.00
G01 X6.9138 Y15.5869 F60.00
G01 X6.9008 Y15.5698 F60.00
G01 X6.8131 Y15.4515 F60.00
G01 X6.7921 Y15.4219 F60.00
G00 Z3.0000
G00 X21.5955 Y6.5227
G01 F60.00
G01 Z-0.0980
G01 F60.00
G01 X21.6075 Y6.5170 F60.00
G01 X21.6148 Y6.5141 F60.00
G01 X21.7534 Y6.4645 F60.00
G01 X21.7635 Y6.4615 F60.00
G01 X21.9114 Y6.4245 F60.00
G01 X22.0623 Y6.4020 F60.00
G01 X22.0727 Y6.4010 F60.00
G01 X22.2250 Y6.3937 F60.00
G01 X24.0856 Y6.3937 F60.00
G01 X24.2353 Y6.4010 F60.00
G01 X24.2457 Y6.4020 F60.00
G01 X24.3966 Y6.4245 F60.00
G01 X24.5445 Y6.4615 F60.00
G01 X24.5546 Y6.4645 F60.00
G01 X24.6981 Y6.5160 F60.00
G01 X24.8360 Y6.5811 F60.00
G01 X24.8430 Y6.5847 F60.00
G01 X24.9760 Y6.6645 F60.00
G01 X25.1027 Y6.7585 F60.00
G01 X25.2196 Y6.8644 F60.00
G01 X25.3255 Y6.9813 F60.00
G01 X25.4195 Y7.1080 F60.00
G01 X25.5006 Y7.2433 F60.00
G01 X25.5680 Y7.3859 F60.00
G01 X25.6211 Y7.5344 F60.00
G01 X25.6595 Y7.6874 F60.00
G01 X25.6826 Y7.8435 F60.00
G01 X25.6903 Y8.0010 F60.00
G01 X25.6826 Y8.1585 F60.00
G01 X25.6595 Y8.3146 F60.00
G01 X25.6211 Y8.4676 F60.00
G01 X25.5680 Y8.6161 F60.00
G01 X25.5029 Y8.7540 F60.00
G01 X25.4993 Y8.7610 F60.00
G01 X25.4195 Y8.8940 F60.00
G01 X25.3255 Y9.0207 F60.00
G01 X25.2196 Y9.1376 F60.00
G01 X25.1027 Y9.2435 F60.00
G01 X24.9760 Y9.3375 F60.00
G01 X24.8407 Y9.4186 F60.00
G01 X24.6981 Y9.4860 F60.00
G01 X24.5546 Y9.5375 F60.00
G01 X24.5471 Y9.5399 F60.00
G01 X24.4017 Y9.5763 F60.00
G01 X24.3914 Y9.5784 F60.00
G01 X24.2405 Y9.6006 F60.00
G01 X24.0882 Y9.6082 F60.00
G01 X22.7255 Y9.6083 F60.00
G01 X22.7135 Y9.6140 F60.00
G01 X22.7062 Y9.6169 F60.00
G01 X22.5626 Y9.6681 F60.00
G01 X22.4096 Y9.7065 F60.00
G01 X22.2535 Y9.7296 F60.00
G01 X22.1012 Y9.7372 F60.00
G01 X11.0490 Y9.7373 F60.00
G01 X10.8915 Y9.7296 F60.00
G01 X10.7380 Y9.7069 F60.00
G01 X10.7303 Y9.7053 F60.00
G01 X10.5849 Y9.6689 F60.00
G01 X10.5435 Y9.6543 F60.00
G01 X1.7754 Y9.6543 F60.00
G01 X1.6205 Y9.6466 F60.00
G01 X1.4644 Y9.6235 F60.00
G01 X1.3114 Y9.5851 F60.00
G01 X1.1629 Y9.5320 F60.00
G01 X1.0203 Y9.4646 F60.00
G01 X0.8850 Y9.3835 F60.00
G01 X0.7583 Y9.2895 F60.00
G01 X0.6452 Y9.1872 F60.00
G01 X0.6378 Y9.1798 F60.00
G01 X0.5355 Y9.0667 F60.00
G01 X0.4446 Y8.9443 F60.00
G01 X0.4387 Y8.9356 F60.00
G01 X0.3630 Y8.8093 F60.00
G01 X0.3581 Y8.8000 F60.00
G01 X0.2930 Y8.6621 F60.00
G01 X0.2399 Y8.5136 F60.00
G01 X0.2015 Y8.3606 F60.00
G01 X0.1790 Y8.2097 F60.00
G01 X0.1782 Y8.2019 F60.00
G01 X0.1707 Y8.0470 F60.00
G01 X0.1784 Y7.8895 F60.00
G01 X0.2015 Y7.7334 F60.00
G01 X0.2399 Y7.5804 F60.00
G01 X0.2930 Y7.4319 F60.00
G01 X0.3604 Y7.2893 F60.00
G01 X0.4415 Y7.1540 F60.00
G01 X0.5355 Y7.0273 F60.00
G01 X0.6414 Y6.9104 F60.00
G01 X0.7583 Y6.8045 F60.00
G01 X0.8850 Y6.7105 F60.00
G01 X1.0203 Y6.6294 F60.00
G01 X1.1629 Y6.5620 F60.00
G01 X1.3114 Y6.5089 F60.00
G01 X1.4644 Y6.4705 F60.00
G01 X1.6153 Y6.4480 F60.00
G01 X1.6231 Y6.4472 F60.00
G01 X1.7780 Y6.4397 F60.00
G01 X10.9670 Y6.4397 F60.00
G01 X11.1245 Y6.4474 F60.00
G01 X11.2780 Y6.4701 F60.00
G01 X11.2857 Y6.4717 F60.00
G01 X11.4311 Y6.5081 F60.00
G01 X11.4725 Y6.5227 F60.00
G01 X21.5955 Y6.5227 F60.00
G00 Z3.0000
G00 X21.5576 Y6.3308
G01 F60.00
G01 Z-0.0980
G01 F60.00
G01 X21.6888 Y6.2838 F60.00
G01 X21.7027 Y6.2792 F60.00
G01 X21.7168 Y6.2753 F60.00
G01 X21.8597 Y6.2396 F60.00
G01 X21.8740 Y6.2363 F60.00
G01 X21.8884 Y6.2338 F60.00
G01 X22.0341 Y6.2122 F60.00
G01 X22.0486 Y6.2104 F60.00
G01 X22.0633 Y6.2094 F60.00
G01 X22.2104 Y6.2021 F60.00
G01 X22.2250 Y6.2018 F60.00
G01 X24.0830 Y6.2018 F60.00
G01 X24.0976 Y6.2021 F60.00
G01 X24.2447 Y6.2094 F60.00
G01 X24.2594 Y6.2104 F60.00
G01 X24.2739 Y6.2122 F60.00
G01 X24.4196 Y6.2338 F60.00
G01 X24.4340 Y6.2363 F60.00
G01 X24.4483 Y6.2396 F60.00
G01 X24.5912 Y6.2753 F60.00
