(G-CODE GENERATED BY FLATCAM v8.994 - www.flatcam.org - Version Date: 2020/11/7)

(Name: pcb2_x4.gbl_iso_combined_cnc)
(Type: G-code from Geometry)
(Units: MM)

(Created on Thursday, 21 September 2023 at 20:42)

(This preprocessor is used with a motion controller loaded with GRBL firmware.)
(It is configured to be compatible with almost any version of GRBL firmware.)

(TOOL DIAMETER: 0.2132 mm)
(Feedrate_XY: 60.0 mm/min)
(Feedrate_Z: 60.0 mm/min)
(Feedrate rapids 1500.0 mm/min)

(Z_Cut: -0.098 mm)
(Z_Move: 3.0 mm)
(Z Start: None mm)
(Z End: 3.0 mm)
(X,Y End: 0.0000, 0.0000 mm)
(Steps per circle: 64)
(Steps per circle: 64)
(Preprocessor Geometry: grbl_11)

(X range:    0.2337 ...   80.9193  mm)
(Y range:    0.2337 ...   33.8023  mm)

(Spindle Speed: 1000000.0 RPM)
G21
G90
G17
G94


G01 F60.00

M5             
G00 Z5.0000
G00 X0.0000 Y0.0000                
T2
M6
(MSG, Change to Tool Dia = 0.2132)
M0
G00 Z5.0000

M03 S1000000.0
G01 F60.00
G00 X7.7451 Y5.0391
G01 F60.00
G01 Z-0.0980
G01 F60.00
G01 X5.4610 Y5.0391 F60.00
G01 X5.4369 Y5.0385 F60.00
G01 X5.2898 Y5.0313 F60.00
G01 X5.2658 Y5.0295 F60.00
G01 X5.2539 Y5.0282 F60.00
G01 X5.0963 Y5.0050 F60.00
G01 X5.0726 Y5.0008 F60.00
G01 X5.0491 Y4.9956 F60.00
G01 X4.9062 Y4.9598 F60.00
G01 X4.8830 Y4.9534 F60.00
G01 X4.8602 Y4.9458 F60.00
G01 X4.7215 Y4.8962 F60.00
G01 X4.6990 Y4.8875 F60.00
G01 X4.6770 Y4.8778 F60.00
G01 X4.5439 Y4.8148 F60.00
G01 X4.5224 Y4.8040 F60.00
G01 X4.5015 Y4.7921 F60.00
G01 X4.3751 Y4.7164 F60.00
G01 X4.3548 Y4.7035 F60.00
G01 X4.3351 Y4.6897 F60.00
G01 X4.2168 Y4.6020 F60.00
G01 X4.1979 Y4.5871 F60.00
G01 X4.1886 Y4.5794 F60.00
G01 X4.0705 Y4.4725 F60.00
G01 X4.0531 Y4.4559 F60.00
G01 X4.0365 Y4.4385 F60.00
G01 X3.9376 Y4.3294 F60.00
G01 X3.9219 Y4.3111 F60.00
G01 X3.9070 Y4.2922 F60.00
G01 X3.8193 Y4.1739 F60.00
G01 X3.8055 Y4.1542 F60.00
G01 X3.7926 Y4.1339 F60.00
G01 X3.7169 Y4.0075 F60.00
G01 X3.7050 Y3.9866 F60.00
G01 X3.6942 Y3.9651 F60.00
G01 X3.6312 Y3.8320 F60.00
G01 X3.6215 Y3.8100 F60.00
G01 X3.6128 Y3.7875 F60.00
G01 X3.5632 Y3.6488 F60.00
G01 X3.5556 Y3.6260 F60.00
G01 X3.5492 Y3.6028 F60.00
G01 X3.5134 Y3.4599 F60.00
G01 X3.5082 Y3.4364 F60.00
G01 X3.5040 Y3.4127 F60.00
G01 X3.4824 Y3.2670 F60.00
G01 X3.4795 Y3.2432 F60.00
G01 X3.4777 Y3.2192 F60.00
G01 X3.4705 Y3.0721 F60.00
G01 X3.4699 Y3.0480 F60.00
G01 X3.4705 Y3.0239 F60.00
G01 X3.4777 Y2.8768 F60.00
G01 X3.4795 Y2.8528 F60.00
G01 X3.4824 Y2.8290 F60.00
G01 X3.5040 Y2.6833 F60.00
G01 X3.5082 Y2.6596 F60.00
G01 X3.5134 Y2.6361 F60.00
G01 X3.5492 Y2.4932 F60.00
G01 X3.5556 Y2.4700 F60.00
G01 X3.5632 Y2.4472 F60.00
G01 X3.6128 Y2.3085 F60.00
G01 X3.6215 Y2.2860 F60.00
G01 X3.6312 Y2.2640 F60.00
G01 X3.6942 Y2.1309 F60.00
G01 X3.7050 Y2.1094 F60.00
G01 X3.7169 Y2.0885 F60.00
G01 X3.7926 Y1.9621 F60.00
G01 X3.8055 Y1.9418 F60.00
G01 X3.8193 Y1.9221 F60.00
G01 X3.9070 Y1.8038 F60.00
G01 X3.9143 Y1.7943 F60.00
G01 X3.9296 Y1.7756 F60.00
G01 X4.0365 Y1.6575 F60.00
G01 X4.0531 Y1.6401 F60.00
G01 X4.0705 Y1.6235 F60.00
G01 X4.1796 Y1.5246 F60.00
G01 X4.1979 Y1.5089 F60.00
G01 X4.2168 Y1.4940 F60.00
G01 X4.3351 Y1.4063 F60.00
G01 X4.3548 Y1.3925 F60.00
G01 X4.3751 Y1.3796 F60.00
G01 X4.5015 Y1.3039 F60.00
G01 X4.5224 Y1.2920 F60.00
G01 X4.5439 Y1.2812 F60.00
G01 X4.6770 Y1.2182 F60.00
G01 X4.6990 Y1.2085 F60.00
G01 X4.7215 Y1.1998 F60.00
G01 X4.8602 Y1.1502 F60.00
G01 X4.8830 Y1.1426 F60.00
G01 X4.9062 Y1.1362 F60.00
G01 X5.0491 Y1.1004 F60.00
G01 X5.0726 Y1.0952 F60.00
G01 X5.0963 Y1.0910 F60.00
G01 X5.2420 Y1.0694 F60.00
G01 X5.2658 Y1.0665 F60.00
G01 X5.2898 Y1.0647 F60.00
G01 X5.4369 Y1.0575 F60.00
G01 X5.4610 Y1.0569 F60.00
G01 X8.3940 Y1.0570 F60.00
G01 X8.5532 Y1.0647 F60.00
G01 X8.5772 Y1.0665 F60.00
G01 X8.6010 Y1.0694 F60.00
G01 X8.7467 Y1.0910 F60.00
G01 X8.7704 Y1.0952 F60.00
G01 X8.7939 Y1.1004 F60.00
G01 X8.9368 Y1.1362 F60.00
G01 X8.9600 Y1.1426 F60.00
G01 X8.9828 Y1.1502 F60.00
G01 X9.1215 Y1.1998 F60.00
G01 X9.1459 Y1.2093 F60.00
G01 X11.4181 Y1.2093 F60.00
G01 X11.8763 Y0.7511 F60.00
G01 X11.8937 Y0.7345 F60.00
G01 X12.0028 Y0.6356 F60.00
G01 X12.0241 Y0.6174 F60.00
G01 X0.6174 Y0.6174 F60.00
G01 X0.6174 Y16.0196 F60.00
G01 X11.9343 Y16.0196 F60.00
G01 X11.8796 Y16.0057 F60.00
G01 X11.8565 Y15.9987 F60.00
G01 X11.6952 Y15.9410 F60.00
G01 X11.6840 Y15.9365 F60.00
G01 X11.6620 Y15.9268 F60.00
G01 X11.5181 Y15.8585 F60.00
G01 X11.5074 Y15.8530 F60.00
G01 X11.4865 Y15.8411 F60.00
G01 X11.3601 Y15.7654 F60.00
G01 X11.3398 Y15.7525 F60.00
G01 X11.3201 Y15.7387 F60.00
G01 X11.1923 Y15.6437 F60.00
G01 X11.1736 Y15.6284 F60.00
G01 X11.1646 Y15.6204 F60.00
G01 X11.0555 Y15.5215 F60.00
G01 X11.0381 Y15.5049 F60.00
G01 X11.0215 Y15.4875 F60.00
G01 X10.9226 Y15.3784 F60.00
G01 X10.9069 Y15.3601 F60.00
G01 X10.8920 Y15.3412 F60.00
G01 X10.8043 Y15.2229 F60.00
G01 X10.7905 Y15.2032 F60.00
G01 X10.7776 Y15.1829 F60.00
G01 X10.6961 Y15.0467 F60.00
G01 X5.4490 Y15.0466 F60.00
G01 X5.2898 Y15.0389 F60.00
G01 X5.2658 Y15.0371 F60.00
G01 X5.2420 Y15.0342 F60.00
G01 X5.0963 Y15.0126 F60.00
G01 X5.0726 Y15.0084 F60.00
G01 X5.0491 Y15.0032 F60.00
G01 X4.9062 Y14.9674 F60.00
G01 X4.8830 Y14.9610 F60.00
G01 X4.8715 Y14.9573 F60.00
G01 X4.7215 Y14.9038 F60.00
G01 X4.6990 Y14.8951 F60.00
G01 X4.6770 Y14.8854 F60.00
G01 X4.5439 Y14.8224 F60.00
G01 X4.5224 Y14.8116 F60.00
G01 X4.5015 Y14.7997 F60.00
G01 X4.3751 Y14.7240 F60.00
G01 X4.3548 Y14.7111 F60.00
G01 X4.3351 Y14.6973 F60.00
G01 X4.2168 Y14.6096 F60.00
G01 X4.1979 Y14.5947 F60.00
G01 X4.1796 Y14.5790 F60.00
G01 X4.0705 Y14.4801 F60.00
G01 X4.0531 Y14.4635 F60.00
G01 X4.0365 Y14.4461 F60.00
G01 X3.9376 Y14.3370 F60.00
G01 X3.9219 Y14.3187 F60.00
G01 X3.9070 Y14.2998 F60.00
G01 X3.8193 Y14.1815 F60.00
G01 X3.8055 Y14.1618 F60.00
G01 X3.7926 Y14.1415 F60.00
G01 X3.7169 Y14.0151 F60.00
G01 X3.7050 Y13.9942 F60.00
G01 X3.6942 Y13.9727 F60.00
G01 X3.6312 Y13.8396 F60.00
G01 X3.6215 Y13.8176 F60.00
G01 X3.6128 Y13.7951 F60.00
G01 X3.5632 Y13.6564 F60.00
G01 X3.5556 Y13.6336 F60.00
G01 X3.5492 Y13.6104 F60.00
G01 X3.5134 Y13.4675 F60.00
G01 X3.5082 Y13.4440 F60.00
G01 X3.5040 Y13.4203 F60.00
G01 X3.4808 Y13.2627 F60.00
G01 X3.4795 Y13.2508 F60.00
G01 X3.4777 Y13.2268 F60.00
G01 X3.4705 Y13.0797 F60.00
G01 X3.4699 Y13.0556 F60.00
G01 X3.4705 Y13.0315 F60.00
G01 X3.4777 Y12.8844 F60.00
G01 X3.4795 Y12.8604 F60.00
G01 X3.4824 Y12.8366 F60.00
G01 X3.5040 Y12.6909 F60.00
G01 X3.5082 Y12.6672 F60.00
G01 X3.5134 Y12.6437 F60.00
G01 X3.5492 Y12.5008 F60.00
G01 X3.5556 Y12.4776 F60.00
G01 X3.5632 Y12.4548 F60.00
G01 X3.6128 Y12.3161 F60.00
G01 X3.6215 Y12.2936 F60.00
G01 X3.6312 Y12.2716 F60.00
G01 X3.6942 Y12.1385 F60.00
G01 X3.7050 Y12.1170 F60.00
G01 X3.7169 Y12.0961 F60.00
G01 X3.7926 Y11.9697 F60.00
G01 X3.8055 Y11.9494 F60.00
G01 X3.8193 Y11.9297 F60.00
G01 X3.9070 Y11.8114 F60.00
G01 X3.9219 Y11.7925 F60.00
G01 X3.9376 Y11.7742 F60.00
G01 X4.0365 Y11.6651 F60.00
G01 X4.0531 Y11.6477 F60.00
G01 X4.0705 Y11.6311 F60.00
G01 X4.1796 Y11.5322 F60.00
G01 X4.1979 Y11.5165 F60.00
G01 X4.2168 Y11.5016 F60.00
G01 X4.3351 Y11.4139 F60.00
G01 X4.3548 Y11.4001 F60.00
G01 X4.3751 Y11.3872 F60.00
G01 X4.5015 Y11.3115 F60.00
G01 X4.5224 Y11.2996 F60.00
G01 X4.5439 Y11.2888 F60.00
G01 X4.6770 Y11.2258 F60.00
G01 X4.6990 Y11.2161 F60.00
G01 X4.7215 Y11.2074 F60.00
G01 X4.8602 Y11.1578 F60.00
G01 X4.8715 Y11.1539 F60.00
G01 X4.8946 Y11.1469 F60.00
G01 X5.0491 Y11.1080 F60.00
G01 X5.0726 Y11.1028 F60.00
G01 X5.0963 Y11.0986 F60.00
G01 X5.2420 Y11.0770 F60.00
G01 X5.2658 Y11.0741 F60.00
G01 X5.2898 Y11.0723 F60.00
G01 X5.4490 Y11.0646 F60.00
G01 X11.3792 Y11.0645 F60.00
G01 X11.4033 Y11.0651 F60.00
G01 X11.5504 Y11.0723 F60.00
G01 X11.5744 Y11.0741 F60.00
G01 X11.5982 Y11.0770 F60.00
G01 X11.7439 Y11.0986 F60.00
G01 X11.7676 Y11.1028 F60.00
G01 X11.7911 Y11.1080 F60.00
G01 X11.9340 Y11.1438 F60.00
G01 X11.9572 Y11.1502 F60.00
G01 X11.9800 Y11.1578 F60.00
G01 X12.1187 Y11.2074 F60.00
G01 X12.1412 Y11.2161 F60.00
G01 X12.1632 Y11.2258 F60.00
G01 X12.2963 Y11.2888 F60.00
G01 X12.3178 Y11.2996 F60.00
G01 X12.3387 Y11.3115 F60.00
G01 X12.4651 Y11.3872 F60.00
G01 X12.4854 Y11.4001 F60.00
G01 X12.5051 Y11.4139 F60.00
G01 X12.6234 Y11.5016 F60.00
G01 X12.6423 Y11.5165 F60.00
G01 X12.6606 Y11.5322 F60.00
G01 X12.7697 Y11.6311 F60.00
G01 X12.7871 Y11.6477 F60.00
G01 X12.8037 Y11.6651 F60.00
G01 X12.9026 Y11.7742 F60.00
G01 X12.9183 Y11.7925 F60.00
G01 X12.9332 Y11.8114 F60.00
G01 X13.0209 Y11.9297 F60.00
G01 X13.0347 Y11.9494 F60.00
G01 X13.0476 Y11.9697 F60.00
G01 X13.1291 Y12.1059 F60.00
G01 X13.2962 Y12.1060 F60.00
G01 X13.4674 Y12.1145 F60.00
G01 X13.4913 Y12.1168 F60.00
G01 X13.5032 Y12.1184 F60.00
G01 X13.6489 Y12.1400 F60.00
G01 X13.6726 Y12.1442 F60.00
G01 X13.6844 Y12.1466 F60.00
G01 X13.8390 Y12.1852 F60.00
G01 X13.8622 Y12.1916 F60.00
G01 X13.8850 Y12.1992 F60.00
G01 X14.0237 Y12.2488 F60.00
G01 X14.0462 Y12.2575 F60.00
G01 X14.0682 Y12.2672 F60.00
G01 X14.2013 Y12.3302 F60.00
G01 X14.2228 Y12.3410 F60.00
G01 X14.2333 Y12.3468 F60.00
G01 X14.3701 Y12.4286 F60.00
G01 X14.3904 Y12.4415 F60.00
G01 X14.4101 Y12.4553 F60.00
G01 X14.5284 Y12.5430 F60.00
G01 X14.5473 Y12.5579 F60.00
G01 X14.5656 Y12.5736 F60.00
G01 X14.6747 Y12.6725 F60.00
G01 X14.6921 Y12.6891 F60.00
G01 X14.7087 Y12.7065 F60.00
G01 X14.8076 Y12.8156 F60.00
G01 X14.8233 Y12.8339 F60.00
G01 X14.8382 Y12.8528 F60.00
G01 X14.9259 Y12.9711 F60.00
G01 X14.9397 Y12.9908 F60.00
G01 X14.9526 Y13.0111 F60.00
G01 X15.0283 Y13.1375 F60.00
G01 X15.0402 Y13.1584 F60.00
G01 X15.0510 Y13.1799 F60.00
G01 X15.1140 Y13.3130 F60.00
G01 X15.1237 Y13.3350 F60.00
G01 X15.1324 Y13.3575 F60.00
G01 X15.1820 Y13.4962 F60.00
G01 X15.1896 Y13.5190 F60.00
G01 X15.1960 Y13.5422 F60.00
G01 X15.2318 Y13.6851 F60.00
G01 X15.2370 Y13.7086 F60.00
G01 X15.2412 Y13.7323 F60.00
G01 X15.2628 Y13.8780 F60.00
G01 X15.2657 Y13.9018 F60.00
G01 X15.2675 Y13.9258 F60.00
G01 X15.2747 Y14.0729 F60.00
G01 X15.2753 Y14.0970 F60.00
G01 X15.2747 Y14.1211 F60.00
G01 X15.2675 Y14.2682 F60.00
G01 X15.2657 Y14.2922 F60.00
G01 X15.2628 Y14.3160 F60.00
G01 X15.2412 Y14.4617 F60.00
G01 X15.2370 Y14.4854 F60.00
G01 X15.2318 Y14.5089 F60.00
G01 X15.1960 Y14.6518 F60.00
G01 X15.1896 Y14.6750 F60.00
G01 X15.1820 Y14.6978 F60.00
G01 X15.1324 Y14.8365 F60.00
G01 X15.1237 Y14.8590 F60.00
G01 X15.1190 Y14.8700 F60.00
G01 X15.0510 Y15.0141 F60.00
G01 X15.0402 Y15.0356 F60.00
G01 X15.0283 Y15.0565 F60.00
G01 X14.9526 Y15.1829 F60.00
G01 X14.9397 Y15.2032 F60.00
G01 X14.9259 Y15.2229 F60.00
G01 X14.8382 Y15.3412 F60.00
G01 X14.8233 Y15.3601 F60.00
G01 X14.8076 Y15.3784 F60.00
G01 X14.7087 Y15.4875 F60.00
G01 X14.6921 Y15.5049 F60.00
G01 X14.6747 Y15.5215 F60.00
G01 X14.5566 Y15.6284 F60.00
G01 X14.5473 Y15.6361 F60.00
G01 X14.5284 Y15.6510 F60.00
G01 X14.4101 Y15.7387 F60.00
G01 X14.3904 Y15.7525 F60.00
G01 X14.3701 Y15.7654 F60.00
G01 X14.2437 Y15.8411 F60.00
G01 X14.2228 Y15.8530 F60.00
G01 X14.2121 Y15.8585 F60.00
G01 X14.0682 Y15.9268 F60.00
G01 X14.0462 Y15.9365 F60.00
G01 X14.0350 Y15.9410 F60.00
G01 X13.8737 Y15.9987 F60.00
G01 X13.8506 Y16.0057 F60.00
G01 X13.7959 Y16.0196 F60.00
G01 X25.7773 Y16.0196 F60.00
G01 X25.7226 Y16.0057 F60.00
G01 X25.6995 Y15.9987 F60.00
G01 X25.5495 Y15.9452 F60.00
G01 X25.5270 Y15.9365 F60.00
G01 X25.5160 Y15.9318 F60.00
G01 X25.3719 Y15.8638 F60.00
G01 X25.3504 Y15.8530 F60.00
G01 X25.3295 Y15.8411 F60.00
G01 X25.2031 Y15.7654 F60.00
G01 X25.1929 Y15.7591 F60.00
G01 X25.1729 Y15.7457 F60.00
G01 X25.0448 Y15.6510 F60.00
G01 X25.0259 Y15.6361 F60.00
G01 X25.0076 Y15.6204 F60.00
G01 X24.8897 Y15.5133 F60.00
G01 X24.4483 Y15.0721 F60.00
G01 X21.4122 Y15.0721 F60.00
G01 X21.3881 Y15.0715 F60.00
G01 X21.2290 Y15.0635 F60.00
G01 X21.2170 Y15.0625 F60.00
G01 X21.1932 Y15.0596 F60.00
G01 X21.0475 Y15.0380 F60.00
G01 X21.0238 Y15.0338 F60.00
G01 X21.0003 Y15.0286 F60.00
G01 X20.8574 Y14.9928 F60.00
G01 X20.8342 Y14.9864 F60.00
G01 X20.8114 Y14.9788 F60.00
G01 X20.6727 Y14.9292 F60.00
G01 X20.6502 Y14.9205 F60.00
G01 X20.6282 Y14.9108 F60.00
G01 X20.4951 Y14.8478 F60.00
G01 X20.4736 Y14.8370 F60.00
G01 X20.4527 Y14.8251 F60.00
G01 X20.3263 Y14.7494 F60.00
G01 X20.3060 Y14.7365 F60.00
G01 X20.2863 Y14.7227 F60.00
G01 X20.1680 Y14.6350 F60.00
G01 X20.1491 Y14.6201 F60.00
G01 X20.1308 Y14.6044 F60.00
G01 X20.0217 Y14.5055 F60.00
G01 X20.0043 Y14.4889 F60.00
G01 X19.9877 Y14.4715 F60.00
G01 X19.8888 Y14.3624 F60.00
G01 X19.8731 Y14.3441 F60.00
G01 X19.8582 Y14.3252 F60.00
G01 X19.7705 Y14.2069 F60.00
G01 X19.7567 Y14.1872 F60.00
G01 X19.7438 Y14.1669 F60.00
G01 X19.6681 Y14.0405 F60.00
G01 X19.6562 Y14.0196 F60.00
G01 X19.6454 Y13.9981 F60.00
G01 X19.5824 Y13.8650 F60.00
G01 X19.5727 Y13.8430 F60.00
G01 X19.5640 Y13.8205 F60.00
G01 X19.5144 Y13.6818 F60.00
G01 X19.5068 Y13.6590 F60.00
G01 X19.5004 Y13.6358 F60.00
G01 X19.4646 Y13.4929 F60.00
G01 X19.4594 Y13.4694 F60.00
G01 X19.4552 Y13.4457 F60.00
G01 X19.4336 Y13.3000 F60.00
G01 X19.4307 Y13.2762 F60.00
G01 X19.4289 Y13.2522 F60.00
G01 X19.4217 Y13.1051 F60.00
G01 X19.4211 Y13.0810 F60.00
G01 X19.4217 Y13.0569 F60.00
G01 X19.4289 Y12.9098 F60.00
G01 X19.4307 Y12.8858 F60.00
G01 X19.4336 Y12.8620 F60.00
G01 X19.4552 Y12.7163 F60.00
G01 X19.4594 Y12.6926 F60.00
G01 X19.4646 Y12.6691 F60.00
G01 X19.5004 Y12.5262 F60.00
G01 X19.5068 Y12.5030 F60.00
G01 X19.5144 Y12.4802 F60.00
G01 X19.5640 Y12.3415 F60.00
G01 X19.5727 Y12.3190 F60.00
G01 X19.5824 Y12.2970 F60.00
G01 X19.6454 Y12.1639 F60.00
G01 X19.6562 Y12.1424 F60.00
G01 X19.6681 Y12.1215 F60.00
G01 X19.7438 Y11.9951 F60.00
G01 X19.7567 Y11.9748 F60.00
G01 X19.7705 Y11.9551 F60.00
G01 X19.8582 Y11.8368 F60.00
G01 X19.8731 Y11.8179 F60.00
G01 X19.8888 Y11.7996 F60.00
G01 X19.9877 Y11.6905 F60.00
G01 X20.0043 Y11.6731 F60.00
G01 X20.0217 Y11.6565 F60.00
G01 X20.1308 Y11.5576 F60.00
G01 X20.1491 Y11.5419 F60.00
G01 X20.1680 Y11.5270 F60.00
G01 X20.2863 Y11.4393 F60.00
G01 X20.3060 Y11.4255 F60.00
G01 X20.3263 Y11.4126 F60.00
G01 X20.4527 Y11.3369 F60.00
G01 X20.4736 Y11.3250 F60.00
G01 X20.4951 Y11.3142 F60.00
G01 X20.6282 Y11.2512 F60.00
G01 X20.6502 Y11.2415 F60.00
G01 X20.6727 Y11.2328 F60.00
G01 X20.8114 Y11.1832 F60.00
G01 X20.8342 Y11.1756 F60.00
G01 X20.8574 Y11.1692 F60.00
G01 X21.0003 Y11.1334 F60.00
G01 X21.0238 Y11.1282 F60.00
G01 X21.0475 Y11.1240 F60.00
G01 X21.1932 Y11.1024 F60.00
G01 X21.2170 Y11.0995 F60.00
G01 X21.2410 Y11.0977 F60.00
G01 X21.3881 Y11.0905 F60.00
G01 X21.4122 Y11.0899 F60.00
G01 X25.2730 Y11.0899 F60.00
G01 X25.2971 Y11.0905 F60.00
G01 X25.4442 Y11.0977 F60.00
G01 X25.4682 Y11.0995 F60.00
G01 X25.4920 Y11.1024 F60.00
G01 X25.6377 Y11.1240 F60.00
G01 X25.6614 Y11.1282 F60.00
G01 X25.6849 Y11.1334 F60.00
G01 X25.8278 Y11.1692 F60.00
G01 X25.8510 Y11.1756 F60.00
G01 X25.8738 Y11.1832 F60.00
G01 X26.0125 Y11.2328 F60.00
G01 X26.0350 Y11.2415 F60.00
G01 X26.0570 Y11.2512 F60.00
G01 X26.1901 Y11.3142 F60.00
G01 X26.2116 Y11.3250 F60.00
G01 X26.2325 Y11.3369 F60.00
G01 X26.3589 Y11.4126 F60.00
G01 X26.3792 Y11.4255 F60.00
G01 X26.3989 Y11.4393 F60.00
G01 X26.5172 Y11.5270 F60.00
G01 X26.5361 Y11.5419 F60.00
G01 X26.5544 Y11.5576 F60.00
G01 X26.6635 Y11.6565 F60.00
G01 X26.6809 Y11.6731 F60.00
G01 X27.1137 Y12.1059 F60.00
G01 X28.8918 Y12.1060 F60.00
G01 X29.0510 Y12.1137 F60.00
G01 X29.0750 Y12.1155 F60.00
G01 X29.0988 Y12.1184 F60.00
G01 X29.2445 Y12.1400 F60.00
G01 X29.2682 Y12.1442 F60.00
G01 X29.2917 Y12.1494 F60.00
G01 X29.4346 Y12.1852 F60.00
G01 X29.4578 Y12.1916 F60.00
G01 X29.4806 Y12.1992 F60.00
G01 X29.6193 Y12.2488 F60.00
G01 X29.6418 Y12.2575 F60.00
G01 X29.6638 Y12.2672 F60.00
G01 X29.7969 Y12.3302 F60.00
G01 X29.8184 Y12.3410 F60.00
G01 X29.8393 Y12.3529 F60.00
G01 X29.9657 Y12.4286 F60.00
G01 X29.9860 Y12.4415 F60.00
G01 X30.0057 Y12.4553 F60.00
G01 X30.1240 Y12.5430 F60.00
G01 X30.1429 Y12.5579 F60.00
G01 X30.1580 Y12.5707 F60.00
G01 X30.1740 Y12.4623 F60.00
G01 X30.1782 Y12.4386 F60.00
G01 X30.1834 Y12.4151 F60.00
G01 X30.2223 Y12.2606 F60.00
G01 X30.2293 Y12.2375 F60.00
G01 X30.2332 Y12.2262 F60.00
G01 X30.2828 Y12.0875 F60.00
G01 X30.2915 Y12.0650 F60.00
G01 X30.2962 Y12.0540 F60.00
G01 X30.3642 Y11.9099 F60.00
G01 X30.3750 Y11.8884 F60.00
G01 X30.3869 Y11.8675 F60.00
G01 X30.4626 Y11.7411 F60.00
G01 X30.4755 Y11.7208 F60.00
G01 X30.4893 Y11.7011 F60.00
G01 X30.5770 Y11.5828 F60.00
G01 X30.5919 Y11.5639 F60.00
G01 X30.5996 Y11.5546 F60.00
G01 X30.7065 Y11.4365 F60.00
G01 X30.7231 Y11.4191 F60.00
G01 X33.6441 Y8.4981 F60.00
G01 X33.6615 Y8.4815 F60.00
G01 X33.7706 Y8.3826 F60.00
G01 X33.7889 Y8.3669 F60.00
G01 X33.8078 Y8.3520 F60.00
G01 X33.9261 Y8.2643 F60.00
G01 X33.9458 Y8.2505 F60.00
G01 X33.9661 Y8.2376 F60.00
G01 X34.0925 Y8.1619 F60.00
G01 X34.1134 Y8.1500 F60.00
G01 X34.1349 Y8.1392 F60.00
G01 X34.2680 Y8.0762 F60.00
G01 X34.2900 Y8.0665 F60.00
G01 X34.3125 Y8.0578 F60.00
G01 X34.4512 Y8.0082 F60.00
G01 X34.4740 Y8.0006 F60.00
G01 X34.4856 Y7.9973 F60.00
G01 X34.6401 Y7.9584 F60.00
G01 X34.6636 Y7.9532 F60.00
G01 X34.6873 Y7.9490 F60.00
G01 X34.8330 Y7.9274 F60.00
G01 X34.8568 Y7.9245 F60.00
G01 X34.8688 Y7.9235 F60.00
G01 X35.0279 Y7.9155 F60.00
G01 X35.0400 Y7.9150 F60.00
G01 X35.0640 Y7.9150 F60.00
G01 X35.2352 Y7.9235 F60.00
G01 X35.2591 Y7.9258 F60.00
G01 X35.2710 Y7.9274 F60.00
G01 X35.3492 Y7.9390 F60.00
G01 X34.1024 Y6.6922 F60.00
G01 X34.0830 Y6.6739 F60.00
G01 X31.5602 Y4.1501 F60.00
G01 X27.1137 Y4.1501 F60.00
G01 X26.6555 Y4.6083 F60.00
G01 X26.6381 Y4.6249 F60.00
G01 X26.5200 Y4.7318 F60.00
G01 X26.5013 Y4.7471 F60.00
G01 X26.4918 Y4.7544 F60.00
G01 X26.3735 Y4.8421 F60.00
G01 X26.3538 Y4.8559 F60.00
G01 X26.3335 Y4.8688 F60.00
G01 X26.1967 Y4.9506 F60.00
G01 X26.1755 Y4.9619 F60.00
G01 X26.1647 Y4.9672 F60.00
G01 X26.0316 Y5.0302 F60.00
G01 X26.0096 Y5.0399 F60.00
G01 X25.9871 Y5.0486 F60.00
G01 X25.8484 Y5.0982 F60.00
G01 X25.8256 Y5.1058 F60.00
G01 X25.8024 Y5.1122 F60.00
G01 X25.6595 Y5.1480 F60.00
G01 X25.6360 Y5.1532 F60.00
G01 X25.6123 Y5.1574 F60.00
G01 X25.4666 Y5.1790 F60.00
G01 X25.4428 Y5.1819 F60.00
G01 X25.4188 Y5.1837 F60.00
G01 X25.2596 Y5.1914 F60.00
G01 X21.4122 Y5.1915 F60.00
G01 X21.3881 Y5.1909 F60.00
G01 X21.2410 Y5.1837 F60.00
G01 X21.2170 Y5.1819 F60.00
G01 X21.1932 Y5.1790 F60.00
G01 X21.0475 Y5.1574 F60.00
G01 X21.0238 Y5.1532 F60.00
G01 X21.0003 Y5.1480 F60.00
G01 X20.8574 Y5.1122 F60.00
G01 X20.8342 Y5.1058 F60.00
G01 X20.8114 Y5.0982 F60.00
G01 X20.6727 Y5.0486 F60.00
G01 X20.6502 Y5.0399 F60.00
G01 X20.6282 Y5.0302 F60.00
G01 X20.4951 Y4.9672 F60.00
G01 X20.4736 Y4.9564 F60.00
G01 X20.4527 Y4.9445 F60.00
G01 X20.3263 Y4.8688 F60.00
G01 X20.3060 Y4.8559 F60.00
G01 X20.2863 Y4.8421 F60.00
G01 X20.1680 Y4.7544 F60.00
G01 X20.1491 Y4.7395 F60.00
G01 X20.1308 Y4.7238 F60.00
G01 X20.0217 Y4.6249 F60.00
G01 X20.0043 Y4.6083 F60.00
G01 X19.9877 Y4.5909 F60.00
G01 X19.8888 Y4.4818 F60.00
G01 X19.8731 Y4.4635 F60.00
G01 X19.8582 Y4.4446 F60.00
G01 X19.7635 Y4.3165 F60.00
G01 X19.7501 Y4.2965 F60.00
G01 X19.7438 Y4.2863 F60.00
G01 X19.6681 Y4.1599 F60.00
G01 X19.6562 Y4.1390 F60.00
G01 X19.6454 Y4.1175 F60.00
G01 X19.5824 Y3.9844 F60.00
G01 X19.5727 Y3.9624 F60.00
G01 X19.5640 Y3.9399 F60.00
G01 X19.5144 Y3.8012 F60.00
G01 X19.5068 Y3.7784 F60.00
G01 X19.5004 Y3.7552 F60.00
G01 X19.4646 Y3.6123 F60.00
G01 X19.4594 Y3.5888 F60.00
G01 X19.4552 Y3.5651 F60.00
G01 X19.4336 Y3.4194 F60.00
G01 X19.4307 Y3.3956 F60.00
G01 X19.4289 Y3.3716 F60.00
G01 X19.4217 Y3.2245 F60.00
G01 X19.4211 Y3.2004 F60.00
G01 X19.4217 Y3.1763 F60.00
G01 X19.4289 Y3.0292 F60.00
G01 X19.4307 Y3.0052 F60.00
G01 X19.4336 Y2.9814 F60.00
G01 X19.4552 Y2.8357 F60.00
G01 X19.4594 Y2.8120 F60.00
G01 X19.4646 Y2.7885 F60.00
G01 X19.5004 Y2.6456 F60.00
G01 X19.5068 Y2.6224 F60.00
G01 X19.5144 Y2.5996 F60.00
G01 X19.5640 Y2.4609 F60.00
G01 X19.5727 Y2.4384 F60.00
G01 X19.5824 Y2.4164 F60.00
G01 X19.6454 Y2.2833 F60.00
G01 X19.6562 Y2.2618 F60.00
G01 X19.6681 Y2.2409 F60.00
G01 X19.7438 Y2.1145 F60.00
G01 X19.7567 Y2.0942 F60.00
G01 X19.7705 Y2.0745 F60.00
G01 X19.8582 Y1.9562 F60.00
G01 X19.8731 Y1.9373 F60.00
G01 X19.8888 Y1.9190 F60.00
G01 X19.9877 Y1.8099 F60.00
G01 X20.0043 Y1.7925 F60.00
G01 X20.0217 Y1.7759 F60.00
G01 X20.1308 Y1.6770 F60.00
G01 X20.1491 Y1.6613 F60.00
G01 X20.1680 Y1.6464 F60.00
G01 X20.2961 Y1.5517 F60.00
G01 X20.3060 Y1.5449 F60.00
G01 X20.3263 Y1.5320 F60.00
G01 X20.4527 Y1.4563 F60.00
G01 X20.4736 Y1.4444 F60.00
G01 X20.4951 Y1.4336 F60.00
G01 X20.6282 Y1.3706 F60.00
G01 X20.6502 Y1.3609 F60.00
G01 X20.6727 Y1.3522 F60.00
G01 X20.8114 Y1.3026 F60.00
G01 X20.8342 Y1.2950 F60.00
G01 X20.8574 Y1.2886 F60.00
G01 X21.0003 Y1.2528 F60.00
G01 X21.0238 Y1.2476 F60.00
G01 X21.0475 Y1.2434 F60.00
G01 X21.1932 Y1.2218 F60.00
G01 X21.2170 Y1.2189 F60.00
G01 X21.2290 Y1.2179 F60.00
G01 X21.3881 Y1.2099 F60.00
G01 X21.4122 Y1.2093 F60.00
G01 X24.4229 Y1.2093 F60.00
G01 X24.8811 Y0.7511 F60.00
G01 X24.8985 Y0.7345 F60.00
G01 X25.0076 Y0.6356 F60.00
G01 X25.0289 Y0.6174 F60.00
G01 X14.5443 Y0.6174 F60.00
G01 X14.5656 Y0.6356 F60.00
G01 X14.6747 Y0.7345 F60.00
G01 X14.6921 Y0.7511 F60.00
G01 X14.7087 Y0.7685 F60.00
G01 X14.8076 Y0.8776 F60.00
G01 X14.8233 Y0.8959 F60.00
G01 X14.8382 Y0.9148 F60.00
G01 X14.9259 Y1.0331 F60.00
G01 X14.9397 Y1.0528 F60.00
G01 X14.9526 Y1.0731 F60.00
G01 X15.0283 Y1.1995 F60.00
G01 X15.0402 Y1.2204 F60.00
G01 X15.0510 Y1.2419 F60.00
G01 X15.1140 Y1.3750 F60.00
G01 X15.1237 Y1.3970 F60.00
G01 X15.1324 Y1.4195 F60.00
G01 X15.1820 Y1.5582 F60.00
G01 X15.1896 Y1.5810 F60.00
G01 X15.1960 Y1.6042 F60.00
G01 X15.2318 Y1.7471 F60.00
G01 X15.2370 Y1.7706 F60.00
G01 X15.2412 Y1.7943 F60.00
G01 X15.2628 Y1.9400 F60.00
G01 X15.2657 Y1.9638 F60.00
G01 X15.2675 Y1.9878 F60.00
G01 X15.2747 Y2.1349 F60.00
G01 X15.2753 Y2.1590 F60.00
G01 X15.2747 Y2.1831 F60.00
G01 X15.2675 Y2.3302 F60.00
G01 X15.2657 Y2.3542 F60.00
G01 X15.2628 Y2.3780 F60.00
G01 X15.2412 Y2.5237 F60.00
G01 X15.2370 Y2.5474 F60.00
G01 X15.2318 Y2.5709 F60.00
G01 X15.1929 Y2.7254 F60.00
G01 X15.1896 Y2.7370 F60.00
G01 X15.1820 Y2.7598 F60.00
G01 X15.1324 Y2.8985 F60.00
G01 X15.1237 Y2.9210 F60.00
G01 X15.1140 Y2.9430 F60.00
G01 X15.0510 Y3.0761 F60.00
G01 X15.0402 Y3.0976 F60.00
G01 X15.0283 Y3.1185 F60.00
G01 X14.9526 Y3.2449 F60.00
G01 X14.9397 Y3.2652 F60.00
G01 X14.9259 Y3.2849 F60.00
G01 X14.8382 Y3.4032 F60.00
G01 X14.8309 Y3.4127 F60.00
G01 X14.8156 Y3.4314 F60.00
G01 X14.7087 Y3.5495 F60.00
G01 X14.6921 Y3.5669 F60.00
G01 X13.6421 Y4.6167 F60.00
G01 X13.5242 Y4.7238 F60.00
G01 X13.5059 Y4.7395 F60.00
G01 X13.4870 Y4.7544 F60.00
G01 X13.3687 Y4.8421 F60.00
G01 X13.3589 Y4.8491 F60.00
G01 X13.3389 Y4.8625 F60.00
G01 X13.2023 Y4.9445 F60.00
G01 X13.1814 Y4.9564 F60.00
G01 X13.1599 Y4.9672 F60.00
G01 X13.0268 Y5.0302 F60.00
G01 X13.0048 Y5.0399 F60.00
G01 X12.9823 Y5.0486 F60.00
G01 X12.8436 Y5.0982 F60.00
G01 X12.8208 Y5.1058 F60.00
G01 X12.7976 Y5.1122 F60.00
G01 X12.6547 Y5.1480 F60.00
G01 X12.6312 Y5.1532 F60.00
G01 X12.6075 Y5.1574 F60.00
G01 X12.4618 Y5.1790 F60.00
G01 X12.4380 Y5.1819 F60.00
G01 X12.4140 Y5.1837 F60.00
G01 X12.2548 Y5.1914 F60.00
G01 X12.2308 Y5.1914 F60.00
G01 X12.2187 Y5.1909 F60.00
G01 X12.0716 Y5.1837 F60.00
G01 X12.0476 Y5.1819 F60.00
G01 X12.0238 Y5.1790 F60.00
G01 X11.8781 Y5.1574 F60.00
G01 X11.8544 Y5.1532 F60.00
G01 X11.8364 Y5.1493 F60.00
G01 X11.8184 Y5.1532 F60.00
G01 X11.7947 Y5.1574 F60.00
G01 X11.6490 Y5.1790 F60.00
G01 X11.6252 Y5.1819 F60.00
G01 X11.6012 Y5.1837 F60.00
G01 X11.4420 Y5.1914 F60.00
G01 X8.4970 Y5.1914 F60.00
G01 X8.3378 Y5.1837 F60.00
G01 X8.3138 Y5.1819 F60.00
G01 X8.2900 Y5.1790 F60.00
G01 X8.1443 Y5.1574 F60.00
G01 X8.1206 Y5.1532 F60.00
G01 X8.0971 Y5.1480 F60.00
G01 X7.9542 Y5.1122 F60.00
G01 X7.9310 Y5.1058 F60.00
G01 X7.9082 Y5.0982 F60.00
G01 X7.7695 Y5.0486 F60.00
G01 X7.7451 Y5.0391 F60.00
G00 Z3.0000
G00 X7.7097 Y5.2310
G01 F60.00
G01 Z-0.0980
G01 F60.00
G01 X5.4443 Y5.2308 F60.00
G01 X5.2804 Y5.2229 F60.00
G01 X5.2470 Y5.2205 F60.00
G01 X5.2138 Y5.2164 F60.00
G01 X5.0516 Y5.1921 F60.00
G01 X5.0187 Y5.1856 F60.00
G01 X5.0024 Y5.1817 F60.00
G01 X4.8596 Y5.1459 F60.00
G01 X4.8273 Y5.1370 F60.00
G01 X4.7955 Y5.1265 F60.00
G01 X4.6569 Y5.0769 F60.00
G01 X4.6256 Y5.0648 F60.00
G01 X4.5950 Y5.0512 F60.00
G01 X4.4619 Y4.9883 F60.00
G01 X4.4319 Y4.9732 F60.00
G01 X4.4028 Y4.9567 F60.00
G01 X4.2765 Y4.8810 F60.00
G01 X4.2482 Y4.8631 F60.00
G01 X4.2208 Y4.8438 F60.00
G01 X4.1025 Y4.7561 F60.00
G01 X4.0761 Y4.7355 F60.00
G01 X4.0508 Y4.7136 F60.00
G01 X3.9416 Y4.6147 F60.00
G01 X3.9174 Y4.5916 F60.00
G01 X3.9057 Y4.5796 F60.00
G01 X3.7843 Y4.4457 F60.00
G01 X3.7735 Y4.4329 F60.00
G01 X3.7529 Y4.4065 F60.00
G01 X3.6554 Y4.2746 F60.00
G01 X3.6368 Y4.2468 F60.00
G01 X3.6280 Y4.2325 F60.00
G01 X3.5523 Y4.1062 F60.00
G01 X3.5358 Y4.0771 F60.00
G01 X3.5207 Y4.0471 F60.00
G01 X3.4578 Y3.9140 F60.00
G01 X3.4442 Y3.8834 F60.00
G01 X3.4380 Y3.8678 F60.00
G01 X3.3825 Y3.7135 F60.00
G01 X3.3720 Y3.6817 F60.00
G01 X3.3631 Y3.6494 F60.00
G01 X3.3273 Y3.5066 F60.00
G01 X3.3234 Y3.4903 F60.00
G01 X3.3169 Y3.4574 F60.00
G01 X3.2904 Y3.2786 F60.00
G01 X3.2871 Y3.2453 F60.00
G01 X3.2861 Y3.2286 F60.00
G01 X3.2788 Y3.0815 F60.00
G01 X3.2780 Y3.0480 F60.00
G01 X3.2788 Y3.0145 F60.00
G01 X3.2861 Y2.8674 F60.00
G01 X3.2885 Y2.8340 F60.00
G01 X3.2926 Y2.8008 F60.00
G01 X3.3142 Y2.6551 F60.00
G01 X3.3200 Y2.6221 F60.00
G01 X3.3273 Y2.5894 F60.00
G01 X3.3631 Y2.4466 F60.00
G01 X3.3720 Y2.4143 F60.00
G01 X3.3825 Y2.3825 F60.00
G01 X3.4321 Y2.2439 F60.00
G01 X3.4442 Y2.2126 F60.00
G01 X3.4578 Y2.1820 F60.00
G01 X3.5207 Y2.0489 F60.00
G01 X3.5358 Y2.0189 F60.00
G01 X3.5523 Y1.9898 F60.00
G01 X3.6280 Y1.8635 F60.00
G01 X3.6459 Y1.8352 F60.00
G01 X3.6652 Y1.8078 F60.00
G01 X3.7529 Y1.6895 F60.00
G01 X3.7735 Y1.6631 F60.00
G01 X3.7843 Y1.6503 F60.00
G01 X3.8943 Y1.5286 F60.00
G01 X3.9174 Y1.5044 F60.00
G01 X3.9416 Y1.4813 F60.00
G01 X4.0508 Y1.3824 F60.00
G01 X4.0761 Y1.3605 F60.00
G01 X4.1025 Y1.3399 F60.00
G01 X4.2208 Y1.2522 F60.00
G01 X4.2482 Y1.2329 F60.00
G01 X4.2765 Y1.2150 F60.00
G01 X4.4028 Y1.1393 F60.00
G01 X4.4319 Y1.1228 F60.00
G01 X4.4619 Y1.1077 F60.00
G01 X4.5950 Y1.0448 F60.00
G01 X4.6256 Y1.0312 F60.00
G01 X4.6569 Y1.0191 F60.00
G01 X4.7955 Y0.9695 F60.00
G01 X4.8273 Y0.9590 F60.00
G01 X4.8596 Y0.9501 F60.00
G01 X5.0024 Y0.9143 F60.00
G01 X5.0351 Y0.9070 F60.00
G01 X5.0681 Y0.9012 F60.00
G01 X5.2138 Y0.8796 F60.00
G01 X5.2470 Y0.8755 F60.00
G01 X5.2804 Y0.8731 F60.00
G01 X5.4275 Y0.8658 F60.00
G01 X5.4610 Y0.8650 F60.00
G01 X8.3987 Y0.8652 F60.00
G01 X8.5626 Y0.8731 F60.00
G01 X8.5960 Y0.8755 F60.00
G01 X8.6292 Y0.8796 F60.00
G01 X8.7749 Y0.9012 F60.00
G01 X8.8079 Y0.9070 F60.00
G01 X8.8406 Y0.9143 F60.00
G01 X8.9834 Y0.9501 F60.00
G01 X9.0157 Y0.9590 F60.00
G01 X9.0475 Y0.9695 F60.00
G01 X9.1813 Y1.0174 F60.00
G01 X11.3386 Y1.0174 F60.00
G01 X11.5467 Y0.8093 F60.00
G01 X0.8093 Y0.8093 F60.00
G01 X0.8093 Y15.8277 F60.00
G01 X11.1180 Y15.8277 F60.00
G01 X11.0742 Y15.7949 F60.00
G01 X11.0483 Y15.7737 F60.00
G01 X10.9144 Y15.6523 F60.00
G01 X10.9024 Y15.6406 F60.00
G01 X10.8793 Y15.6164 F60.00
G01 X10.7804 Y15.5072 F60.00
G01 X10.7693 Y15.4947 F60.00
G01 X10.7481 Y15.4688 F60.00
G01 X10.6404 Y15.3236 F60.00
G01 X10.6218 Y15.2958 F60.00
G01 X10.5873 Y15.2386 F60.00
G01 X5.4443 Y15.2384 F60.00
G01 X5.2804 Y15.2305 F60.00
G01 X5.2470 Y15.2281 F60.00
G01 X5.2138 Y15.2240 F60.00
G01 X5.0681 Y15.2024 F60.00
G01 X5.0351 Y15.1966 F60.00
G01 X5.0024 Y15.1893 F60.00
G01 X4.8596 Y15.1535 F60.00
G01 X4.8273 Y15.1446 F60.00
G01 X4.7955 Y15.1341 F60.00
G01 X4.6412 Y15.0786 F60.00
G01 X4.6102 Y15.0658 F60.00
G01 X4.5950 Y15.0588 F60.00
G01 X4.4619 Y14.9959 F60.00
G01 X4.4319 Y14.9808 F60.00
G01 X4.4028 Y14.9643 F60.00
G01 X4.2765 Y14.8886 F60.00
G01 X4.2482 Y14.8707 F60.00
G01 X4.2208 Y14.8514 F60.00
G01 X4.1025 Y14.7637 F60.00
G01 X4.0761 Y14.7431 F60.00
G01 X4.0508 Y14.7212 F60.00
G01 X3.9416 Y14.6223 F60.00
G01 X3.9174 Y14.5992 F60.00
G01 X3.8943 Y14.5750 F60.00
G01 X3.7954 Y14.4658 F60.00
G01 X3.7843 Y14.4533 F60.00
G01 X3.7631 Y14.4274 F60.00
G01 X3.6652 Y14.2958 F60.00
G01 X3.6459 Y14.2684 F60.00
G01 X3.6280 Y14.2401 F60.00
G01 X3.5523 Y14.1138 F60.00
G01 X3.5358 Y14.0847 F60.00
G01 X3.5207 Y14.0547 F60.00
G01 X3.4508 Y13.9064 F60.00
G01 X3.4380 Y13.8754 F60.00
G01 X3.4321 Y13.8597 F60.00
G01 X3.3825 Y13.7211 F60.00
G01 X3.3720 Y13.6893 F60.00
G01 X3.3631 Y13.6570 F60.00
G01 X3.3273 Y13.5142 F60.00
G01 X3.3200 Y13.4815 F60.00
G01 X3.3142 Y13.4485 F60.00
G01 X3.2926 Y13.3028 F60.00
G01 X3.2885 Y13.2696 F60.00
G01 X3.2861 Y13.2362 F60.00
G01 X3.2788 Y13.0891 F60.00
G01 X3.2780 Y13.0556 F60.00
G01 X3.2788 Y13.0221 F60.00
G01 X3.2861 Y12.8750 F60.00
G01 X3.2871 Y12.8583 F60.00
G01 X3.2904 Y12.8250 F60.00
G01 X3.3142 Y12.6627 F60.00
G01 X3.3200 Y12.6297 F60.00
G01 X3.3273 Y12.5970 F60.00
G01 X3.3631 Y12.4542 F60.00
G01 X3.3720 Y12.4219 F60.00
G01 X3.3825 Y12.3901 F60.00
G01 X3.4321 Y12.2515 F60.00
G01 X3.4442 Y12.2202 F60.00
G01 X3.4578 Y12.1896 F60.00
G01 X3.5207 Y12.0565 F60.00
G01 X3.5358 Y12.0265 F60.00
G01 X3.5523 Y11.9974 F60.00
G01 X3.6280 Y11.8711 F60.00
G01 X3.6459 Y11.8428 F60.00
G01 X3.6652 Y11.8154 F60.00
G01 X3.7529 Y11.6971 F60.00
G01 X3.7631 Y11.6838 F60.00
G01 X3.7843 Y11.6579 F60.00
G01 X3.8943 Y11.5362 F60.00
G01 X3.9174 Y11.5120 F60.00
G01 X3.9416 Y11.4889 F60.00
G01 X4.0508 Y11.3900 F60.00
G01 X4.0761 Y11.3681 F60.00
G01 X4.0892 Y11.3577 F60.00
G01 X4.2208 Y11.2598 F60.00
G01 X4.2482 Y11.2405 F60.00
G01 X4.2765 Y11.2226 F60.00
G01 X4.4028 Y11.1469 F60.00
G01 X4.4319 Y11.1304 F60.00
G01 X4.4619 Y11.1153 F60.00
G01 X4.5950 Y11.0524 F60.00
G01 X4.6256 Y11.0388 F60.00
G01 X4.6569 Y11.0267 F60.00
G01 X4.7955 Y10.9771 F60.00
G01 X4.8273 Y10.9666 F60.00
G01 X4.8596 Y10.9577 F60.00
G01 X5.0024 Y10.9219 F60.00
G01 X5.0351 Y10.9146 F60.00
G01 X5.0681 Y10.9088 F60.00
G01 X5.2138 Y10.8872 F60.00
G01 X5.2470 Y10.8831 F60.00
G01 X5.2804 Y10.8807 F60.00
G01 X5.4275 Y10.8734 F60.00
G01 X5.4610 Y10.8726 F60.00
G01 X11.3792 Y10.8726 F60.00
G01 X11.4127 Y10.8734 F60.00
G01 X11.5598 Y10.8807 F60.00
G01 X11.5932 Y10.8831 F60.00
G01 X11.6264 Y10.8872 F60.00
G01 X11.7721 Y10.9088 F60.00
G01 X11.8051 Y10.9146 F60.00
G01 X11.8378 Y10.9219 F60.00
G01 X11.9806 Y10.9577 F60.00
G01 X12.0129 Y10.9666 F60.00
G01 X12.0447 Y10.9771 F60.00
G01 X12.1833 Y11.0267 F60.00
G01 X12.2146 Y11.0388 F60.00
G01 X12.2452 Y11.0524 F60.00
G01 X12.3783 Y11.1153 F60.00
G01 X12.4083 Y11.1304 F60.00
G01 X12.4374 Y11.1469 F60.00
G01 X12.5637 Y11.2226 F60.00
G01 X12.5920 Y11.2405 F60.00
G01 X12.6194 Y11.2598 F60.00
G01 X12.7377 Y11.3475 F60.00
G01 X12.7641 Y11.3681 F60.00
G01 X12.7894 Y11.3900 F60.00
G01 X12.9108 Y11.5003 F60.00
G01 X12.9228 Y11.5120 F60.00
G01 X12.9459 Y11.5362 F60.00
G01 X13.0448 Y11.6454 F60.00
G01 X13.0559 Y11.6579 F60.00
G01 X13.0771 Y11.6838 F60.00
G01 X13.1848 Y11.8290 F60.00
G01 X13.2034 Y11.8568 F60.00
G01 X13.2379 Y11.9140 F60.00
G01 X13.2842 Y11.9140 F60.00
G01 X13.3177 Y11.9148 F60.00
G01 X13.4648 Y11.9221 F60.00
G01 X13.4982 Y11.9245 F60.00
G01 X13.5314 Y11.9286 F60.00
G01 X13.6771 Y11.9502 F60.00
G01 X13.7101 Y11.9560 F60.00
G01 X13.7428 Y11.9633 F60.00
G01 X13.8856 Y11.9991 F60.00
G01 X13.9179 Y12.0080 F60.00
G01 X13.9497 Y12.0185 F60.00
G01 X14.0883 Y12.0681 F60.00
G01 X14.1196 Y12.0802 F60.00
G01 X14.1502 Y12.0938 F60.00
G01 X14.2833 Y12.1567 F60.00
G01 X14.3133 Y12.1718 F60.00
G01 X14.3424 Y12.1883 F60.00
G01 X14.4687 Y12.2640 F60.00
G01 X14.4970 Y12.2819 F60.00
G01 X14.5244 Y12.3012 F60.00
G01 X14.6427 Y12.3889 F60.00
G01 X14.6691 Y12.4095 F60.00
G01 X14.6944 Y12.4314 F60.00
G01 X14.8036 Y12.5303 F60.00
G01 X14.8278 Y12.5534 F60.00
G01 X14.8509 Y12.5776 F60.00
G01 X14.9498 Y12.6868 F60.00
G01 X14.9717 Y12.7121 F60.00
G01 X14.9923 Y12.7385 F60.00
G01 X15.0800 Y12.8568 F60.00
G01 X15.0993 Y12.8842 F60.00
G01 X15.1172 Y12.9125 F60.00
G01 X15.1929 Y13.0388 F60.00
G01 X15.2094 Y13.0679 F60.00
G01 X15.2245 Y13.0979 F60.00
G01 X15.2874 Y13.2310 F60.00
G01 X15.3010 Y13.2616 F60.00
G01 X15.3131 Y13.2929 F60.00
G01 X15.3627 Y13.4315 F60.00
G01 X15.3732 Y13.4633 F60.00
G01 X15.3821 Y13.4956 F60.00
G01 X15.4179 Y13.6384 F60.00
G01 X15.4252 Y13.6711 F60.00
G01 X15.4310 Y13.7041 F60.00
G01 X15.4526 Y13.8498 F60.00
G01 X15.4567 Y13.8830 F60.00
G01 X15.4591 Y13.9164 F60.00
G01 X15.4664 Y14.0635 F60.00
G01 X15.4672 Y14.0970 F60.00
G01 X15.4664 Y14.1305 F60.00
G01 X15.4591 Y14.2776 F60.00
G01 X15.4567 Y14.3110 F60.00
G01 X15.4526 Y14.3442 F60.00
G01 X15.4283 Y14.5064 F60.00
G01 X15.4218 Y14.5393 F60.00
G01 X15.4179 Y14.5556 F60.00
G01 X15.3821 Y14.6984 F60.00
G01 X15.3732 Y14.7307 F60.00
G01 X15.3627 Y14.7625 F60.00
G01 X15.3131 Y14.9011 F60.00
G01 X15.3010 Y14.9324 F60.00
G01 X15.2874 Y14.9630 F60.00
G01 X15.2245 Y15.0961 F60.00
G01 X15.2094 Y15.1261 F60.00
G01 X15.1929 Y15.1552 F60.00
G01 X15.1084 Y15.2958 F60.00
G01 X15.0993 Y15.3098 F60.00
G01 X15.0800 Y15.3372 F60.00
G01 X14.9923 Y15.4555 F60.00
G01 X14.9717 Y15.4819 F60.00
G01 X14.9498 Y15.5072 F60.00
G01 X14.8395 Y15.6286 F60.00
G01 X14.8278 Y15.6406 F60.00
G01 X14.8036 Y15.6637 F60.00
G01 X14.6819 Y15.7737 F60.00
G01 X14.6560 Y15.7949 F60.00
G01 X14.6122 Y15.8277 F60.00
G01 X24.9610 Y15.8277 F60.00
G01 X24.9172 Y15.7949 F60.00
G01 X24.8913 Y15.7737 F60.00
G01 X24.7574 Y15.6523 F60.00
G01 X24.3688 Y15.2640 F60.00
G01 X21.4122 Y15.2640 F60.00
G01 X21.3787 Y15.2632 F60.00
G01 X21.2316 Y15.2559 F60.00
G01 X21.1982 Y15.2535 F60.00
G01 X21.1816 Y15.2516 F60.00
G01 X21.0193 Y15.2278 F60.00
G01 X20.9863 Y15.2220 F60.00
G01 X20.9536 Y15.2147 F60.00
G01 X20.8108 Y15.1789 F60.00
G01 X20.7785 Y15.1700 F60.00
G01 X20.7467 Y15.1595 F60.00
G01 X20.6081 Y15.1099 F60.00
G01 X20.5768 Y15.0978 F60.00
G01 X20.5462 Y15.0842 F60.00
G01 X20.4131 Y15.0213 F60.00
G01 X20.3831 Y15.0062 F60.00
G01 X20.3540 Y14.9897 F60.00
G01 X20.2277 Y14.9140 F60.00
G01 X20.1994 Y14.8961 F60.00
G01 X20.1720 Y14.8768 F60.00
G01 X20.0404 Y14.7789 F60.00
G01 X20.0273 Y14.7685 F60.00
G01 X20.0020 Y14.7466 F60.00
G01 X19.8928 Y14.6477 F60.00
G01 X19.8686 Y14.6246 F60.00
G01 X19.8455 Y14.6004 F60.00
G01 X19.7466 Y14.4912 F60.00
G01 X19.7247 Y14.4659 F60.00
G01 X19.7041 Y14.4395 F60.00
G01 X19.6164 Y14.3212 F60.00
G01 X19.5971 Y14.2938 F60.00
G01 X19.5792 Y14.2655 F60.00
G01 X19.5035 Y14.1392 F60.00
G01 X19.4870 Y14.1101 F60.00
G01 X19.4719 Y14.0801 F60.00
G01 X19.4090 Y13.9470 F60.00
G01 X19.3954 Y13.9164 F60.00
G01 X19.3833 Y13.8851 F60.00
G01 X19.3337 Y13.7465 F60.00
G01 X19.3232 Y13.7147 F60.00
G01 X19.3143 Y13.6824 F60.00
G01 X19.2785 Y13.5396 F60.00
G01 X19.2712 Y13.5069 F60.00
G01 X19.2654 Y13.4739 F60.00
G01 X19.2438 Y13.3282 F60.00
G01 X19.2397 Y13.2950 F60.00
G01 X19.2373 Y13.2616 F60.00
G01 X19.2300 Y13.1145 F60.00
G01 X19.2292 Y13.0810 F60.00
G01 X19.2300 Y13.0475 F60.00
G01 X19.2373 Y12.9004 F60.00
G01 X19.2397 Y12.8670 F60.00
G01 X19.2438 Y12.8338 F60.00
G01 X19.2654 Y12.6881 F60.00
G01 X19.2712 Y12.6551 F60.00
G01 X19.2785 Y12.6224 F60.00
G01 X19.3143 Y12.4796 F60.00
G01 X19.3232 Y12.4473 F60.00
G01 X19.3337 Y12.4155 F60.00
G01 X19.3833 Y12.2769 F60.00
G01 X19.3954 Y12.2456 F60.00
G01 X19.4090 Y12.2150 F60.00
G01 X19.4719 Y12.0819 F60.00
G01 X19.4870 Y12.0519 F60.00
G01 X19.5035 Y12.0228 F60.00
G01 X19.5792 Y11.8965 F60.00
G01 X19.5971 Y11.8682 F60.00
G01 X19.6164 Y11.8408 F60.00
G01 X19.7143 Y11.7092 F60.00
G01 X19.7247 Y11.6961 F60.00
G01 X19.7466 Y11.6708 F60.00
G01 X19.8455 Y11.5616 F60.00
G01 X19.8686 Y11.5374 F60.00
G01 X19.8928 Y11.5143 F60.00
G01 X20.0020 Y11.4154 F60.00
G01 X20.0273 Y11.3935 F60.00
G01 X20.0537 Y11.3729 F60.00
G01 X20.1720 Y11.2852 F60.00
G01 X20.1994 Y11.2659 F60.00
G01 X20.2277 Y11.2480 F60.00
G01 X20.3540 Y11.1723 F60.00
G01 X20.3831 Y11.1558 F60.00
G01 X20.4131 Y11.1407 F60.00
G01 X20.5462 Y11.0778 F60.00
G01 X20.5768 Y11.0642 F60.00
G01 X20.6081 Y11.0521 F60.00
G01 X20.7467 Y11.0025 F60.00
G01 X20.7785 Y10.9920 F60.00
G01 X20.8108 Y10.9831 F60.00
G01 X20.9536 Y10.9473 F60.00
G01 X20.9863 Y10.9400 F60.00
G01 X21.0193 Y10.9342 F60.00
G01 X21.1650 Y10.9126 F60.00
G01 X21.1982 Y10.9085 F60.00
G01 X21.2316 Y10.9061 F60.00
G01 X21.3787 Y10.8988 F60.00
G01 X21.4122 Y10.8980 F60.00
G01 X25.2730 Y10.8980 F60.00
G01 X25.3065 Y10.8988 F60.00
G01 X25.4536 Y10.9061 F60.00
G01 X25.4870 Y10.9085 F60.00
G01 X25.5202 Y10.9126 F60.00
G01 X25.6659 Y10.9342 F60.00
G01 X25.6989 Y10.9400 F60.00
G01 X25.7316 Y10.9473 F60.00
G01 X25.8744 Y10.9831 F60.00
G01 X25.9067 Y10.9920 F60.00
G01 X25.9385 Y11.0025 F60.00
G01 X26.0771 Y11.0521 F60.00
G01 X26.1084 Y11.0642 F60.00
G01 X26.1390 Y11.0778 F60.00
G01 X26.2721 Y11.1407 F60.00
G01 X26.3021 Y11.1558 F60.00
G01 X26.3167 Y11.1639 F60.00
G01 X26.4575 Y11.2480 F60.00
G01 X26.4858 Y11.2659 F60.00
G01 X26.5132 Y11.2852 F60.00
G01 X26.6315 Y11.3729 F60.00
G01 X26.6579 Y11.3935 F60.00
G01 X26.6707 Y11.4043 F60.00
G01 X26.8046 Y11.5257 F60.00
G01 X27.1932 Y11.9140 F60.00
G01 X28.8798 Y11.9140 F60.00
G01 X28.9133 Y11.9148 F60.00
G01 X29.0604 Y11.9221 F60.00
G01 X29.0771 Y11.9231 F60.00
G01 X29.1104 Y11.9264 F60.00
G01 X29.2727 Y11.9502 F60.00
G01 X29.3057 Y11.9560 F60.00
G01 X29.3221 Y11.9594 F60.00
G01 X29.4974 Y12.0034 F60.00
G01 X29.5135 Y12.0080 F60.00
G01 X29.5453 Y12.0185 F60.00
G01 X29.6996 Y12.0740 F60.00
G01 X29.7152 Y12.0802 F60.00
G01 X29.7458 Y12.0938 F60.00
G01 X29.8789 Y12.1567 F60.00
G01 X29.9089 Y12.1718 F60.00
G01 X29.9380 Y12.1883 F60.00
G01 X30.0288 Y12.2427 F60.00
G01 X30.0374 Y12.2094 F60.00
G01 X30.0471 Y12.1774 F60.00
G01 X30.1080 Y12.0072 F60.00
G01 X30.1208 Y11.9762 F60.00
G01 X30.1278 Y11.9610 F60.00
G01 X30.1907 Y11.8279 F60.00
G01 X30.2058 Y11.7979 F60.00
G01 X30.2223 Y11.7688 F60.00
G01 X30.2980 Y11.6425 F60.00
G01 X30.3159 Y11.6142 F60.00
G01 X30.3352 Y11.5868 F60.00
G01 X30.4229 Y11.4685 F60.00
G01 X30.4435 Y11.4421 F60.00
G01 X30.4654 Y11.4168 F60.00
G01 X30.5643 Y11.3076 F60.00
G01 X30.5874 Y11.2834 F60.00
G01 X33.5204 Y8.3507 F60.00
G01 X33.6418 Y8.2404 F60.00
G01 X33.6671 Y8.2185 F60.00
G01 X33.6935 Y8.1979 F60.00
G01 X33.8118 Y8.1102 F60.00
G01 X33.8392 Y8.0909 F60.00
G01 X33.8675 Y8.0730 F60.00
G01 X33.9938 Y7.9973 F60.00
G01 X34.0229 Y7.9808 F60.00
G01 X34.0529 Y7.9657 F60.00
G01 X34.1860 Y7.9028 F60.00
G01 X34.2012 Y7.8958 F60.00
G01 X34.2322 Y7.8830 F60.00
G01 X34.3865 Y7.8275 F60.00
G01 X34.4183 Y7.8170 F60.00
G01 X34.4506 Y7.8081 F60.00
G01 X34.5934 Y7.7723 F60.00
G01 X34.6261 Y7.7650 F60.00
G01 X34.6426 Y7.7619 F60.00
G01 X34.8214 Y7.7354 F60.00
G01 X34.8380 Y7.7335 F60.00
G01 X34.8699 Y7.7312 F60.00
G01 X33.9701 Y6.8313 F60.00
G01 X33.9473 Y6.8096 F60.00
G01 X31.4807 Y4.3420 F60.00
G01 X27.1932 Y4.3420 F60.00
G01 X26.7912 Y4.7440 F60.00
G01 X26.7670 Y4.7671 F60.00
G01 X26.6453 Y4.8771 F60.00
G01 X26.6325 Y4.8879 F60.00
G01 X26.6061 Y4.9085 F60.00
G01 X26.4878 Y4.9962 F60.00
G01 X26.4604 Y5.0155 F60.00
G01 X26.4321 Y5.0334 F60.00
G01 X26.3058 Y5.1091 F60.00
G01 X26.2767 Y5.1256 F60.00
G01 X26.2467 Y5.1407 F60.00
G01 X26.1136 Y5.2036 F60.00
G01 X26.0830 Y5.2172 F60.00
G01 X26.0517 Y5.2293 F60.00
G01 X25.9131 Y5.2789 F60.00
G01 X25.8813 Y5.2894 F60.00
G01 X25.8490 Y5.2983 F60.00
G01 X25.7062 Y5.3341 F60.00
G01 X25.6735 Y5.3414 F60.00
G01 X25.6405 Y5.3472 F60.00
G01 X25.4948 Y5.3688 F60.00
G01 X25.4616 Y5.3729 F60.00
G01 X25.4449 Y5.3743 F60.00
G01 X25.2643 Y5.3832 F60.00
G01 X21.4122 Y5.3834 F60.00
G01 X21.3787 Y5.3826 F60.00
G01 X21.2316 Y5.3753 F60.00
G01 X21.1982 Y5.3729 F60.00
G01 X21.1650 Y5.3688 F60.00
G01 X21.0193 Y5.3472 F60.00
G01 X20.9863 Y5.3414 F60.00
G01 X20.9536 Y5.3341 F60.00
G01 X20.8108 Y5.2983 F60.00
G01 X20.7785 Y5.2894 F60.00
G01 X20.7467 Y5.2789 F60.00
G01 X20.6081 Y5.2293 F60.00
G01 X20.5768 Y5.2172 F60.00
G01 X20.5462 Y5.2036 F60.00
G01 X20.4131 Y5.1407 F60.00
G01 X20.3831 Y5.1256 F60.00
G01 X20.3540 Y5.1091 F60.00
G01 X20.2277 Y5.0334 F60.00
G01 X20.1994 Y5.0155 F60.00
G01 X20.1720 Y4.9962 F60.00
G01 X20.0537 Y4.9085 F60.00
G01 X20.0273 Y4.8879 F60.00
G01 X20.0020 Y4.8660 F60.00
G01 X19.8928 Y4.7671 F60.00
G01 X19.8686 Y4.7440 F60.00
G01 X19.8455 Y4.7198 F60.00
G01 X19.7466 Y4.6106 F60.00
G01 X19.7355 Y4.5981 F60.00
G01 X19.7143 Y4.5722 F60.00
G01 X19.6164 Y4.4406 F60.00
G01 X19.5971 Y4.4132 F60.00
G01 X19.5792 Y4.3849 F60.00
G01 X19.5035 Y4.2586 F60.00
G01 X19.4870 Y4.2295 F60.00
G01 X19.4719 Y4.1995 F60.00
G01 X19.4090 Y4.0664 F60.00
G01 X19.3954 Y4.0358 F60.00
G01 X19.3833 Y4.0045 F60.00
G01 X19.3337 Y3.8659 F60.00
G01 X19.3232 Y3.8341 F60.00
G01 X19.3143 Y3.8018 F60.00
G01 X19.2785 Y3.6590 F60.00
G01 X19.2712 Y3.6263 F60.00
G01 X19.2654 Y3.5933 F60.00
G01 X19.2438 Y3.4476 F60.00
G01 X19.2397 Y3.4144 F60.00
G01 X19.2373 Y3.3810 F60.00
G01 X19.2300 Y3.2339 F60.00
G01 X19.2292 Y3.2004 F60.00
G01 X19.2300 Y3.1669 F60.00
G01 X19.2373 Y3.0198 F60.00
G01 X19.2397 Y2.9864 F60.00
G01 X19.2438 Y2.9532 F60.00
G01 X19.2654 Y2.8075 F60.00
G01 X19.2712 Y2.7745 F60.00
G01 X19.2785 Y2.7418 F60.00
G01 X19.3143 Y2.5990 F60.00
G01 X19.3232 Y2.5667 F60.00
G01 X19.3337 Y2.5349 F60.00
G01 X19.3833 Y2.3963 F60.00
G01 X19.3954 Y2.3650 F60.00
G01 X19.4090 Y2.3344 F60.00
G01 X19.4719 Y2.2013 F60.00
G01 X19.4870 Y2.1713 F60.00
G01 X19.5035 Y2.1422 F60.00
G01 X19.5792 Y2.0159 F60.00
G01 X19.5971 Y1.9876 F60.00
G01 X19.6164 Y1.9602 F60.00
G01 X19.7041 Y1.8419 F60.00
G01 X19.7247 Y1.8155 F60.00
G01 X19.7466 Y1.7902 F60.00
G01 X19.8455 Y1.6810 F60.00
G01 X19.8686 Y1.6568 F60.00
G01 X19.8928 Y1.6337 F60.00
G01 X20.0020 Y1.5348 F60.00
G01 X20.0145 Y1.5237 F60.00
G01 X20.0404 Y1.5025 F60.00
G01 X20.1856 Y1.3948 F60.00
G01 X20.2134 Y1.3762 F60.00
G01 X20.2277 Y1.3674 F60.00
G01 X20.3540 Y1.2917 F60.00
G01 X20.3831 Y1.2752 F60.00
G01 X20.4131 Y1.2601 F60.00
G01 X20.5462 Y1.1972 F60.00
G01 X20.5768 Y1.1836 F60.00
G01 X20.6081 Y1.1715 F60.00
G01 X20.7467 Y1.1219 F60.00
G01 X20.7785 Y1.1114 F60.00
G01 X20.8108 Y1.1025 F60.00
G01 X20.9536 Y1.0667 F60.00
G01 X20.9863 Y1.0594 F60.00
G01 X21.0193 Y1.0536 F60.00
G01 X21.1650 Y1.0320 F60.00
G01 X21.1982 Y1.0279 F60.00
G01 X21.2316 Y1.0255 F60.00
G01 X21.3787 Y1.0182 F60.00
G01 X21.4122 Y1.0174 F60.00
G01 X24.3434 Y1.0174 F60.00
G01 X24.5515 Y0.8093 F60.00
G01 X14.9988 Y0.8093 F60.00
G01 X15.0800 Y0.9188 F60.00
G01 X15.0993 Y0.9462 F60.00
G01 X15.1172 Y0.9745 F60.00
G01 X15.1929 Y1.1008 F60.00
G01 X15.2094 Y1.1299 F60.00
G01 X15.2245 Y1.1599 F60.00
G01 X15.2874 Y1.2930 F60.00
G01 X15.3010 Y1.3236 F60.00
G01 X15.3131 Y1.3549 F60.00
G01 X15.3627 Y1.4935 F60.00
G01 X15.3732 Y1.5253 F60.00
G01 X15.3821 Y1.5576 F60.00
G01 X15.4179 Y1.7004 F60.00
G01 X15.4252 Y1.7331 F60.00
G01 X15.4310 Y1.7661 F60.00
G01 X15.4526 Y1.9118 F60.00
G01 X15.4567 Y1.9450 F60.00
G01 X15.4591 Y1.9784 F60.00
G01 X15.4664 Y2.1255 F60.00
G01 X15.4672 Y2.1590 F60.00
G01 X15.4664 Y2.1925 F60.00
G01 X15.4591 Y2.3396 F60.00
G01 X15.4567 Y2.3730 F60.00
G01 X15.4526 Y2.4062 F60.00
G01 X15.4310 Y2.5519 F60.00
G01 X15.4252 Y2.5849 F60.00
G01 X15.4179 Y2.6176 F60.00
G01 X15.3821 Y2.7604 F60.00
G01 X15.3732 Y2.7927 F60.00
G01 X15.3681 Y2.8086 F60.00
G01 X15.3072 Y2.9788 F60.00
G01 X15.3010 Y2.9944 F60.00
G01 X15.2874 Y3.0250 F60.00
G01 X15.2245 Y3.1581 F60.00
G01 X15.2094 Y3.1881 F60.00
G01 X15.1929 Y3.2172 F60.00
G01 X15.1172 Y3.3435 F60.00
G01 X15.0993 Y3.3718 F60.00
G01 X15.0800 Y3.3992 F60.00
G01 X14.9923 Y3.5175 F60.00
G01 X14.9717 Y3.5439 F60.00
G01 X14.9498 Y3.5692 F60.00
G01 X14.8509 Y3.6784 F60.00
G01 X14.8278 Y3.7026 F60.00
G01 X13.7744 Y4.7557 F60.00
G01 X13.6530 Y4.8660 F60.00
G01 X13.6277 Y4.8879 F60.00
G01 X13.6146 Y4.8983 F60.00
G01 X13.4694 Y5.0060 F60.00
G01 X13.4416 Y5.0246 F60.00
G01 X13.4273 Y5.0334 F60.00
G01 X13.3010 Y5.1091 F60.00
G01 X13.2719 Y5.1256 F60.00
G01 X13.2419 Y5.1407 F60.00
G01 X13.1088 Y5.2036 F60.00
G01 X13.0782 Y5.2172 F60.00
G01 X13.0469 Y5.2293 F60.00
G01 X12.9083 Y5.2789 F60.00
G01 X12.8765 Y5.2894 F60.00
G01 X12.8442 Y5.2983 F60.00
G01 X12.7014 Y5.3341 F60.00
G01 X12.6687 Y5.3414 F60.00
G01 X12.6357 Y5.3472 F60.00
G01 X12.4900 Y5.3688 F60.00
G01 X12.4568 Y5.3729 F60.00
G01 X12.4234 Y5.3753 F60.00
G01 X12.2595 Y5.3832 F60.00
G01 X12.2261 Y5.3832 F60.00
G01 X12.2093 Y5.3826 F60.00
G01 X12.0622 Y5.3753 F60.00
G01 X12.0288 Y5.3729 F60.00
G01 X11.9956 Y5.3688 F60.00
G01 X11.8364 Y5.3450 F60.00
G01 X11.6772 Y5.3688 F60.00
G01 X11.6440 Y5.3729 F60.00
G01 X11.6106 Y5.3753 F60.00
G01 X11.4635 Y5.3826 F60.00
G01 X11.4300 Y5.3834 F60.00
G01 X8.4923 Y5.3832 F60.00
G01 X8.3284 Y5.3753 F60.00
G01 X8.2950 Y5.3729 F60.00
G01 X8.2618 Y5.3688 F60.00
G01 X8.1161 Y5.3472 F60.00
G01 X8.0831 Y5.3414 F60.00
G01 X8.0504 Y5.3341 F60.00
G01 X7.9076 Y5.2983 F60.00
G01 X7.8753 Y5.2894 F60.00
G01 X7.8435 Y5.2789 F60.00
G01 X7.7097 Y5.2310 F60.00
G00 Z3.0000
G00 X7.6764 Y5.4229
G01 F60.00
G01 Z-0.0980
G01 F60.00
G01 X5.4610 Y5.4229 F60.00
G01 X5.4395 Y5.4226 F60.00
G01 X5.2710 Y5.4146 F60.00
G01 X5.2496 Y5.4133 F60.00
G01 X5.2282 Y5.4114 F60.00
G01 X5.2069 Y5.4091 F60.00
G01 X5.1856 Y5.4062 F60.00
G01 X5.0400 Y5.3846 F60.00
G01 X5.0188 Y5.3812 F60.00
G01 X4.9977 Y5.3772 F60.00
G01 X4.9767 Y5.3728 F60.00
G01 X4.8130 Y5.3320 F60.00
G01 X4.7922 Y5.3266 F60.00
G01 X4.7716 Y5.3206 F60.00
G01 X4.7512 Y5.3141 F60.00
G01 X4.7309 Y5.3071 F60.00
G01 X4.5922 Y5.2575 F60.00
G01 X4.5721 Y5.2501 F60.00
G01 X4.5522 Y5.2421 F60.00
G01 X4.5325 Y5.2336 F60.00
G01 X4.5130 Y5.2247 F60.00
G01 X4.3798 Y5.1617 F60.00
G01 X4.3605 Y5.1523 F60.00
G01 X4.3415 Y5.1424 F60.00
G01 X4.3227 Y5.1321 F60.00
G01 X4.3042 Y5.1213 F60.00
G01 X4.1778 Y5.0456 F60.00
G01 X4.1596 Y5.0343 F60.00
G01 X4.1416 Y5.0226 F60.00
G01 X4.1239 Y5.0105 F60.00
G01 X4.1065 Y4.9979 F60.00
G01 X3.9712 Y4.8972 F60.00
G01 X3.9544 Y4.8838 F60.00
G01 X3.9380 Y4.8700 F60.00
G01 X3.9219 Y4.8558 F60.00
G01 X3.8128 Y4.7569 F60.00
G01 X3.7971 Y4.7423 F60.00
G01 X3.7817 Y4.7273 F60.00
G01 X3.7667 Y4.7119 F60.00
G01 X3.6532 Y4.5871 F60.00
G01 X3.6390 Y4.5710 F60.00
G01 X3.6252 Y4.5546 F60.00
G01 X3.6118 Y4.5378 F60.00
G01 X3.5111 Y4.4025 F60.00
G01 X3.4985 Y4.3851 F60.00
G01 X3.4864 Y4.3674 F60.00
G01 X3.4747 Y4.3494 F60.00
G01 X3.4634 Y4.3312 F60.00
G01 X3.3877 Y4.2048 F60.00
G01 X3.3769 Y4.1863 F60.00
G01 X3.3666 Y4.1675 F60.00
G01 X3.3567 Y4.1485 F60.00
G01 X3.2843 Y3.9960 F60.00
G01 X3.2754 Y3.9765 F60.00
G01 X3.2669 Y3.9568 F60.00
G01 X3.2589 Y3.9369 F60.00
G01 X3.2019 Y3.7781 F60.00
G01 X3.1949 Y3.7578 F60.00
G01 X3.1884 Y3.7374 F60.00
G01 X3.1824 Y3.7168 F60.00
G01 X3.1770 Y3.6960 F60.00
G01 X3.1362 Y3.5323 F60.00
G01 X3.1318 Y3.5113 F60.00
G01 X3.1278 Y3.4902 F60.00
G01 X3.1244 Y3.4690 F60.00
G01 X3.1028 Y3.3234 F60.00
G01 X3.0999 Y3.3021 F60.00
G01 X3.0976 Y3.2808 F60.00
G01 X3.0957 Y3.2594 F60.00
G01 X3.0944 Y3.2380 F60.00
G01 X3.0872 Y3.0909 F60.00
G01 X3.0864 Y3.0695 F60.00
G01 X3.0861 Y3.0480 F60.00
G01 X3.0864 Y3.0265 F60.00
G01 X3.0872 Y3.0051 F60.00
G01 X3.0957 Y2.8366 F60.00
G01 X3.0976 Y2.8152 F60.00
G01 X3.0999 Y2.7939 F60.00
G01 X3.1028 Y2.7726 F60.00
G01 X3.1278 Y2.6058 F60.00
G01 X3.1318 Y2.5847 F60.00
G01 X3.1362 Y2.5637 F60.00
G01 X3.1412 Y2.5428 F60.00
G01 X3.1770 Y2.4000 F60.00
G01 X3.1824 Y2.3792 F60.00
G01 X3.1884 Y2.3586 F60.00
G01 X3.1949 Y2.3382 F60.00
G01 X3.2019 Y2.3179 F60.00
G01 X3.2515 Y2.1792 F60.00
G01 X3.2589 Y2.1591 F60.00
G01 X3.2669 Y2.1392 F60.00
G01 X3.2754 Y2.1195 F60.00
G01 X3.2843 Y2.1000 F60.00
G01 X3.3473 Y1.9668 F60.00
G01 X3.3567 Y1.9475 F60.00
G01 X3.3666 Y1.9285 F60.00
G01 X3.3769 Y1.9097 F60.00
G01 X3.3877 Y1.8912 F60.00
G01 X3.4634 Y1.7648 F60.00
G01 X3.4747 Y1.7466 F60.00
G01 X3.4864 Y1.7286 F60.00
G01 X3.4985 Y1.7109 F60.00
G01 X3.5988 Y1.5752 F60.00
G01 X3.6118 Y1.5582 F60.00
G01 X3.6252 Y1.5414 F60.00
G01 X3.6390 Y1.5250 F60.00
G01 X3.6532 Y1.5089 F60.00
G01 X3.7521 Y1.3998 F60.00
G01 X3.7667 Y1.3841 F60.00
G01 X3.7817 Y1.3687 F60.00
G01 X3.7971 Y1.3537 F60.00
G01 X3.9219 Y1.2402 F60.00
G01 X3.9380 Y1.2260 F60.00
G01 X3.9544 Y1.2122 F60.00
G01 X3.9712 Y1.1988 F60.00
G01 X4.1065 Y1.0981 F60.00
G01 X4.1239 Y1.0855 F60.00
G01 X4.1416 Y1.0734 F60.00
G01 X4.1596 Y1.0617 F60.00
G01 X4.1778 Y1.0504 F60.00
G01 X4.2600 Y1.0012 F60.00
G01 X1.0012 Y1.0012 F60.00
G01 X1.0012 Y15.6358 F60.00
G01 X10.6380 Y15.6358 F60.00
G01 X10.6240 Y15.6200 F60.00
G01 X10.6102 Y15.6036 F60.00
G01 X10.5968 Y15.5868 F60.00
G01 X10.4961 Y15.4515 F60.00
G01 X10.4810 Y15.4305 F60.00
G01 X5.4610 Y15.4305 F60.00
G01 X5.4395 Y15.4302 F60.00
G01 X5.2710 Y15.4222 F60.00
G01 X5.2496 Y15.4209 F60.00
G01 X5.2282 Y15.4190 F60.00
G01 X5.2069 Y15.4167 F60.00
G01 X5.1856 Y15.4138 F60.00
G01 X5.0400 Y15.3922 F60.00
G01 X5.0188 Y15.3888 F60.00
G01 X4.9977 Y15.3848 F60.00
G01 X4.9767 Y15.3804 F60.00
G01 X4.9558 Y15.3754 F60.00
G01 X4.8130 Y15.3396 F60.00
G01 X4.7922 Y15.3342 F60.00
G01 X4.7716 Y15.3282 F60.00
G01 X4.7512 Y15.3217 F60.00
G01 X4.7309 Y15.3147 F60.00
G01 X4.5721 Y15.2577 F60.00
G01 X4.5522 Y15.2497 F60.00
G01 X4.5325 Y15.2412 F60.00
G01 X4.5130 Y15.2323 F60.00
G01 X4.3605 Y15.1599 F60.00
G01 X4.3415 Y15.1500 F60.00
G01 X4.3227 Y15.1397 F60.00
G01 X4.3042 Y15.1289 F60.00
G01 X4.1778 Y15.0532 F60.00
G01 X4.1596 Y15.0419 F60.00
G01 X4.1416 Y15.0302 F60.00
G01 X4.1239 Y15.0181 F60.00
G01 X4.1065 Y15.0055 F60.00
G01 X3.9712 Y14.9048 F60.00
G01 X3.9544 Y14.8914 F60.00
G01 X3.9380 Y14.8776 F60.00
G01 X3.9219 Y14.8634 F60.00
G01 X3.8128 Y14.7645 F60.00
G01 X3.7971 Y14.7499 F60.00
G01 X3.7817 Y14.7349 F60.00
G01 X3.7667 Y14.7195 F60.00
G01 X3.7521 Y14.7038 F60.00
G01 X3.6532 Y14.5947 F60.00
G01 X3.6390 Y14.5786 F60.00
G01 X3.6252 Y14.5622 F60.00
G01 X3.6118 Y14.5454 F60.00
G01 X3.5988 Y14.5284 F60.00
G01 X3.5111 Y14.4101 F60.00
G01 X3.4985 Y14.3927 F60.00
G01 X3.4864 Y14.3750 F60.00
G01 X3.4747 Y14.3570 F60.00
G01 X3.4634 Y14.3388 F60.00
G01 X3.3769 Y14.1939 F60.00
G01 X3.3666 Y14.1751 F60.00
G01 X3.3567 Y14.1561 F60.00
G01 X3.3473 Y14.1368 F60.00
G01 X3.2754 Y13.9841 F60.00
G01 X3.2669 Y13.9644 F60.00
G01 X3.2589 Y13.9445 F60.00
G01 X3.2515 Y13.9244 F60.00
G01 X3.2019 Y13.7857 F60.00
G01 X3.1949 Y13.7654 F60.00
G01 X3.1884 Y13.7450 F60.00
G01 X3.1824 Y13.7244 F60.00
G01 X3.1770 Y13.7036 F60.00
G01 X3.1412 Y13.5608 F60.00
G01 X3.1362 Y13.5399 F60.00
G01 X3.1318 Y13.5189 F60.00
G01 X3.1278 Y13.4978 F60.00
G01 X3.1028 Y13.3310 F60.00
G01 X3.0999 Y13.3097 F60.00
G01 X3.0976 Y13.2884 F60.00
G01 X3.0957 Y13.2670 F60.00
G01 X3.0944 Y13.2456 F60.00
G01 X3.0872 Y13.0985 F60.00
G01 X3.0864 Y13.0771 F60.00
G01 X3.0861 Y13.0556 F60.00
G01 X3.0864 Y13.0341 F60.00
G01 X3.0872 Y13.0127 F60.00
G01 X3.0944 Y12.8656 F60.00
G01 X3.0957 Y12.8442 F60.00
G01 X3.0976 Y12.8228 F60.00
G01 X3.0999 Y12.8015 F60.00
G01 X3.1028 Y12.7802 F60.00
G01 X3.1244 Y12.6346 F60.00
G01 X3.1278 Y12.6134 F60.00
G01 X3.1318 Y12.5923 F60.00
G01 X3.1362 Y12.5713 F60.00
G01 X3.1412 Y12.5504 F60.00
G01 X3.1770 Y12.4076 F60.00
G01 X3.1824 Y12.3868 F60.00
G01 X3.1884 Y12.3662 F60.00
G01 X3.1949 Y12.3458 F60.00
G01 X3.2515 Y12.1868 F60.00
G01 X3.2589 Y12.1667 F60.00
G01 X3.2669 Y12.1468 F60.00
G01 X3.2754 Y12.1271 F60.00
G01 X3.2843 Y12.1076 F60.00
G01 X3.3567 Y11.9551 F60.00
G01 X3.3666 Y11.9361 F60.00
G01 X3.3769 Y11.9173 F60.00
G01 X3.3877 Y11.8988 F60.00
G01 X3.4634 Y11.7724 F60.00
G01 X3.4747 Y11.7542 F60.00
G01 X3.4864 Y11.7362 F60.00
G01 X3.4985 Y11.7185 F60.00
G01 X3.5111 Y11.7011 F60.00
G01 X3.5988 Y11.5828 F60.00
G01 X3.6118 Y11.5658 F60.00
G01 X3.6252 Y11.5490 F60.00
G01 X3.6390 Y11.5326 F60.00
G01 X3.6532 Y11.5165 F60.00
G01 X3.7667 Y11.3917 F60.00
G01 X3.7817 Y11.3763 F60.00
G01 X3.7971 Y11.3613 F60.00
G01 X3.8128 Y11.3467 F60.00
G01 X3.9219 Y11.2478 F60.00
G01 X3.9380 Y11.2336 F60.00
G01 X3.9544 Y11.2198 F60.00
G01 X3.9712 Y11.2064 F60.00
G01 X3.9882 Y11.1934 F60.00
G01 X4.1065 Y11.1057 F60.00
G01 X4.1239 Y11.0931 F60.00
G01 X4.1416 Y11.0810 F60.00
G01 X4.1596 Y11.0693 F60.00
G01 X4.1778 Y11.0580 F60.00
G01 X4.3042 Y10.9823 F60.00
G01 X4.3227 Y10.9715 F60.00
G01 X4.3415 Y10.9612 F60.00
G01 X4.3605 Y10.9513 F60.00
G01 X4.3798 Y10.9419 F60.00
G01 X4.5130 Y10.8789 F60.00
G01 X4.5325 Y10.8700 F60.00
G01 X4.5522 Y10.8615 F60.00
G01 X4.5721 Y10.8535 F60.00
G01 X4.5922 Y10.8461 F60.00
G01 X4.7309 Y10.7965 F60.00
G01 X4.7512 Y10.7895 F60.00
G01 X4.7716 Y10.7830 F60.00
G01 X4.7922 Y10.7770 F60.00
G01 X4.8130 Y10.7716 F60.00
G01 X4.9767 Y10.7308 F60.00
G01 X4.9977 Y10.7264 F60.00
G01 X5.0188 Y10.7224 F60.00
G01 X5.0400 Y10.7190 F60.00
G01 X5.1856 Y10.6974 F60.00
G01 X5.2069 Y10.6945 F60.00
G01 X5.2282 Y10.6922 F60.00
G01 X5.2496 Y10.6903 F60.00
G01 X5.2710 Y10.6890 F60.00
G01 X5.4181 Y10.6818 F60.00
G01 X5.4395 Y10.6810 F60.00
G01 X5.4610 Y10.6807 F60.00
G01 X11.3792 Y10.6807 F60.00
G01 X11.4007 Y10.6810 F60.00
G01 X11.4221 Y10.6818 F60.00
G01 X11.5692 Y10.6890 F60.00
G01 X11.5906 Y10.6903 F60.00
G01 X11.6120 Y10.6922 F60.00
G01 X11.6333 Y10.6945 F60.00
G01 X11.6546 Y10.6974 F60.00
G01 X11.8002 Y10.7190 F60.00
G01 X11.8214 Y10.7224 F60.00
G01 X11.8425 Y10.7264 F60.00
G01 X11.8635 Y10.7308 F60.00
G01 X11.8844 Y10.7358 F60.00
G01 X12.0272 Y10.7716 F60.00
G01 X12.0480 Y10.7770 F60.00
G01 X12.0686 Y10.7830 F60.00
G01 X12.0890 Y10.7895 F60.00
G01 X12.1093 Y10.7965 F60.00
G01 X12.2480 Y10.8461 F60.00
G01 X12.2681 Y10.8535 F60.00
G01 X12.2880 Y10.8615 F60.00
G01 X12.3077 Y10.8700 F60.00
G01 X12.3272 Y10.8789 F60.00
G01 X12.4797 Y10.9513 F60.00
G01 X12.4987 Y10.9612 F60.00
G01 X12.5175 Y10.9715 F60.00
G01 X12.5360 Y10.9823 F60.00
G01 X12.6624 Y11.0580 F60.00
G01 X12.6806 Y11.0693 F60.00
G01 X12.6986 Y11.0810 F60.00
G01 X12.7163 Y11.0931 F60.00
G01 X12.7337 Y11.1057 F60.00
G01 X12.8520 Y11.1934 F60.00
G01 X12.8690 Y11.2064 F60.00
G01 X12.8858 Y11.2198 F60.00
G01 X12.9022 Y11.2336 F60.00
G01 X12.9183 Y11.2478 F60.00
G01 X13.0274 Y11.3467 F60.00
G01 X13.0431 Y11.3613 F60.00
G01 X13.0585 Y11.3763 F60.00
G01 X13.0735 Y11.3917 F60.00
G01 X13.0881 Y11.4074 F60.00
G01 X13.1870 Y11.5165 F60.00
G01 X13.2012 Y11.5326 F60.00
G01 X13.2150 Y11.5490 F60.00
G01 X13.2284 Y11.5658 F60.00
G01 X13.3291 Y11.7011 F60.00
G01 X13.3455 Y11.7241 F60.00
G01 X13.4742 Y11.7304 F60.00
G01 X13.4956 Y11.7317 F60.00
G01 X13.5170 Y11.7336 F60.00
G01 X13.5383 Y11.7359 F60.00
G01 X13.5596 Y11.7388 F60.00
G01 X13.7052 Y11.7604 F60.00
G01 X13.7264 Y11.7638 F60.00
G01 X13.7475 Y11.7678 F60.00
G01 X13.7685 Y11.7722 F60.00
G01 X13.9322 Y11.8130 F60.00
G01 X13.9530 Y11.8184 F60.00
G01 X13.9736 Y11.8244 F60.00
G01 X13.9940 Y11.8309 F60.00
G01 X14.1530 Y11.8875 F60.00
G01 X14.1731 Y11.8949 F60.00
G01 X14.1930 Y11.9029 F60.00
G01 X14.2127 Y11.9114 F60.00
G01 X14.2322 Y11.9203 F60.00
G01 X14.3847 Y11.9927 F60.00
G01 X14.4037 Y12.0026 F60.00
G01 X14.4225 Y12.0129 F60.00
G01 X14.4410 Y12.0237 F60.00
G01 X14.5674 Y12.0994 F60.00
G01 X14.5856 Y12.1107 F60.00
G01 X14.6036 Y12.1224 F60.00
G01 X14.6213 Y12.1345 F60.00
G01 X14.6387 Y12.1471 F60.00
G01 X14.7570 Y12.2348 F60.00
G01 X14.7740 Y12.2478 F60.00
G01 X14.7908 Y12.2612 F60.00
G01 X14.8072 Y12.2750 F60.00
G01 X14.8233 Y12.2892 F60.00
G01 X14.9324 Y12.3881 F60.00
G01 X14.9481 Y12.4027 F60.00
G01 X14.9635 Y12.4177 F60.00
G01 X14.9785 Y12.4331 F60.00
G01 X14.9931 Y12.4488 F60.00
G01 X15.0920 Y12.5579 F60.00
G01 X15.1062 Y12.5740 F60.00
G01 X15.1200 Y12.5904 F60.00
G01 X15.1334 Y12.6072 F60.00
G01 X15.1464 Y12.6242 F60.00
G01 X15.2341 Y12.7425 F60.00
G01 X15.2467 Y12.7599 F60.00
G01 X15.2588 Y12.7776 F60.00
G01 X15.2705 Y12.7956 F60.00
G01 X15.2818 Y12.8138 F60.00
G01 X15.3575 Y12.9402 F60.00
G01 X15.3683 Y12.9587 F60.00
G01 X15.3786 Y12.9775 F60.00
G01 X15.3885 Y12.9965 F60.00
G01 X15.3979 Y13.0158 F60.00
G01 X15.4609 Y13.1490 F60.00
G01 X15.4698 Y13.1685 F60.00
G01 X15.4783 Y13.1882 F60.00
G01 X15.4863 Y13.2081 F60.00
G01 X15.4937 Y13.2282 F60.00
G01 X15.5503 Y13.3872 F60.00
G01 X15.5568 Y13.4076 F60.00
G01 X15.5628 Y13.4282 F60.00
G01 X15.5682 Y13.4490 F60.00
G01 X15.6040 Y13.5918 F60.00
G01 X15.6090 Y13.6127 F60.00
G01 X15.6134 Y13.6337 F60.00
G01 X15.6174 Y13.6548 F60.00
G01 X15.6208 Y13.6760 F60.00
G01 X15.6424 Y13.8216 F60.00
G01 X15.6453 Y13.8429 F60.00
G01 X15.6476 Y13.8642 F60.00
G01 X15.6495 Y13.8856 F60.00
G01 X15.6580 Y14.0541 F60.00
G01 X15.6588 Y14.0755 F60.00
G01 X15.6591 Y14.0970 F60.00
G01 X15.6588 Y14.1185 F60.00
G01 X15.6508 Y14.2870 F60.00
G01 X15.6495 Y14.3084 F60.00
G01 X15.6476 Y14.3298 F60.00
G01 X15.6453 Y14.3511 F60.00
G01 X15.6424 Y14.3724 F60.00
G01 X15.6208 Y14.5180 F60.00
G01 X15.6174 Y14.5392 F60.00
G01 X15.6134 Y14.5603 F60.00
G01 X15.6090 Y14.5813 F60.00
G01 X15.6040 Y14.6022 F60.00
G01 X15.5682 Y14.7450 F60.00
G01 X15.5628 Y14.7658 F60.00
G01 X15.5568 Y14.7864 F60.00
G01 X15.5503 Y14.8068 F60.00
G01 X15.5433 Y14.8271 F60.00
G01 X15.4863 Y14.9859 F60.00
G01 X15.4783 Y15.0058 F60.00
G01 X15.4698 Y15.0255 F60.00
G01 X15.4609 Y15.0450 F60.00
G01 X15.3885 Y15.1975 F60.00
G01 X15.3786 Y15.2165 F60.00
G01 X15.3683 Y15.2353 F60.00
G01 X15.3575 Y15.2538 F60.00
G01 X15.2818 Y15.3802 F60.00
G01 X15.2705 Y15.3984 F60.00
G01 X15.2588 Y15.4164 F60.00
G01 X15.2467 Y15.4341 F60.00
G01 X15.2341 Y15.4515 F60.00
G01 X15.1334 Y15.5868 F60.00
G01 X15.1200 Y15.6036 F60.00
G01 X15.1062 Y15.6200 F60.00
G01 X15.0922 Y15.6358 F60.00
G01 X24.4693 Y15.6358 F60.00
G01 X24.2893 Y15.4559 F60.00
G01 X21.4122 Y15.4559 F60.00
G01 X21.3907 Y15.4556 F60.00
G01 X21.3693 Y15.4548 F60.00
G01 X21.2222 Y15.4476 F60.00
G01 X21.2008 Y15.4463 F60.00
G01 X21.1794 Y15.4444 F60.00
G01 X21.1581 Y15.4421 F60.00
G01 X21.1368 Y15.4392 F60.00
G01 X20.9912 Y15.4176 F60.00
G01 X20.9700 Y15.4142 F60.00
G01 X20.9489 Y15.4102 F60.00
G01 X20.9279 Y15.4058 F60.00
G01 X20.9070 Y15.4008 F60.00
G01 X20.7642 Y15.3650 F60.00
G01 X20.7434 Y15.3596 F60.00
G01 X20.7228 Y15.3536 F60.00
G01 X20.7024 Y15.3471 F60.00
G01 X20.6821 Y15.3401 F60.00
G01 X20.5434 Y15.2905 F60.00
G01 X20.5233 Y15.2831 F60.00
G01 X20.5034 Y15.2751 F60.00
G01 X20.4837 Y15.2666 F60.00
G01 X20.4642 Y15.2577 F60.00
G01 X20.3310 Y15.1947 F60.00
G01 X20.3117 Y15.1853 F60.00
G01 X20.2927 Y15.1754 F60.00
G01 X20.2739 Y15.1651 F60.00
G01 X20.2554 Y15.1543 F60.00
G01 X20.1290 Y15.0786 F60.00
G01 X20.1108 Y15.0673 F60.00
G01 X20.0928 Y15.0556 F60.00
G01 X20.0751 Y15.0435 F60.00
G01 X20.0577 Y15.0309 F60.00
G01 X19.9394 Y14.9432 F60.00
G01 X19.9224 Y14.9302 F60.00
G01 X19.9056 Y14.9168 F60.00
G01 X19.8892 Y14.9030 F60.00
G01 X19.8731 Y14.8888 F60.00
G01 X19.7640 Y14.7899 F60.00
G01 X19.7483 Y14.7753 F60.00
G01 X19.7329 Y14.7603 F60.00
G01 X19.7179 Y14.7449 F60.00
G01 X19.7033 Y14.7292 F60.00
G01 X19.6044 Y14.6201 F60.00
G01 X19.5902 Y14.6040 F60.00
G01 X19.5764 Y14.5876 F60.00
G01 X19.5630 Y14.5708 F60.00
G01 X19.5500 Y14.5538 F60.00
G01 X19.4623 Y14.4355 F60.00
G01 X19.4497 Y14.4181 F60.00
G01 X19.4376 Y14.4004 F60.00
G01 X19.4259 Y14.3824 F60.00
G01 X19.4146 Y14.3642 F60.00
G01 X19.3389 Y14.2378 F60.00
G01 X19.3281 Y14.2193 F60.00
G01 X19.3178 Y14.2005 F60.00
G01 X19.3079 Y14.1815 F60.00
G01 X19.2985 Y14.1622 F60.00
G01 X19.2355 Y14.0290 F60.00
G01 X19.2266 Y14.0095 F60.00
G01 X19.2181 Y13.9898 F60.00
G01 X19.2101 Y13.9699 F60.00
G01 X19.2027 Y13.9498 F60.00
G01 X19.1531 Y13.8111 F60.00
G01 X19.1461 Y13.7908 F60.00
G01 X19.1396 Y13.7704 F60.00
G01 X19.1336 Y13.7498 F60.00
G01 X19.1282 Y13.7290 F60.00
G01 X19.0924 Y13.5862 F60.00
G01 X19.0874 Y13.5653 F60.00
G01 X19.0830 Y13.5443 F60.00
G01 X19.0790 Y13.5232 F60.00
G01 X19.0756 Y13.5020 F60.00
G01 X19.0540 Y13.3564 F60.00
G01 X19.0511 Y13.3351 F60.00
G01 X19.0488 Y13.3138 F60.00
G01 X19.0469 Y13.2924 F60.00
G01 X19.0456 Y13.2710 F60.00
G01 X19.0384 Y13.1239 F60.00
G01 X19.0376 Y13.1025 F60.00
G01 X19.0373 Y13.0810 F60.00
G01 X19.0376 Y13.0595 F60.00
G01 X19.0384 Y13.0381 F60.00
G01 X19.0456 Y12.8910 F60.00
G01 X19.0469 Y12.8696 F60.00
G01 X19.0488 Y12.8482 F60.00
G01 X19.0511 Y12.8269 F60.00
G01 X19.0540 Y12.8056 F60.00
G01 X19.0756 Y12.6600 F60.00
G01 X19.0790 Y12.6388 F60.00
G01 X19.0830 Y12.6177 F60.00
G01 X19.0874 Y12.5967 F60.00
G01 X19.0924 Y12.5758 F60.00
G01 X19.1282 Y12.4330 F60.00
G01 X19.1336 Y12.4122 F60.00
G01 X19.1396 Y12.3916 F60.00
G01 X19.1461 Y12.3712 F60.00
G01 X19.1531 Y12.3509 F60.00
G01 X19.2027 Y12.2122 F60.00
G01 X19.2101 Y12.1921 F60.00
G01 X19.2181 Y12.1722 F60.00
G01 X19.2266 Y12.1525 F60.00
G01 X19.2355 Y12.1330 F60.00
G01 X19.2985 Y11.9998 F60.00
G01 X19.3079 Y11.9805 F60.00
G01 X19.3178 Y11.9615 F60.00
G01 X19.3281 Y11.9427 F60.00
G01 X19.3389 Y11.9242 F60.00
G01 X19.4146 Y11.7978 F60.00
G01 X19.4259 Y11.7796 F60.00
G01 X19.4376 Y11.7616 F60.00
G01 X19.4497 Y11.7439 F60.00
G01 X19.4623 Y11.7265 F60.00
G01 X19.5500 Y11.6082 F60.00
G01 X19.5630 Y11.5912 F60.00
G01 X19.5764 Y11.5744 F60.00
G01 X19.5902 Y11.5580 F60.00
G01 X19.6044 Y11.5419 F60.00
G01 X19.7033 Y11.4328 F60.00
G01 X19.7179 Y11.4171 F60.00
G01 X19.7329 Y11.4017 F60.00
G01 X19.7483 Y11.3867 F60.00
G01 X19.7640 Y11.3721 F60.00
G01 X19.8731 Y11.2732 F60.00
G01 X19.8892 Y11.2590 F60.00
G01 X19.9056 Y11.2452 F60.00
G01 X19.9224 Y11.2318 F60.00
G01 X19.9394 Y11.2188 F60.00
G01 X20.0577 Y11.1311 F60.00
G01 X20.0751 Y11.1185 F60.00
G01 X20.0928 Y11.1064 F60.00
G01 X20.1108 Y11.0947 F60.00
G01 X20.1290 Y11.0834 F60.00
G01 X20.2554 Y11.0077 F60.00
G01 X20.2739 Y10.9969 F60.00
G01 X20.2927 Y10.9866 F60.00
G01 X20.3117 Y10.9767 F60.00
G01 X20.4642 Y10.9043 F60.00
G01 X20.4837 Y10.8954 F60.00
G01 X20.5034 Y10.8869 F60.00
G01 X20.5233 Y10.8789 F60.00
G01 X20.5434 Y10.8715 F60.00
G01 X20.6821 Y10.8219 F60.00
G01 X20.7024 Y10.8149 F60.00
G01 X20.7228 Y10.8084 F60.00
G01 X20.7434 Y10.8024 F60.00
G01 X20.7642 Y10.7970 F60.00
G01 X20.9279 Y10.7562 F60.00
G01 X20.9489 Y10.7518 F60.00
G01 X20.9700 Y10.7478 F60.00
G01 X20.9912 Y10.7444 F60.00
G01 X21.1368 Y10.7228 F60.00
G01 X21.1581 Y10.7199 F60.00
G01 X21.1794 Y10.7176 F60.00
G01 X21.2008 Y10.7157 F60.00
G01 X21.2222 Y10.7144 F60.00
G01 X21.3693 Y10.7072 F60.00
G01 X21.3907 Y10.7064 F60.00
G01 X21.4122 Y10.7061 F60.00
G01 X25.2730 Y10.7061 F60.00
G01 X25.2945 Y10.7064 F60.00
G01 X25.3159 Y10.7072 F60.00
G01 X25.4844 Y10.7157 F60.00
G01 X25.5058 Y10.7176 F60.00
G01 X25.5271 Y10.7199 F60.00
G01 X25.5484 Y10.7228 F60.00
G01 X25.6940 Y10.7444 F60.00
G01 X25.7152 Y10.7478 F60.00
G01 X25.7363 Y10.7518 F60.00
G01 X25.7573 Y10.7562 F60.00
G01 X25.7782 Y10.7612 F60.00
G01 X25.9210 Y10.7970 F60.00
G01 X25.9418 Y10.8024 F60.00
G01 X25.9624 Y10.8084 F60.00
G01 X25.9828 Y10.8149 F60.00
G01 X26.1418 Y10.8715 F60.00
G01 X26.1619 Y10.8789 F60.00
G01 X26.1818 Y10.8869 F60.00
G01 X26.2015 Y10.8954 F60.00
G01 X26.2210 Y10.9043 F60.00
G01 X26.3735 Y10.9767 F60.00
G01 X26.3925 Y10.9866 F60.00
G01 X26.4113 Y10.9969 F60.00
G01 X26.4298 Y11.0077 F60.00
G01 X26.5562 Y11.0834 F60.00
G01 X26.5744 Y11.0947 F60.00
G01 X26.5924 Y11.1064 F60.00
G01 X26.6101 Y11.1185 F60.00
G01 X26.6275 Y11.1311 F60.00
G01 X26.7458 Y11.2188 F60.00
G01 X26.7628 Y11.2318 F60.00
G01 X26.7796 Y11.2452 F60.00
G01 X26.7960 Y11.2590 F60.00
G01 X26.8121 Y11.2732 F60.00
G01 X26.9369 Y11.3867 F60.00
G01 X26.9523 Y11.4017 F60.00
G01 X27.2727 Y11.7221 F60.00
G01 X28.8798 Y11.7221 F60.00
G01 X28.9013 Y11.7224 F60.00
G01 X28.9227 Y11.7232 F60.00
G01 X29.0698 Y11.7304 F60.00
G01 X29.0912 Y11.7317 F60.00
G01 X29.1126 Y11.7336 F60.00
G01 X29.1339 Y11.7359 F60.00
G01 X29.1552 Y11.7388 F60.00
G01 X29.3008 Y11.7604 F60.00
G01 X29.3220 Y11.7638 F60.00
G01 X29.3431 Y11.7678 F60.00
G01 X29.3641 Y11.7722 F60.00
G01 X29.3850 Y11.7772 F60.00
G01 X29.5486 Y11.8184 F60.00
G01 X29.5692 Y11.8244 F60.00
G01 X29.5896 Y11.8309 F60.00
G01 X29.6099 Y11.8379 F60.00
G01 X29.7687 Y11.8949 F60.00
G01 X29.7886 Y11.9029 F60.00
G01 X29.8083 Y11.9114 F60.00
G01 X29.9195 Y11.9637 F60.00
G01 X29.9289 Y11.9381 F60.00
G01 X29.9369 Y11.9182 F60.00
G01 X29.9454 Y11.8985 F60.00
G01 X29.9543 Y11.8790 F60.00
G01 X30.0267 Y11.7265 F60.00
G01 X30.0366 Y11.7075 F60.00
G01 X30.0469 Y11.6887 F60.00
G01 X30.0577 Y11.6702 F60.00
G01 X30.1447 Y11.5256 F60.00
G01 X30.1564 Y11.5076 F60.00
G01 X30.1685 Y11.4899 F60.00
G01 X30.1811 Y11.4725 F60.00
G01 X30.2818 Y11.3372 F60.00
G01 X30.2952 Y11.3204 F60.00
G01 X30.3090 Y11.3040 F60.00
G01 X30.3232 Y11.2879 F60.00
G01 X30.4221 Y11.1788 F60.00
G01 X30.4367 Y11.1631 F60.00
G01 X30.4517 Y11.1477 F60.00
G01 X33.3727 Y8.2267 F60.00
G01 X33.3881 Y8.2117 F60.00
G01 X33.5129 Y8.0982 F60.00
G01 X33.5290 Y8.0840 F60.00
G01 X33.5454 Y8.0702 F60.00
G01 X33.5622 Y8.0568 F60.00
G01 X33.5792 Y8.0438 F60.00
G01 X33.6975 Y7.9561 F60.00
G01 X33.7149 Y7.9435 F60.00
G01 X33.7326 Y7.9314 F60.00
G01 X33.7506 Y7.9197 F60.00
G01 X33.7688 Y7.9084 F60.00
G01 X33.9137 Y7.8219 F60.00
G01 X33.9325 Y7.8116 F60.00
G01 X33.9515 Y7.8017 F60.00
G01 X33.9708 Y7.7923 F60.00
G01 X34.1040 Y7.7293 F60.00
G01 X34.1235 Y7.7204 F60.00
G01 X34.1432 Y7.7119 F60.00
G01 X34.1631 Y7.7039 F60.00
G01 X34.3219 Y7.6469 F60.00
G01 X34.3422 Y7.6399 F60.00
G01 X34.3626 Y7.6334 F60.00
G01 X34.3832 Y7.6274 F60.00
G01 X34.4723 Y7.6048 F60.00
G01 X33.8367 Y6.9692 F60.00
G01 X33.8116 Y6.9452 F60.00
G01 X31.4011 Y4.5339 F60.00
G01 X27.2727 Y4.5339 F60.00
G01 X26.9269 Y4.8797 F60.00
G01 X26.9115 Y4.8947 F60.00
G01 X26.7867 Y5.0082 F60.00
G01 X26.7706 Y5.0224 F60.00
G01 X26.7542 Y5.0362 F60.00
G01 X26.7374 Y5.0496 F60.00
G01 X26.7204 Y5.0626 F60.00
G01 X26.6021 Y5.1503 F60.00
G01 X26.5847 Y5.1629 F60.00
G01 X26.5670 Y5.1750 F60.00
G01 X26.5490 Y5.1867 F60.00
G01 X26.5308 Y5.1980 F60.00
G01 X26.3859 Y5.2845 F60.00
G01 X26.3671 Y5.2948 F60.00
G01 X26.3481 Y5.3047 F60.00
G01 X26.3288 Y5.3141 F60.00
G01 X26.1956 Y5.3771 F60.00
G01 X26.1761 Y5.3860 F60.00
G01 X26.1564 Y5.3945 F60.00
G01 X26.1365 Y5.4025 F60.00
G01 X26.1164 Y5.4099 F60.00
G01 X25.9777 Y5.4595 F60.00
G01 X25.9574 Y5.4665 F60.00
G01 X25.9370 Y5.4730 F60.00
G01 X25.9164 Y5.4790 F60.00
G01 X25.8956 Y5.4844 F60.00
G01 X25.7528 Y5.5202 F60.00
G01 X25.7319 Y5.5252 F60.00
G01 X25.7109 Y5.5296 F60.00
G01 X25.6898 Y5.5336 F60.00
G01 X25.6686 Y5.5370 F60.00
G01 X25.5230 Y5.5586 F60.00
G01 X25.5017 Y5.5615 F60.00
G01 X25.4804 Y5.5638 F60.00
G01 X25.4590 Y5.5657 F60.00
G01 X25.2905 Y5.5742 F60.00
G01 X25.2691 Y5.5750 F60.00
G01 X25.2476 Y5.5753 F60.00
G01 X21.4122 Y5.5753 F60.00
G01 X21.3907 Y5.5750 F60.00
G01 X21.3693 Y5.5742 F60.00
G01 X21.2222 Y5.5670 F60.00
G01 X21.2008 Y5.5657 F60.00
G01 X21.1794 Y5.5638 F60.00
G01 X21.1581 Y5.5615 F60.00
G01 X20.9912 Y5.5370 F60.00
G01 X20.9700 Y5.5336 F60.00
G01 X20.9489 Y5.5296 F60.00
G01 X20.9279 Y5.5252 F60.00
G01 X20.9070 Y5.5202 F60.00
G01 X20.7642 Y5.4844 F60.00
G01 X20.7434 Y5.4790 F60.00
G01 X20.7228 Y5.4730 F60.00
G01 X20.7024 Y5.4665 F60.00
G01 X20.6821 Y5.4595 F60.00
G01 X20.5434 Y5.4099 F60.00
G01 X20.5233 Y5.4025 F60.00
G01 X20.5034 Y5.3945 F60.00
G01 X20.4837 Y5.3860 F60.00
G01 X20.3310 Y5.3141 F60.00
G01 X20.3117 Y5.3047 F60.00
G01 X20.2927 Y5.2948 F60.00
G01 X20.2739 Y5.2845 F60.00
G01 X20.2554 Y5.2737 F60.00
G01 X20.1290 Y5.1980 F60.00
G01 X20.1108 Y5.1867 F60.00
G01 X20.0928 Y5.1750 F60.00
G01 X20.0751 Y5.1629 F60.00
G01 X19.9394 Y5.0626 F60.00
G01 X19.9224 Y5.0496 F60.00
G01 X19.9056 Y5.0362 F60.00
G01 X19.8892 Y5.0224 F60.00
G01 X19.8731 Y5.0082 F60.00
G01 X19.7640 Y4.9093 F60.00
G01 X19.7483 Y4.8947 F60.00
G01 X19.7329 Y4.8797 F60.00
G01 X19.7179 Y4.8643 F60.00
G01 X19.7033 Y4.8486 F60.00
G01 X19.6044 Y4.7395 F60.00
G01 X19.5902 Y4.7234 F60.00
G01 X19.5764 Y4.7070 F60.00
G01 X19.5630 Y4.6902 F60.00
G01 X19.5500 Y4.6732 F60.00
G01 X19.4623 Y4.5549 F60.00
G01 X19.4497 Y4.5375 F60.00
G01 X19.4376 Y4.5198 F60.00
G01 X19.4259 Y4.5018 F60.00
G01 X19.4146 Y4.4836 F60.00
G01 X19.3389 Y4.3572 F60.00
G01 X19.3281 Y4.3387 F60.00
G01 X19.3178 Y4.3199 F60.00
G01 X19.3079 Y4.3009 F60.00
G01 X19.2985 Y4.2816 F60.00
G01 X19.2266 Y4.1289 F60.00
G01 X19.2181 Y4.1092 F60.00
G01 X19.2101 Y4.0893 F60.00
G01 X19.2027 Y4.0692 F60.00
G01 X19.1531 Y3.9305 F60.00
G01 X19.1461 Y3.9102 F60.00
G01 X19.1396 Y3.8898 F60.00
G01 X19.1336 Y3.8692 F60.00
G01 X19.0924 Y3.7056 F60.00
G01 X19.0874 Y3.6847 F60.00
G01 X19.0830 Y3.6637 F60.00
G01 X19.0790 Y3.6426 F60.00
G01 X19.0756 Y3.6214 F60.00
G01 X19.0511 Y3.4545 F60.00
G01 X19.0488 Y3.4332 F60.00
G01 X19.0469 Y3.4118 F60.00
G01 X19.0456 Y3.3904 F60.00
G01 X19.0384 Y3.2433 F60.00
G01 X19.0376 Y3.2219 F60.00
G01 X19.0373 Y3.2004 F60.00
G01 X19.0376 Y3.1789 F60.00
G01 X19.0384 Y3.1575 F60.00
G01 X19.0456 Y3.0104 F60.00
G01 X19.0469 Y2.9890 F60.00
G01 X19.0488 Y2.9676 F60.00
G01 X19.0511 Y2.9463 F60.00
G01 X19.0540 Y2.9250 F60.00
G01 X19.0756 Y2.7794 F60.00
G01 X19.0790 Y2.7582 F60.00
G01 X19.0830 Y2.7371 F60.00
G01 X19.0874 Y2.7161 F60.00
G01 X19.0924 Y2.6952 F60.00
G01 X19.1282 Y2.5524 F60.00
G01 X19.1336 Y2.5316 F60.00
G01 X19.1396 Y2.5110 F60.00
G01 X19.1461 Y2.4906 F60.00
G01 X19.1531 Y2.4703 F60.00
G01 X19.2027 Y2.3316 F60.00
G01 X19.2101 Y2.3115 F60.00
G01 X19.2181 Y2.2916 F60.00
G01 X19.2266 Y2.2719 F60.00
G01 X19.2355 Y2.2524 F60.00
G01 X19.2985 Y2.1192 F60.00
G01 X19.3079 Y2.0999 F60.00
G01 X19.3178 Y2.0809 F60.00
G01 X19.3281 Y2.0621 F60.00
G01 X19.3389 Y2.0436 F60.00
G01 X19.4146 Y1.9172 F60.00
G01 X19.4259 Y1.8990 F60.00
G01 X19.4376 Y1.8810 F60.00
G01 X19.4497 Y1.8633 F60.00
G01 X19.4623 Y1.8459 F60.00
G01 X19.5500 Y1.7276 F60.00
G01 X19.5630 Y1.7106 F60.00
G01 X19.5764 Y1.6938 F60.00
G01 X19.5902 Y1.6774 F60.00
G01 X19.6044 Y1.6613 F60.00
G01 X19.7033 Y1.5522 F60.00
G01 X19.7179 Y1.5365 F60.00
G01 X19.7329 Y1.5211 F60.00
G01 X19.7483 Y1.5061 F60.00
G01 X19.7640 Y1.4915 F60.00
G01 X19.8731 Y1.3926 F60.00
G01 X19.8892 Y1.3784 F60.00
G01 X19.9056 Y1.3646 F60.00
G01 X19.9224 Y1.3512 F60.00
G01 X19.9394 Y1.3382 F60.00
G01 X20.0577 Y1.2505 F60.00
G01 X20.0751 Y1.2379 F60.00
G01 X20.0928 Y1.2258 F60.00
G01 X20.1108 Y1.2141 F60.00
G01 X20.1290 Y1.2028 F60.00
G01 X20.2554 Y1.1271 F60.00
G01 X20.2739 Y1.1163 F60.00
G01 X20.2927 Y1.1060 F60.00
G01 X20.3117 Y1.0961 F60.00
G01 X20.3310 Y1.0867 F60.00
G01 X20.4642 Y1.0237 F60.00
G01 X20.4837 Y1.0148 F60.00
G01 X20.5162 Y1.0012 F60.00
G01 X15.3569 Y1.0012 F60.00
G01 X15.3683 Y1.0207 F60.00
G01 X15.3786 Y1.0395 F60.00
G01 X15.3885 Y1.0585 F60.00
G01 X15.3979 Y1.0778 F60.00
G01 X15.4609 Y1.2110 F60.00
G01 X15.4698 Y1.2305 F60.00
G01 X15.4783 Y1.2502 F60.00
G01 X15.4863 Y1.2701 F60.00
G01 X15.4937 Y1.2902 F60.00
G01 X15.5433 Y1.4289 F60.00
G01 X15.5503 Y1.4492 F60.00
G01 X15.5568 Y1.4696 F60.00
G01 X15.5628 Y1.4902 F60.00
G01 X15.5682 Y1.5110 F60.00
G01 X15.6040 Y1.6538 F60.00
G01 X15.6090 Y1.6747 F60.00
G01 X15.6134 Y1.6957 F60.00
G01 X15.6174 Y1.7168 F60.00
G01 X15.6208 Y1.7380 F60.00
G01 X15.6424 Y1.8836 F60.00
G01 X15.6453 Y1.9049 F60.00
G01 X15.6476 Y1.9262 F60.00
G01 X15.6495 Y1.9476 F60.00
G01 X15.6508 Y1.9690 F60.00
G01 X15.6580 Y2.1161 F60.00
G01 X15.6588 Y2.1375 F60.00
G01 X15.6591 Y2.1590 F60.00
G01 X15.6588 Y2.1805 F60.00
G01 X15.6580 Y2.2019 F60.00
G01 X15.6508 Y2.3490 F60.00
G01 X15.6495 Y2.3704 F60.00
G01 X15.6476 Y2.3918 F60.00
G01 X15.6453 Y2.4131 F60.00
G01 X15.6424 Y2.4344 F60.00
G01 X15.6208 Y2.5800 F60.00
G01 X15.6174 Y2.6012 F60.00
G01 X15.6134 Y2.6223 F60.00
G01 X15.6090 Y2.6433 F60.00
G01 X15.6040 Y2.6642 F60.00
G01 X15.5682 Y2.8070 F60.00
G01 X15.5628 Y2.8278 F60.00
G01 X15.5568 Y2.8484 F60.00
G01 X15.5503 Y2.8688 F60.00
G01 X15.5433 Y2.8891 F60.00
G01 X15.4937 Y3.0278 F60.00
G01 X15.4863 Y3.0479 F60.00
G01 X15.4783 Y3.0678 F60.00
G01 X15.4698 Y3.0875 F60.00
G01 X15.4609 Y3.1070 F60.00
G01 X15.3979 Y3.2402 F60.00
G01 X15.3885 Y3.2595 F60.00
G01 X15.3786 Y3.2785 F60.00
G01 X15.3683 Y3.2973 F60.00
G01 X15.3575 Y3.3158 F60.00
G01 X15.2818 Y3.4422 F60.00
G01 X15.2705 Y3.4604 F60.00
G01 X15.2588 Y3.4784 F60.00
G01 X15.2467 Y3.4961 F60.00
G01 X15.2341 Y3.5135 F60.00
G01 X15.1464 Y3.6318 F60.00
G01 X15.1334 Y3.6488 F60.00
G01 X15.1200 Y3.6656 F60.00
G01 X15.1062 Y3.6820 F60.00
G01 X15.0920 Y3.6981 F60.00
G01 X14.9931 Y3.8072 F60.00
G01 X14.9785 Y3.8229 F60.00
G01 X14.9635 Y3.8383 F60.00
G01 X13.9221 Y4.8797 F60.00
G01 X13.9067 Y4.8947 F60.00
G01 X13.8910 Y4.9093 F60.00
G01 X13.7819 Y5.0082 F60.00
G01 X13.7658 Y5.0224 F60.00
G01 X13.7494 Y5.0362 F60.00
G01 X13.7326 Y5.0496 F60.00
G01 X13.5973 Y5.1503 F60.00
G01 X13.5799 Y5.1629 F60.00
G01 X13.5622 Y5.1750 F60.00
G01 X13.5442 Y5.1867 F60.00
G01 X13.5260 Y5.1980 F60.00
G01 X13.3996 Y5.2737 F60.00
G01 X13.3811 Y5.2845 F60.00
G01 X13.3623 Y5.2948 F60.00
G01 X13.3433 Y5.3047 F60.00
G01 X13.3240 Y5.3141 F60.00
G01 X13.1908 Y5.3771 F60.00
G01 X13.1713 Y5.3860 F60.00
G01 X13.1516 Y5.3945 F60.00
G01 X13.1317 Y5.4025 F60.00
G01 X12.9729 Y5.4595 F60.00
G01 X12.9526 Y5.4665 F60.00
G01 X12.9322 Y5.4730 F60.00
G01 X12.9116 Y5.4790 F60.00
G01 X12.8908 Y5.4844 F60.00
G01 X12.7480 Y5.5202 F60.00
G01 X12.7271 Y5.5252 F60.00
G01 X12.7061 Y5.5296 F60.00
G01 X12.6850 Y5.5336 F60.00
G01 X12.5182 Y5.5586 F60.00
G01 X12.4969 Y5.5615 F60.00
G01 X12.4756 Y5.5638 F60.00
G01 X12.4542 Y5.5657 F60.00
G01 X12.4328 Y5.5670 F60.00
G01 X12.2643 Y5.5750 F60.00
G01 X12.2428 Y5.5753 F60.00
G01 X12.2213 Y5.5750 F60.00
G01 X12.1999 Y5.5742 F60.00
G01 X12.0314 Y5.5657 F60.00
G01 X12.0100 Y5.5638 F60.00
G01 X11.9887 Y5.5615 F60.00
G01 X11.9674 Y5.5586 F60.00
G01 X11.8364 Y5.5391 F60.00
G01 X11.7054 Y5.5586 F60.00
G01 X11.6841 Y5.5615 F60.00
G01 X11.6628 Y5.5638 F60.00
G01 X11.6414 Y5.5657 F60.00
G01 X11.6200 Y5.5670 F60.00
G01 X11.4729 Y5.5742 F60.00
G01 X11.4515 Y5.5750 F60.00
G01 X11.4300 Y5.5753 F60.00
G01 X8.5090 Y5.5753 F60.00
G01 X8.4875 Y5.5750 F60.00
G01 X8.4661 Y5.5742 F60.00
G01 X8.3190 Y5.5670 F60.00
G01 X8.2976 Y5.5657 F60.00
G01 X8.2762 Y5.5638 F60.00
G01 X8.2549 Y5.5615 F60.00
G01 X8.2336 Y5.5586 F60.00
G01 X8.0668 Y5.5336 F60.00
G01 X8.0457 Y5.5296 F60.00
G01 X8.0247 Y5.5252 F60.00
G01 X8.0038 Y5.5202 F60.00
G01 X7.8402 Y5.4790 F60.00
G01 X7.8196 Y5.4730 F60.00
G01 X7.7992 Y5.4665 F60.00
G01 X7.6764 Y5.4229 F60.00
G00 Z3.0000
G00 X11.5703 Y1.5998
G01 F60.00
G01 Z-0.0980
G01 F60.00
G01 X12.1476 Y1.0224 F60.00
G01 X12.2625 Y0.9182 F60.00
G01 X12.2686 Y0.9133 F60.00
G01 X12.3869 Y0.8256 F60.00
G01 X12.3956 Y0.8197 F60.00
G01 X12.5265 Y0.7414 F60.00
G01 X12.6667 Y0.6750 F60.00
G01 X12.6740 Y0.6721 F60.00
G01 X12.8176 Y0.6209 F60.00
G01 X12.9655 Y0.5837 F60.00
G01 X12.9758 Y0.5816 F60.00
G01 X13.1215 Y0.5600 F60.00
G01 X13.1319 Y0.5590 F60.00
G01 X13.2842 Y0.5517 F60.00
G01 X13.4417 Y0.5594 F60.00
G01 X13.5978 Y0.5825 F60.00
G01 X13.7508 Y0.6209 F60.00
G01 X13.8993 Y0.6740 F60.00
G01 X14.0419 Y0.7414 F60.00
G01 X14.1772 Y0.8225 F60.00
G01 X14.3039 Y0.9165 F60.00
G01 X14.4208 Y1.0224 F60.00
G01 X14.5267 Y1.1393 F60.00
G01 X14.6207 Y1.2660 F60.00
G01 X14.7018 Y1.4013 F60.00
G01 X14.7692 Y1.5439 F60.00
G01 X14.8223 Y1.6924 F60.00
G01 X14.8607 Y1.8454 F60.00
G01 X14.8838 Y2.0015 F60.00
G01 X14.8915 Y2.1590 F60.00
G01 X14.8838 Y2.3165 F60.00
G01 X14.8607 Y2.4726 F60.00
G01 X14.8223 Y2.6256 F60.00
G01 X14.7692 Y2.7741 F60.00
G01 X14.7018 Y2.9167 F60.00
G01 X14.6207 Y3.0520 F60.00
G01 X14.5299 Y3.1746 F60.00
G01 X14.5250 Y3.1807 F60.00
G01 X14.4208 Y3.2956 F60.00
G01 X13.3794 Y4.3370 F60.00
G01 X13.2665 Y4.4395 F60.00
G01 X13.2584 Y4.4461 F60.00
G01 X13.1401 Y4.5338 F60.00
G01 X13.1314 Y4.5397 F60.00
G01 X13.0005 Y4.6180 F60.00
G01 X12.8579 Y4.6854 F60.00
G01 X12.7094 Y4.7385 F60.00
G01 X12.5615 Y4.7757 F60.00
G01 X12.5512 Y4.7778 F60.00
G01 X12.4055 Y4.7994 F60.00
G01 X12.3977 Y4.8002 F60.00
G01 X12.2428 Y4.8077 F60.00
G01 X12.0879 Y4.8002 F60.00
G01 X12.0801 Y4.7994 F60.00
G01 X11.9318 Y4.7773 F60.00
G01 X11.9241 Y4.7757 F60.00
G01 X11.8364 Y4.7537 F60.00
G01 X11.7436 Y4.7769 F60.00
G01 X11.5901 Y4.7997 F60.00
G01 X11.5823 Y4.8004 F60.00
G01 X11.4326 Y4.8077 F60.00
G01 X8.5064 Y4.8077 F60.00
G01 X8.3515 Y4.8000 F60.00
G01 X8.2006 Y4.7778 F60.00
G01 X8.1929 Y4.7763 F60.00
G01 X8.0475 Y4.7399 F60.00
G01 X8.0399 Y4.7377 F60.00
G01 X7.8963 Y4.6864 F60.00
G01 X7.8891 Y4.6833 F60.00
G01 X7.8301 Y4.6553 F60.00
G01 X5.4610 Y4.6553 F60.00
G01 X5.3035 Y4.6476 F60.00
G01 X5.1500 Y4.6249 F60.00
G01 X5.1423 Y4.6233 F60.00
G01 X4.9995 Y4.5875 F60.00
G01 X4.9894 Y4.5845 F60.00
G01 X4.8459 Y4.5330 F60.00
G01 X4.7033 Y4.4656 F60.00
G01 X4.5724 Y4.3873 F60.00
G01 X4.5637 Y4.3814 F60.00
G01 X4.4413 Y4.2905 F60.00
G01 X4.3244 Y4.1846 F60.00
G01 X4.2185 Y4.0677 F60.00
G01 X4.1276 Y3.9453 F60.00
G01 X4.1217 Y3.9366 F60.00
G01 X4.0434 Y3.8057 F60.00
G01 X3.9781 Y3.6679 F60.00
G01 X3.9741 Y3.6582 F60.00
G01 X3.9229 Y3.5146 F60.00
G01 X3.8851 Y3.3641 F60.00
G01 X3.8836 Y3.3564 F60.00
G01 X3.8614 Y3.2055 F60.00
G01 X3.8537 Y3.0480 F60.00
G01 X3.8614 Y2.8905 F60.00
G01 X3.8845 Y2.7344 F60.00
G01 X3.9229 Y2.5814 F60.00
G01 X3.9760 Y2.4329 F60.00
G01 X4.0434 Y2.2903 F60.00
G01 X4.1245 Y2.1550 F60.00
G01 X4.2185 Y2.0283 F60.00
G01 X4.3244 Y1.9114 F60.00
G01 X4.4413 Y1.8055 F60.00
G01 X4.5680 Y1.7115 F60.00
G01 X4.7033 Y1.6304 F60.00
G01 X4.8459 Y1.5630 F60.00
G01 X4.9944 Y1.5099 F60.00
G01 X5.1449 Y1.4721 F60.00
G01 X5.1526 Y1.4706 F60.00
G01 X5.3035 Y1.4484 F60.00
G01 X5.4610 Y1.4407 F60.00
G01 X8.3846 Y1.4407 F60.00
G01 X8.5395 Y1.4484 F60.00
G01 X8.6904 Y1.4706 F60.00
G01 X8.6981 Y1.4721 F60.00
G01 X8.8435 Y1.5085 F60.00
G01 X8.8511 Y1.5107 F60.00
G01 X8.9947 Y1.5620 F60.00
G01 X9.0019 Y1.5651 F60.00
G01 X9.0609 Y1.5931 F60.00
G01 X11.4300 Y1.5931 F60.00
G01 X11.5703 Y1.5998 F60.00
G00 Z3.0000
G00 X11.4947 Y1.4040
G01 F60.00
G01 Z-0.0980
G01 F60.00
G01 X12.0120 Y0.8868 F60.00
G01 X12.0226 Y0.8767 F60.00
G01 X12.1317 Y0.7777 F60.00
G01 X12.1428 Y0.7682 F60.00
G01 X12.1543 Y0.7592 F60.00
G01 X12.2726 Y0.6714 F60.00
G01 X12.2846 Y0.6630 F60.00
G01 X12.2970 Y0.6552 F60.00
G01 X12.4233 Y0.5794 F60.00
G01 X12.4426 Y0.5689 F60.00
G01 X12.5823 Y0.5027 F60.00
G01 X12.6025 Y0.4940 F60.00
G01 X12.7549 Y0.4395 F60.00
G01 X12.7689 Y0.4352 F60.00
G01 X12.8072 Y0.4255 F60.00
G01 X0.4255 Y0.4255 F60.00
G01 X0.4255 Y16.2115 F60.00
G01 X28.4923 Y16.2115 F60.00
G01 X28.3849 Y16.1318 F60.00
G01 X28.3734 Y16.1228 F60.00
G01 X28.3623 Y16.1133 F60.00
G01 X28.2532 Y16.0143 F60.00
G01 X28.2426 Y16.0042 F60.00
G01 X28.2325 Y15.9936 F60.00
G01 X28.1442 Y15.8962 F60.00
G01 X26.2817 Y15.8961 F60.00
G01 X26.1273 Y15.8886 F60.00
G01 X26.1126 Y15.8876 F60.00
G01 X26.0981 Y15.8858 F60.00
G01 X25.9524 Y15.8642 F60.00
G01 X25.9380 Y15.8617 F60.00
G01 X25.9237 Y15.8584 F60.00
G01 X25.7808 Y15.8227 F60.00
G01 X25.7597 Y15.8165 F60.00
G01 X25.6141 Y15.7645 F60.00
G01 X25.6005 Y15.7593 F60.00
G01 X25.5871 Y15.7533 F60.00
G01 X25.4539 Y15.6904 F60.00
G01 X25.4409 Y15.6838 F60.00
G01 X25.4281 Y15.6766 F60.00
G01 X25.3018 Y15.6008 F60.00
G01 X25.2894 Y15.5930 F60.00
G01 X25.2774 Y15.5846 F60.00
G01 X25.1591 Y15.4968 F60.00
G01 X25.1476 Y15.4878 F60.00
G01 X25.1365 Y15.4783 F60.00
G01 X25.0274 Y15.3793 F60.00
G01 X25.0168 Y15.3692 F60.00
G01 X24.5277 Y14.8802 F60.00
G01 X21.4049 Y14.8801 F60.00
G01 X21.2505 Y14.8726 F60.00
G01 X21.2358 Y14.8716 F60.00
G01 X21.2213 Y14.8698 F60.00
G01 X21.0756 Y14.8482 F60.00
G01 X21.0612 Y14.8457 F60.00
G01 X21.0469 Y14.8424 F60.00
G01 X20.9040 Y14.8067 F60.00
G01 X20.8899 Y14.8028 F60.00
G01 X20.8760 Y14.7982 F60.00
G01 X20.7373 Y14.7485 F60.00
G01 X20.7169 Y14.7404 F60.00
G01 X20.5771 Y14.6744 F60.00
G01 X20.5641 Y14.6678 F60.00
G01 X20.5513 Y14.6606 F60.00
G01 X20.4250 Y14.5848 F60.00
G01 X20.4126 Y14.5770 F60.00
G01 X20.4006 Y14.5686 F60.00
G01 X20.2823 Y14.4808 F60.00
G01 X20.2708 Y14.4718 F60.00
G01 X20.2597 Y14.4623 F60.00
G01 X20.1506 Y14.3633 F60.00
G01 X20.1400 Y14.3532 F60.00
G01 X20.1299 Y14.3426 F60.00
G01 X20.0309 Y14.2335 F60.00
G01 X20.0214 Y14.2224 F60.00
G01 X20.0124 Y14.2109 F60.00
G01 X19.9246 Y14.0926 F60.00
G01 X19.9162 Y14.0806 F60.00
G01 X19.9084 Y14.0682 F60.00
G01 X19.8326 Y13.9419 F60.00
G01 X19.8254 Y13.9291 F60.00
G01 X19.8188 Y13.9161 F60.00
G01 X19.7559 Y13.7829 F60.00
G01 X19.7499 Y13.7695 F60.00
G01 X19.7447 Y13.7559 F60.00
G01 X19.6950 Y13.6172 F60.00
G01 X19.6904 Y13.6033 F60.00
G01 X19.6865 Y13.5892 F60.00
G01 X19.6508 Y13.4463 F60.00
G01 X19.6475 Y13.4320 F60.00
G01 X19.6450 Y13.4176 F60.00
G01 X19.6234 Y13.2719 F60.00
G01 X19.6216 Y13.2574 F60.00
G01 X19.6206 Y13.2427 F60.00
G01 X19.6133 Y13.0956 F60.00
G01 X19.6130 Y13.0810 F60.00
G01 X19.6133 Y13.0664 F60.00
G01 X19.6206 Y12.9193 F60.00
G01 X19.6216 Y12.9046 F60.00
G01 X19.6234 Y12.8901 F60.00
G01 X19.6450 Y12.7444 F60.00
G01 X19.6475 Y12.7300 F60.00
G01 X19.6508 Y12.7157 F60.00
G01 X19.6865 Y12.5728 F60.00
G01 X19.6904 Y12.5587 F60.00
G01 X19.6950 Y12.5448 F60.00
G01 X19.7447 Y12.4061 F60.00
G01 X19.7528 Y12.3857 F60.00
G01 X19.8188 Y12.2459 F60.00
G01 X19.8254 Y12.2329 F60.00
G01 X19.8326 Y12.2201 F60.00
G01 X19.9084 Y12.0938 F60.00
G01 X19.9162 Y12.0814 F60.00
G01 X19.9246 Y12.0694 F60.00
G01 X20.0124 Y11.9511 F60.00
G01 X20.0214 Y11.9396 F60.00
G01 X20.0309 Y11.9285 F60.00
G01 X20.1299 Y11.8194 F60.00
G01 X20.1400 Y11.8088 F60.00
G01 X20.1506 Y11.7987 F60.00
G01 X20.2597 Y11.6997 F60.00
G01 X20.2708 Y11.6902 F60.00
G01 X20.2823 Y11.6812 F60.00
G01 X20.4006 Y11.5934 F60.00
G01 X20.4126 Y11.5850 F60.00
G01 X20.4250 Y11.5772 F60.00
G01 X20.5513 Y11.5014 F60.00
G01 X20.5641 Y11.4942 F60.00
G01 X20.5771 Y11.4876 F60.00
G01 X20.7103 Y11.4247 F60.00
G01 X20.7237 Y11.4187 F60.00
G01 X20.7373 Y11.4135 F60.00
G01 X20.8760 Y11.3638 F60.00
G01 X20.8899 Y11.3592 F60.00
G01 X20.9040 Y11.3553 F60.00
G01 X21.0469 Y11.3196 F60.00
G01 X21.0612 Y11.3163 F60.00
G01 X21.0756 Y11.3138 F60.00
G01 X21.2213 Y11.2922 F60.00
G01 X21.2358 Y11.2904 F60.00
G01 X21.2505 Y11.2894 F60.00
G01 X21.3976 Y11.2821 F60.00
G01 X21.4122 Y11.2818 F60.00
G01 X25.2730 Y11.2818 F60.00
G01 X25.2876 Y11.2821 F60.00
G01 X25.4347 Y11.2894 F60.00
G01 X25.4494 Y11.2904 F60.00
G01 X25.4639 Y11.2922 F60.00
G01 X25.6096 Y11.3138 F60.00
G01 X25.6240 Y11.3163 F60.00
G01 X25.6383 Y11.3196 F60.00
G01 X25.7812 Y11.3553 F60.00
G01 X25.7953 Y11.3592 F60.00
G01 X25.8092 Y11.3638 F60.00
G01 X25.9479 Y11.4135 F60.00
G01 X25.9615 Y11.4187 F60.00
G01 X25.9749 Y11.4247 F60.00
G01 X26.1081 Y11.4876 F60.00
G01 X26.1211 Y11.4942 F60.00
G01 X26.1339 Y11.5014 F60.00
G01 X26.2665 Y11.5810 F60.00
G01 X26.2846 Y11.5934 F60.00
G01 X26.4029 Y11.6812 F60.00
G01 X26.4144 Y11.6902 F60.00
G01 X26.4255 Y11.6997 F60.00
G01 X26.5400 Y11.8036 F60.00
G01 X27.0343 Y12.2978 F60.00
G01 X28.8871 Y12.2979 F60.00
G01 X29.0415 Y12.3054 F60.00
G01 X29.0562 Y12.3064 F60.00
G01 X29.0707 Y12.3082 F60.00
G01 X29.2164 Y12.3298 F60.00
G01 X29.2308 Y12.3323 F60.00
G01 X29.2451 Y12.3356 F60.00
G01 X29.3880 Y12.3713 F60.00
G01 X29.4021 Y12.3752 F60.00
G01 X29.4160 Y12.3798 F60.00
G01 X29.5547 Y12.4295 F60.00
G01 X29.5683 Y12.4347 F60.00
G01 X29.5817 Y12.4407 F60.00
G01 X29.7149 Y12.5036 F60.00
G01 X29.7279 Y12.5102 F60.00
G01 X29.7407 Y12.5174 F60.00
G01 X29.8670 Y12.5932 F60.00
G01 X29.8794 Y12.6010 F60.00
G01 X29.8914 Y12.6094 F60.00
G01 X30.0097 Y12.6972 F60.00
G01 X30.0212 Y12.7062 F60.00
G01 X30.0323 Y12.7157 F60.00
G01 X30.1414 Y12.8147 F60.00
G01 X30.1520 Y12.8248 F60.00
G01 X30.1621 Y12.8354 F60.00
G01 X30.2504 Y12.9328 F60.00
G01 X30.3318 Y12.9328 F60.00
G01 X30.3319 Y12.8197 F60.00
G01 X30.3394 Y12.6653 F60.00
G01 X30.3412 Y12.6434 F60.00
G01 X30.3638 Y12.4904 F60.00
G01 X30.3663 Y12.4760 F60.00
G01 X30.3696 Y12.4617 F60.00
G01 X30.4053 Y12.3188 F60.00
G01 X30.4115 Y12.2977 F60.00
G01 X30.4635 Y12.1521 F60.00
G01 X30.4687 Y12.1385 F60.00
G01 X30.4747 Y12.1251 F60.00
G01 X30.5376 Y11.9919 F60.00
G01 X30.5442 Y11.9789 F60.00
G01 X30.5514 Y11.9661 F60.00
G01 X30.6272 Y11.8398 F60.00
G01 X30.6350 Y11.8274 F60.00
G01 X30.6434 Y11.8154 F60.00
G01 X30.7312 Y11.6971 F60.00
G01 X30.7402 Y11.6856 F60.00
G01 X30.7497 Y11.6745 F60.00
G01 X30.8487 Y11.5654 F60.00
G01 X30.8588 Y11.5548 F60.00
G01 X33.7798 Y8.6338 F60.00
G01 X33.7904 Y8.6237 F60.00
G01 X33.8995 Y8.5247 F60.00
G01 X33.9106 Y8.5152 F60.00
G01 X33.9221 Y8.5062 F60.00
G01 X34.0404 Y8.4184 F60.00
G01 X34.0524 Y8.4100 F60.00
G01 X34.0648 Y8.4022 F60.00
G01 X34.1911 Y8.3264 F60.00
G01 X34.2039 Y8.3192 F60.00
G01 X34.2169 Y8.3126 F60.00
G01 X34.3501 Y8.2497 F60.00
G01 X34.3635 Y8.2437 F60.00
G01 X34.3771 Y8.2385 F60.00
G01 X34.5158 Y8.1888 F60.00
G01 X34.5297 Y8.1842 F60.00
G01 X34.5438 Y8.1803 F60.00
G01 X34.6867 Y8.1446 F60.00
G01 X34.7010 Y8.1413 F60.00
G01 X34.7154 Y8.1388 F60.00
G01 X34.8611 Y8.1172 F60.00
G01 X34.8756 Y8.1154 F60.00
G01 X34.8903 Y8.1144 F60.00
G01 X35.0374 Y8.1071 F60.00
G01 X35.0593 Y8.1069 F60.00
G01 X35.2137 Y8.1144 F60.00
G01 X35.2284 Y8.1154 F60.00
G01 X35.2429 Y8.1172 F60.00
G01 X35.3886 Y8.1388 F60.00
G01 X35.4030 Y8.1413 F60.00
G01 X35.4173 Y8.1446 F60.00
G01 X35.5602 Y8.1803 F60.00
G01 X35.5743 Y8.1842 F60.00
G01 X35.5882 Y8.1888 F60.00
G01 X35.7337 Y8.2410 F60.00
G01 X35.7539 Y8.2497 F60.00
G01 X35.8871 Y8.3126 F60.00
G01 X35.9001 Y8.3192 F60.00
G01 X35.9129 Y8.3264 F60.00
G01 X36.0392 Y8.4022 F60.00
G01 X36.0516 Y8.4100 F60.00
G01 X36.0636 Y8.4184 F60.00
G01 X36.1819 Y8.5062 F60.00
G01 X36.1990 Y8.5199 F60.00
G01 X36.2232 Y8.5417 F60.00
G01 X34.2340 Y6.5525 F60.00
G01 X34.2186 Y6.5382 F60.00
G01 X31.6397 Y3.9582 F60.00
G01 X27.0343 Y3.9582 F60.00
G01 X26.5198 Y4.4726 F60.00
G01 X26.5092 Y4.4827 F60.00
G01 X26.4001 Y4.5817 F60.00
G01 X26.3890 Y4.5912 F60.00
G01 X26.3775 Y4.6002 F60.00
G01 X26.2592 Y4.6880 F60.00
G01 X26.2472 Y4.6964 F60.00
G01 X26.2348 Y4.7042 F60.00
G01 X26.1085 Y4.7800 F60.00
G01 X26.0957 Y4.7872 F60.00
G01 X26.0827 Y4.7938 F60.00
G01 X25.9495 Y4.8567 F60.00
G01 X25.9361 Y4.8627 F60.00
G01 X25.9225 Y4.8679 F60.00
G01 X25.7838 Y4.9176 F60.00
G01 X25.7699 Y4.9222 F60.00
G01 X25.7558 Y4.9261 F60.00
G01 X25.6129 Y4.9618 F60.00
G01 X25.5986 Y4.9651 F60.00
G01 X25.5842 Y4.9676 F60.00
G01 X25.4385 Y4.9892 F60.00
G01 X25.4240 Y4.9910 F60.00
G01 X25.4093 Y4.9920 F60.00
G01 X25.2549 Y4.9995 F60.00
G01 X21.4122 Y4.9996 F60.00
G01 X21.3976 Y4.9993 F60.00
G01 X21.2505 Y4.9920 F60.00
G01 X21.2358 Y4.9910 F60.00
G01 X21.2213 Y4.9892 F60.00
G01 X21.0756 Y4.9676 F60.00
G01 X21.0612 Y4.9651 F60.00
G01 X21.0469 Y4.9618 F60.00
G01 X20.9040 Y4.9261 F60.00
G01 X20.8899 Y4.9222 F60.00
G01 X20.8760 Y4.9176 F60.00
G01 X20.7373 Y4.8679 F60.00
G01 X20.7237 Y4.8627 F60.00
G01 X20.7103 Y4.8567 F60.00
G01 X20.5771 Y4.7938 F60.00
G01 X20.5641 Y4.7872 F60.00
G01 X20.5513 Y4.7800 F60.00
G01 X20.4250 Y4.7042 F60.00
G01 X20.4126 Y4.6964 F60.00
G01 X20.4006 Y4.6880 F60.00
G01 X20.2823 Y4.6002 F60.00
G01 X20.2708 Y4.5912 F60.00
G01 X20.2597 Y4.5817 F60.00
G01 X20.1506 Y4.4827 F60.00
G01 X20.1400 Y4.4726 F60.00
G01 X20.1299 Y4.4620 F60.00
G01 X20.0309 Y4.3529 F60.00
G01 X20.0214 Y4.3418 F60.00
G01 X20.0124 Y4.3303 F60.00
G01 X19.9246 Y4.2120 F60.00
G01 X19.9122 Y4.1939 F60.00
G01 X19.8326 Y4.0613 F60.00
G01 X19.8254 Y4.0485 F60.00
G01 X19.8188 Y4.0355 F60.00
G01 X19.7559 Y3.9023 F60.00
G01 X19.7499 Y3.8889 F60.00
G01 X19.7447 Y3.8753 F60.00
G01 X19.6950 Y3.7366 F60.00
G01 X19.6904 Y3.7227 F60.00
G01 X19.6865 Y3.7086 F60.00
G01 X19.6508 Y3.5657 F60.00
G01 X19.6475 Y3.5514 F60.00
G01 X19.6450 Y3.5370 F60.00
G01 X19.6234 Y3.3913 F60.00
G01 X19.6216 Y3.3768 F60.00
G01 X19.6206 Y3.3621 F60.00
G01 X19.6133 Y3.2150 F60.00
G01 X19.6130 Y3.2004 F60.00
G01 X19.6133 Y3.1858 F60.00
G01 X19.6206 Y3.0387 F60.00
G01 X19.6216 Y3.0240 F60.00
G01 X19.6234 Y3.0095 F60.00
G01 X19.6450 Y2.8638 F60.00
G01 X19.6475 Y2.8494 F60.00
G01 X19.6508 Y2.8351 F60.00
G01 X19.6865 Y2.6922 F60.00
G01 X19.6904 Y2.6781 F60.00
G01 X19.6950 Y2.6642 F60.00
G01 X19.7447 Y2.5255 F60.00
G01 X19.7499 Y2.5119 F60.00
G01 X19.7559 Y2.4985 F60.00
G01 X19.8188 Y2.3653 F60.00
G01 X19.8254 Y2.3523 F60.00
G01 X19.8326 Y2.3395 F60.00
G01 X19.9084 Y2.2132 F60.00
G01 X19.9162 Y2.2008 F60.00
G01 X19.9246 Y2.1888 F60.00
G01 X20.0124 Y2.0705 F60.00
G01 X20.0214 Y2.0590 F60.00
G01 X20.0309 Y2.0479 F60.00
G01 X20.1299 Y1.9388 F60.00
G01 X20.1400 Y1.9282 F60.00
G01 X20.1506 Y1.9181 F60.00
G01 X20.2597 Y1.8191 F60.00
G01 X20.2708 Y1.8096 F60.00
G01 X20.2823 Y1.8006 F60.00
G01 X20.4006 Y1.7128 F60.00
G01 X20.4187 Y1.7004 F60.00
G01 X20.5513 Y1.6208 F60.00
G01 X20.5641 Y1.6136 F60.00
G01 X20.5771 Y1.6070 F60.00
G01 X20.7103 Y1.5441 F60.00
G01 X20.7237 Y1.5381 F60.00
G01 X20.7373 Y1.5329 F60.00
G01 X20.8760 Y1.4832 F60.00
G01 X20.8899 Y1.4786 F60.00
G01 X20.9040 Y1.4747 F60.00
G01 X21.0469 Y1.4390 F60.00
G01 X21.0612 Y1.4357 F60.00
G01 X21.0756 Y1.4332 F60.00
G01 X21.2213 Y1.4116 F60.00
G01 X21.2431 Y1.4092 F60.00
G01 X21.3976 Y1.4015 F60.00
G01 X21.4122 Y1.4012 F60.00
G01 X24.5023 Y1.4012 F60.00
G01 X25.0168 Y0.8868 F60.00
G01 X25.0274 Y0.8767 F60.00
G01 X25.1365 Y0.7777 F60.00
G01 X25.1476 Y0.7682 F60.00
G01 X25.1591 Y0.7592 F60.00
G01 X25.2774 Y0.6714 F60.00
G01 X25.2894 Y0.6630 F60.00
G01 X25.3018 Y0.6552 F60.00
G01 X25.4281 Y0.5794 F60.00
G01 X25.4474 Y0.5689 F60.00
G01 X25.5871 Y0.5027 F60.00
G01 X25.6073 Y0.4940 F60.00
G01 X25.7597 Y0.4395 F60.00
G01 X25.7737 Y0.4352 F60.00
G01 X25.8120 Y0.4255 F60.00
G01 X13.7612 Y0.4255 F60.00
G01 X13.7995 Y0.4352 F60.00
G01 X13.8135 Y0.4395 F60.00
G01 X13.9659 Y0.4940 F60.00
G01 X13.9861 Y0.5027 F60.00
G01 X14.1258 Y0.5689 F60.00
G01 X14.1451 Y0.5794 F60.00
G01 X14.2714 Y0.6552 F60.00
G01 X14.2838 Y0.6630 F60.00
G01 X14.2958 Y0.6714 F60.00
G01 X14.4199 Y0.7636 F60.00
G01 X14.4367 Y0.7777 F60.00
G01 X14.5458 Y0.8767 F60.00
G01 X14.5564 Y0.8868 F60.00
G01 X14.5665 Y0.8974 F60.00
G01 X14.6655 Y1.0065 F60.00
G01 X14.6750 Y1.0176 F60.00
G01 X14.6840 Y1.0291 F60.00
G01 X14.7718 Y1.1474 F60.00
G01 X14.7802 Y1.1594 F60.00
G01 X14.7880 Y1.1718 F60.00
G01 X14.8674 Y1.3044 F60.00
G01 X14.8776 Y1.3239 F60.00
G01 X14.9405 Y1.4571 F60.00
G01 X14.9465 Y1.4705 F60.00
G01 X14.9517 Y1.4841 F60.00
G01 X15.0014 Y1.6228 F60.00
G01 X15.0060 Y1.6367 F60.00
G01 X15.0099 Y1.6508 F60.00
G01 X15.0456 Y1.7937 F60.00
G01 X15.0489 Y1.8080 F60.00
G01 X15.0514 Y1.8224 F60.00
G01 X15.0730 Y1.9681 F60.00
G01 X15.0748 Y1.9826 F60.00
G01 X15.0758 Y1.9973 F60.00
G01 X15.0831 Y2.1444 F60.00
G01 X15.0834 Y2.1590 F60.00
G01 X15.0831 Y2.1736 F60.00
G01 X15.0758 Y2.3207 F60.00
G01 X15.0748 Y2.3354 F60.00
G01 X15.0730 Y2.3499 F60.00
G01 X15.0514 Y2.4956 F60.00
G01 X15.0489 Y2.5100 F60.00
G01 X15.0456 Y2.5243 F60.00
G01 X15.0099 Y2.6672 F60.00
G01 X15.0060 Y2.6813 F60.00
G01 X15.0014 Y2.6952 F60.00
G01 X14.9517 Y2.8339 F60.00
G01 X14.9465 Y2.8475 F60.00
G01 X14.9405 Y2.8609 F60.00
G01 X14.8776 Y2.9941 F60.00
G01 X14.8710 Y3.0071 F60.00
G01 X14.8638 Y3.0199 F60.00
G01 X14.7880 Y3.1462 F60.00
G01 X14.7802 Y3.1586 F60.00
G01 X14.7718 Y3.1706 F60.00
G01 X14.6840 Y3.2889 F60.00
G01 X14.6703 Y3.3060 F60.00
G01 X14.5665 Y3.4206 F60.00
G01 X14.5564 Y3.4312 F60.00
G01 X13.5150 Y4.4726 F60.00
G01 X13.5044 Y4.4827 F60.00
G01 X13.3953 Y4.5817 F60.00
G01 X13.3842 Y4.5912 F60.00
G01 X13.3727 Y4.6002 F60.00
G01 X13.2544 Y4.6880 F60.00
G01 X13.2424 Y4.6964 F60.00
G01 X13.2300 Y4.7042 F60.00
G01 X13.1037 Y4.7800 F60.00
G01 X13.0909 Y4.7872 F60.00
G01 X13.0779 Y4.7938 F60.00
G01 X12.9447 Y4.8567 F60.00
G01 X12.9313 Y4.8627 F60.00
G01 X12.9177 Y4.8679 F60.00
G01 X12.7790 Y4.9176 F60.00
G01 X12.7651 Y4.9222 F60.00
G01 X12.7510 Y4.9261 F60.00
G01 X12.6081 Y4.9618 F60.00
G01 X12.5938 Y4.9651 F60.00
G01 X12.5794 Y4.9676 F60.00
G01 X12.4337 Y4.9892 F60.00
G01 X12.4192 Y4.9910 F60.00
G01 X12.4045 Y4.9920 F60.00
G01 X12.2574 Y4.9993 F60.00
G01 X12.2428 Y4.9996 F60.00
G01 X12.2282 Y4.9993 F60.00
G01 X12.0737 Y4.9916 F60.00
G01 X12.0519 Y4.9892 F60.00
G01 X11.8990 Y4.9664 F60.00
G01 X11.8846 Y4.9635 F60.00
G01 X11.8364 Y4.9515 F60.00
G01 X11.7882 Y4.9635 F60.00
G01 X11.7738 Y4.9664 F60.00
G01 X11.6136 Y4.9902 F60.00
G01 X11.5917 Y4.9920 F60.00
G01 X11.4373 Y4.9995 F60.00
G01 X8.5017 Y4.9995 F60.00
G01 X8.3473 Y4.9920 F60.00
G01 X8.3326 Y4.9910 F60.00
G01 X8.3181 Y4.9892 F60.00
G01 X8.1724 Y4.9676 F60.00
G01 X8.1508 Y4.9635 F60.00
G01 X8.0008 Y4.9261 F60.00
G01 X7.9797 Y4.9199 F60.00
G01 X7.8273 Y4.8654 F60.00
G01 X7.8137 Y4.8598 F60.00
G01 X7.7870 Y4.8472 F60.00
G01 X5.4537 Y4.8471 F60.00
G01 X5.2993 Y4.8396 F60.00
G01 X5.2846 Y4.8386 F60.00
G01 X5.2701 Y4.8368 F60.00
G01 X5.1172 Y4.8140 F60.00
G01 X5.0957 Y4.8094 F60.00
G01 X4.9528 Y4.7737 F60.00
G01 X4.9387 Y4.7698 F60.00
G01 X4.9248 Y4.7652 F60.00
G01 X4.7861 Y4.7155 F60.00
G01 X4.7725 Y4.7103 F60.00
G01 X4.7591 Y4.7043 F60.00
G01 X4.6259 Y4.6414 F60.00
G01 X4.6129 Y4.6348 F60.00
G01 X4.6001 Y4.6276 F60.00
G01 X4.4738 Y4.5518 F60.00
G01 X4.4614 Y4.5440 F60.00
G01 X4.4494 Y4.5356 F60.00
G01 X4.3311 Y4.4478 F60.00
G01 X4.3196 Y4.4388 F60.00
G01 X4.3085 Y4.4293 F60.00
G01 X4.1994 Y4.3303 F60.00
G01 X4.1888 Y4.3202 F60.00
G01 X4.1787 Y4.3096 F60.00
G01 X4.0797 Y4.2005 F60.00
G01 X4.0702 Y4.1894 F60.00
G01 X4.0612 Y4.1779 F60.00
G01 X3.9734 Y4.0596 F60.00
G01 X3.9650 Y4.0476 F60.00
G01 X3.9572 Y4.0352 F60.00
G01 X3.8814 Y3.9089 F60.00
G01 X3.8742 Y3.8961 F60.00
G01 X3.8676 Y3.8831 F60.00
G01 X3.8047 Y3.7499 F60.00
G01 X3.7987 Y3.7365 F60.00
G01 X3.7935 Y3.7229 F60.00
G01 X3.7438 Y3.5842 F60.00
G01 X3.7372 Y3.5633 F60.00
G01 X3.6996 Y3.4133 F60.00
G01 X3.6963 Y3.3990 F60.00
G01 X3.6938 Y3.3846 F60.00
G01 X3.6722 Y3.2389 F60.00
G01 X3.6704 Y3.2244 F60.00
G01 X3.6694 Y3.2097 F60.00
G01 X3.6621 Y3.0626 F60.00
G01 X3.6618 Y3.0480 F60.00
G01 X3.6621 Y3.0334 F60.00
G01 X3.6694 Y2.8863 F60.00
G01 X3.6704 Y2.8716 F60.00
G01 X3.6722 Y2.8571 F60.00
G01 X3.6938 Y2.7114 F60.00
G01 X3.6963 Y2.6970 F60.00
G01 X3.6996 Y2.6827 F60.00
G01 X3.7353 Y2.5398 F60.00
G01 X3.7392 Y2.5257 F60.00
G01 X3.7438 Y2.5118 F60.00
G01 X3.7935 Y2.3731 F60.00
G01 X3.7987 Y2.3595 F60.00
G01 X3.8047 Y2.3461 F60.00
G01 X3.8676 Y2.2129 F60.00
G01 X3.8742 Y2.1999 F60.00
G01 X3.8814 Y2.1871 F60.00
G01 X3.9572 Y2.0608 F60.00
G01 X3.9650 Y2.0484 F60.00
G01 X3.9734 Y2.0364 F60.00
G01 X4.0612 Y1.9181 F60.00
G01 X4.0702 Y1.9066 F60.00
G01 X4.0797 Y1.8955 F60.00
G01 X4.1787 Y1.7864 F60.00
G01 X4.1888 Y1.7758 F60.00
G01 X4.1994 Y1.7657 F60.00
G01 X4.3085 Y1.6667 F60.00
G01 X4.3196 Y1.6572 F60.00
G01 X4.3311 Y1.6482 F60.00
G01 X4.4494 Y1.5604 F60.00
G01 X4.4614 Y1.5520 F60.00
G01 X4.4738 Y1.5442 F60.00
G01 X4.6001 Y1.4684 F60.00
G01 X4.6129 Y1.4612 F60.00
G01 X4.6259 Y1.4546 F60.00
G01 X4.7591 Y1.3917 F60.00
G01 X4.7725 Y1.3857 F60.00
G01 X4.7861 Y1.3805 F60.00
G01 X4.9248 Y1.3308 F60.00
G01 X4.9457 Y1.3242 F60.00
G01 X5.0957 Y1.2866 F60.00
G01 X5.1100 Y1.2833 F60.00
G01 X5.1244 Y1.2808 F60.00
G01 X5.2701 Y1.2592 F60.00
G01 X5.2846 Y1.2574 F60.00
G01 X5.2993 Y1.2564 F60.00
G01 X5.4537 Y1.2489 F60.00
G01 X8.3820 Y1.2488 F60.00
G01 X8.3966 Y1.2491 F60.00
G01 X8.5437 Y1.2564 F60.00
G01 X8.5584 Y1.2574 F60.00
G01 X8.5729 Y1.2592 F60.00
G01 X8.7186 Y1.2808 F60.00
G01 X8.7330 Y1.2833 F60.00
G01 X8.7473 Y1.2866 F60.00
G01 X8.8902 Y1.3223 F60.00
G01 X8.9113 Y1.3285 F60.00
G01 X9.0637 Y1.3830 F60.00
G01 X9.0773 Y1.3886 F60.00
G01 X9.1040 Y1.4012 F60.00
G01 X11.4300 Y1.4012 F60.00
G01 X11.4446 Y1.4015 F60.00
G01 X11.4947 Y1.4040 F60.00
G00 Z3.0000
G00 X14.0750 Y10.2348
G01 F60.00
G01 Z-0.0980
G01 F60.00
G01 X5.4610 Y10.2348 F60.00
G01 X5.4275 Y10.2340 F60.00
G01 X5.2804 Y10.2267 F60.00
G01 X5.2470 Y10.2243 F60.00
G01 X5.2138 Y10.2202 F60.00
G01 X5.0681 Y10.1986 F60.00
G01 X5.0351 Y10.1928 F60.00
G01 X5.0024 Y10.1855 F60.00
G01 X4.8596 Y10.1497 F60.00
G01 X4.8273 Y10.1408 F60.00
G01 X4.7955 Y10.1303 F60.00
G01 X4.6569 Y10.0807 F60.00
G01 X4.6256 Y10.0686 F60.00
G01 X4.5950 Y10.0550 F60.00
G01 X4.4619 Y9.9921 F60.00
G01 X4.4319 Y9.9770 F60.00
G01 X4.4028 Y9.9605 F60.00
G01 X4.2765 Y9.8848 F60.00
G01 X4.2482 Y9.8669 F60.00
G01 X4.2208 Y9.8476 F60.00
G01 X4.1025 Y9.7599 F60.00
G01 X4.0761 Y9.7393 F60.00
G01 X4.0508 Y9.7174 F60.00
G01 X3.9416 Y9.6185 F60.00
G01 X3.9174 Y9.5954 F60.00
G01 X3.8943 Y9.5712 F60.00
G01 X3.7954 Y9.4620 F60.00
G01 X3.7735 Y9.4367 F60.00
G01 X3.7529 Y9.4103 F60.00
G01 X3.6652 Y9.2920 F60.00
G01 X3.6459 Y9.2646 F60.00
G01 X3.6280 Y9.2363 F60.00
G01 X3.5439 Y9.0955 F60.00
G01 X3.5281 Y9.0660 F60.00
G01 X3.5207 Y9.0509 F60.00
G01 X3.4578 Y8.9178 F60.00
G01 X3.4442 Y8.8872 F60.00
G01 X3.4321 Y8.8559 F60.00
G01 X3.3825 Y8.7173 F60.00
G01 X3.3720 Y8.6855 F60.00
G01 X3.3631 Y8.6532 F60.00
G01 X3.3273 Y8.5104 F60.00
G01 X3.3200 Y8.4777 F60.00
G01 X3.3142 Y8.4447 F60.00
G01 X3.2926 Y8.2990 F60.00
G01 X3.2885 Y8.2658 F60.00
G01 X3.2861 Y8.2324 F60.00
G01 X3.2788 Y8.0853 F60.00
G01 X3.2780 Y8.0518 F60.00
G01 X3.2788 Y8.0183 F60.00
G01 X3.2861 Y7.8712 F60.00
G01 X3.2885 Y7.8378 F60.00
G01 X3.2926 Y7.8046 F60.00
G01 X3.3142 Y7.6589 F60.00
G01 X3.3200 Y7.6259 F60.00
G01 X3.3273 Y7.5932 F60.00
G01 X3.3631 Y7.4504 F60.00
G01 X3.3720 Y7.4181 F60.00
G01 X3.3771 Y7.4022 F60.00
G01 X3.4321 Y7.2477 F60.00
G01 X3.4442 Y7.2164 F60.00
G01 X3.4578 Y7.1858 F60.00
G01 X3.5207 Y7.0527 F60.00
G01 X3.5358 Y7.0227 F60.00
G01 X3.5523 Y6.9936 F60.00
G01 X3.6280 Y6.8673 F60.00
G01 X3.6459 Y6.8390 F60.00
G01 X3.6652 Y6.8116 F60.00
G01 X3.7529 Y6.6933 F60.00
G01 X3.7735 Y6.6669 F60.00
G01 X3.7954 Y6.6416 F60.00
G01 X3.8943 Y6.5324 F60.00
G01 X3.9174 Y6.5082 F60.00
G01 X3.9416 Y6.4851 F60.00
G01 X4.0508 Y6.3862 F60.00
G01 X4.0761 Y6.3643 F60.00
G01 X4.1025 Y6.3437 F60.00
G01 X4.2208 Y6.2560 F60.00
G01 X4.2482 Y6.2367 F60.00
G01 X4.2765 Y6.2188 F60.00
G01 X4.4028 Y6.1431 F60.00
G01 X4.4319 Y6.1266 F60.00
G01 X4.4619 Y6.1115 F60.00
G01 X4.5950 Y6.0486 F60.00
G01 X4.6256 Y6.0350 F60.00
G01 X4.6569 Y6.0229 F60.00
G01 X4.7955 Y5.9733 F60.00
G01 X4.8273 Y5.9628 F60.00
G01 X4.8596 Y5.9539 F60.00
G01 X5.0024 Y5.9181 F60.00
G01 X5.0351 Y5.9108 F60.00
G01 X5.0681 Y5.9050 F60.00
G01 X5.2138 Y5.8834 F60.00
G01 X5.2470 Y5.8793 F60.00
G01 X5.2637 Y5.8779 F60.00
G01 X5.4275 Y5.8696 F60.00
G01 X5.4610 Y5.8688 F60.00
G01 X14.6304 Y5.8688 F60.00
G01 X14.6639 Y5.8696 F60.00
G01 X14.8110 Y5.8769 F60.00
G01 X14.8444 Y5.8793 F60.00
G01 X14.8776 Y5.8834 F60.00
G01 X15.0233 Y5.9050 F60.00
G01 X15.0563 Y5.9108 F60.00
G01 X15.0890 Y5.9181 F60.00
G01 X15.2480 Y5.9582 F60.00
G01 X15.2641 Y5.9628 F60.00
G01 X15.2874 Y5.9704 F60.00
G01 X25.1087 Y5.9704 F60.00
G01 X25.2425 Y5.9225 F60.00
G01 X25.2743 Y5.9120 F60.00
G01 X25.3066 Y5.9031 F60.00
G01 X25.4657 Y5.8634 F60.00
G01 X25.4821 Y5.8600 F60.00
G01 X25.5151 Y5.8542 F60.00
G01 X25.6608 Y5.8326 F60.00
G01 X25.6940 Y5.8285 F60.00
G01 X25.7274 Y5.8261 F60.00
G01 X25.8745 Y5.8188 F60.00
G01 X25.9080 Y5.8180 F60.00
G01 X27.7622 Y5.8180 F60.00
G01 X27.7957 Y5.8188 F60.00
G01 X27.9428 Y5.8261 F60.00
G01 X27.9762 Y5.8285 F60.00
G01 X28.0094 Y5.8326 F60.00
G01 X28.1551 Y5.8542 F60.00
G01 X28.1881 Y5.8600 F60.00
G01 X28.2208 Y5.8673 F60.00
G01 X28.3798 Y5.9074 F60.00
G01 X28.4118 Y5.9171 F60.00
G01 X28.4277 Y5.9225 F60.00
G01 X28.5663 Y5.9721 F60.00
G01 X28.5976 Y5.9842 F60.00
G01 X28.6282 Y5.9978 F60.00
G01 X28.7613 Y6.0607 F60.00
G01 X28.7913 Y6.0758 F60.00
G01 X28.8204 Y6.0923 F60.00
G01 X28.9467 Y6.1680 F60.00
G01 X28.9750 Y6.1859 F60.00
G01 X29.0024 Y6.2052 F60.00
G01 X29.1207 Y6.2929 F60.00
G01 X29.1471 Y6.3135 F60.00
G01 X29.1724 Y6.3354 F60.00
G01 X29.2816 Y6.4343 F60.00
G01 X29.3058 Y6.4574 F60.00
G01 X29.3289 Y6.4816 F60.00
G01 X29.4278 Y6.5908 F60.00
G01 X29.4497 Y6.6161 F60.00
G01 X29.4703 Y6.6425 F60.00
G01 X29.5580 Y6.7608 F60.00
G01 X29.5773 Y6.7882 F60.00
G01 X29.5952 Y6.8165 F60.00
G01 X29.6709 Y6.9428 F60.00
G01 X29.6793 Y6.9573 F60.00
G01 X29.6951 Y6.9868 F60.00
G01 X29.7654 Y7.1350 F60.00
G01 X29.7790 Y7.1656 F60.00
G01 X29.7911 Y7.1969 F60.00
G01 X29.8407 Y7.3355 F60.00
G01 X29.8512 Y7.3673 F60.00
G01 X29.8601 Y7.3996 F60.00
G01 X29.8959 Y7.5424 F60.00
G01 X29.8998 Y7.5587 F60.00
G01 X29.9063 Y7.5916 F60.00
G01 X29.9306 Y7.7538 F60.00
G01 X29.9347 Y7.7870 F60.00
G01 X29.9371 Y7.8204 F60.00
G01 X29.9444 Y7.9675 F60.00
G01 X29.9452 Y8.0010 F60.00
G01 X29.9444 Y8.0345 F60.00
G01 X29.9371 Y8.1816 F60.00
G01 X29.9347 Y8.2150 F60.00
G01 X29.9306 Y8.2482 F60.00
G01 X29.9090 Y8.3939 F60.00
G01 X29.9032 Y8.4269 F60.00
G01 X29.8959 Y8.4596 F60.00
G01 X29.8601 Y8.6024 F60.00
G01 X29.8512 Y8.6347 F60.00
G01 X29.8407 Y8.6665 F60.00
G01 X29.7911 Y8.8051 F60.00
G01 X29.7790 Y8.8364 F60.00
G01 X29.7654 Y8.8670 F60.00
G01 X29.7025 Y9.0001 F60.00
G01 X29.6874 Y9.0301 F60.00
G01 X29.6709 Y9.0592 F60.00
G01 X29.5952 Y9.1855 F60.00
G01 X29.5773 Y9.2138 F60.00
G01 X29.5580 Y9.2412 F60.00
G01 X29.4703 Y9.3595 F60.00
G01 X29.4497 Y9.3859 F60.00
G01 X29.4278 Y9.4112 F60.00
G01 X29.3289 Y9.5204 F60.00
G01 X29.3058 Y9.5446 F60.00
G01 X29.2816 Y9.5677 F60.00
G01 X29.1724 Y9.6666 F60.00
G01 X29.1471 Y9.6885 F60.00
G01 X29.1207 Y9.7091 F60.00
G01 X29.0024 Y9.7968 F60.00
G01 X28.9750 Y9.8161 F60.00
G01 X28.9467 Y9.8340 F60.00
G01 X28.8204 Y9.9097 F60.00
G01 X28.7913 Y9.9262 F60.00
G01 X28.7613 Y9.9413 F60.00
G01 X28.6282 Y10.0042 F60.00
G01 X28.5976 Y10.0178 F60.00
G01 X28.5663 Y10.0299 F60.00
G01 X28.4277 Y10.0795 F60.00
G01 X28.3959 Y10.0900 F60.00
G01 X28.3636 Y10.0989 F60.00
G01 X28.2208 Y10.1347 F60.00
G01 X28.2045 Y10.1386 F60.00
G01 X28.1716 Y10.1451 F60.00
G01 X28.0094 Y10.1694 F60.00
G01 X27.9762 Y10.1735 F60.00
G01 X27.9428 Y10.1759 F60.00
G01 X27.7789 Y10.1838 F60.00
G01 X26.5549 Y10.1840 F60.00
G01 X26.4211 Y10.2319 F60.00
G01 X26.3893 Y10.2424 F60.00
G01 X26.3570 Y10.2513 F60.00
G01 X26.2142 Y10.2871 F60.00
G01 X26.1815 Y10.2944 F60.00
G01 X26.1485 Y10.3002 F60.00
G01 X26.0028 Y10.3218 F60.00
G01 X25.9696 Y10.3259 F60.00
G01 X25.9362 Y10.3283 F60.00
G01 X25.7891 Y10.3356 F60.00
G01 X25.7556 Y10.3364 F60.00
G01 X14.7320 Y10.3364 F60.00
